(Project FullFIllsAndGull)
(Created by Estlcam version 10 build 10.041)
(Machining time about 00:09:20 hours)

(Required tools:)
(Pen)
G21
G90
G94
M03 S24000
G00 Z5.0000


(No. 1: Engraving 1)
G00 X3.4247 Y347.8567
G00 Z0.5000
G01 Z-0.0100 F500 S24000
G03 X3.1492 Y327.0540 I9687.2518 J-138.6824
G01 X3.1280 Y325.3204
G01 X3.1071 Y323.5869
G01 X3.0864 Y321.8533
G01 X3.0659 Y320.1197
G01 X3.0456 Y318.3861
G01 X3.0256 Y316.6525
G01 X3.0057 Y314.9189
G01 X2.9861 Y313.1853
G01 X2.9667 Y311.4517
G01 X2.9475 Y309.7181
G01 X2.9285 Y307.9845
G01 X2.9097 Y306.2509
G01 X2.8911 Y304.5173
G01 X2.8727 Y302.7836
G01 X2.8546 Y301.0500
G01 X2.8366 Y299.3164
G01 X2.8188 Y297.5828
G01 X2.8013 Y295.8492
G01 X2.7839 Y294.1155
G01 X2.7668 Y292.3819
G01 X2.7498 Y290.6483
G01 X2.7331 Y288.9146
G01 X2.7165 Y287.1810
G01 X2.7002 Y285.4474
G01 X2.6841 Y283.7137
G01 X2.6681 Y281.9801
G01 X2.6524 Y280.2465
G01 X2.6369 Y278.5128
G01 X2.6216 Y276.7792
G01 X2.6065 Y275.0455
G01 X2.5916 Y273.3119
G01 X2.5769 Y271.5782
G01 X2.5625 Y269.8446
G01 X2.5482 Y268.1109
G01 X2.5342 Y266.3773
G01 X2.5203 Y264.6436
G01 X2.5067 Y262.9100
G01 X2.4933 Y261.1763
G01 X2.4801 Y259.4426
G01 X2.4671 Y257.7090
G01 X2.4543 Y255.9753
G01 X2.4418 Y254.2416
G01 X2.4295 Y252.5080
G01 X2.4174 Y250.7743
G01 X2.4055 Y249.0406
G01 X2.3939 Y247.3070
G01 X2.3824 Y245.5733
G01 X2.3712 Y243.8396
G01 X2.3603 Y242.1059
G01 X2.3495 Y240.3723
G01 X2.3390 Y238.6386
G01 X2.3288 Y236.9049
G01 X2.3187 Y235.1712
G01 X2.3089 Y233.4375
G01 X2.2994 Y231.7038
G01 X2.2901 Y229.9702
G01 X2.2810 Y228.2365
G01 X2.2722 Y226.5028
G01 X2.2636 Y224.7691
G01 X2.2553 Y223.0354
G01 X2.2472 Y221.3017
G01 X2.2394 Y219.5680
G01 X2.2318 Y217.8343
G01 X2.2245 Y216.1006
G01 X2.2175 Y214.3669
G01 X2.2107 Y212.6332
G01 X2.2042 Y210.8995
G01 X2.1979 Y209.1658
G01 X2.1920 Y207.4321
G01 X2.1863 Y205.6984
G01 X2.1809 Y203.9647
G01 X2.1757 Y202.2310
G01 X2.1709 Y200.4973
G01 X2.1663 Y198.7636
G01 X2.1620 Y197.0299
G01 X2.1581 Y195.2962
G03 X2.1345 Y174.4917 I9425.5906 J-21.0715
G01 X2.1347 Y172.7475
G03 X2.1436 Y162.2828 I7854.1409 J1.4785
G03 X2.8855 Y82.0578 I4374.3797 J0.3374
G03 X4.4254 Y36.7389 I1382.1281 J24.2768
G03 X6.0232 Y15.8731 I395.5956 J19.7986
G03 X7.2760 Y7.2455 I102.8686 J10.5327
G01 X7.6483 Y5.5417
G01 X8.1132 Y3.8610
G01 X8.7622 Y2.2445
G01 X9.9964 Y1.1266
G01 X11.2279 Y2.2448
G01 X11.8654 Y3.8654
G03 X12.9725 Y8.9735 I-40.8240 J11.5219
G03 X14.3167 Y21.1017 I-166.7564 J24.6204
G03 X15.6820 Y47.2183 I-618.3583 J45.4191
G03 X16.6623 Y97.7728 I-2143.7867 J66.8599
G03 X16.9201 Y183.2073 I-9259.6427 J70.6554
G01 X16.9198 Y184.9504
G01 X16.9195 Y186.6936
G01 X16.9192 Y188.4367
G01 X16.9189 Y190.1798
G01 X16.9187 Y191.9229
G01 X16.9185 Y193.6661
G01 X16.9183 Y195.4092
G01 Y197.1523
G01 Y198.8955
G01 Y200.6386
G01 X16.9186 Y202.3817
G01 X16.9189 Y204.1248
G01 X16.9194 Y205.8680
G01 X16.9200 Y207.6111
G01 X16.9208 Y209.3542
G01 X16.9217 Y211.0973
G01 X16.9229 Y212.8405
G01 X16.9243 Y214.5836
G01 X16.9259 Y216.3267
G01 X16.9277 Y218.0699
G01 X16.9298 Y219.8130
G02 X16.9379 Y225.0424 I9994.0264 J-12.7645
G02 X17.4532 Y287.7921 I3835.6780 J-0.1238
G02 X18.5465 Y320.8919 I971.6172 J-15.5245
G02 X19.7796 Y336.5291 I263.5463 J-12.9142
G02 X20.8653 Y343.4136 I71.0246 J-7.6733
G01 X21.3003 Y345.1012
G01 X21.9208 Y346.7279
G01 X23.1399 Y347.8567
G01 X24.3714 Y346.7385
G01 X25.0089 Y345.1180
G02 X26.1160 Y340.0098 I-40.8240 J-11.5219
G02 X27.4602 Y327.8816 I-166.7564 J-24.6204
G02 X28.8255 Y301.7650 I-618.3583 J-45.4191
G02 X29.8058 Y251.2105 I-2143.7866 J-66.8599
G02 X30.0636 Y165.7760 I-9259.6476 J-70.6554
G01 X30.0633 Y164.0329
G01 X30.0630 Y162.2898
G01 X30.0627 Y160.5466
G01 X30.0624 Y158.8035
G01 X30.0622 Y157.0604
G01 X30.0620 Y155.3173
G01 X30.0618 Y153.5741
G01 X30.0617 Y151.8310
G01 Y150.0879
G01 X30.0618 Y148.3447
G01 X30.0620 Y146.6016
G01 X30.0624 Y144.8585
G01 X30.0628 Y143.1154
G01 X30.0635 Y141.3722
G01 X30.0643 Y139.6291
G01 X30.0652 Y137.8860
G01 X30.0664 Y136.1428
G01 X30.0678 Y134.3997
G01 X30.0694 Y132.6566
G01 X30.0712 Y130.9135
G01 X30.0733 Y129.1703
G03 X30.0814 Y123.9410 I9994.0200 J12.7645
G03 X30.5967 Y61.1912 I3835.6772 J0.1239
G03 X31.6900 Y28.0915 I971.6172 J15.5245
G03 X32.9230 Y12.4542 I263.5463 J12.9142
G03 X34.0088 Y5.5697 I71.0246 J7.6733
G01 X34.4438 Y3.8821
G01 X35.0643 Y2.2555
G01 X36.2834 Y1.1266
G01 X37.5149 Y2.2448
G01 X38.1524 Y3.8654
G03 X39.2595 Y8.9735 I-40.8240 J11.5219
G03 X40.6037 Y21.1017 I-166.7564 J24.6204
G03 X41.9690 Y47.2183 I-618.3584 J45.4191
G03 X42.9493 Y97.7728 I-2143.7872 J66.8599
G03 X43.2071 Y183.2073 I-9259.6499 J70.6554
G01 X43.2068 Y184.9504
G01 X43.2065 Y186.6936
G01 X43.2062 Y188.4367
G01 X43.2059 Y190.1798
G01 X43.2057 Y191.9229
G01 X43.2055 Y193.6661
G01 X43.2053 Y195.4092
G01 X43.2052 Y197.1523
G01 Y198.8955
G01 X43.2053 Y200.6386
G01 X43.2055 Y202.3817
G01 X43.2059 Y204.1248
G01 X43.2063 Y205.8680
G01 X43.2070 Y207.6111
G01 X43.2077 Y209.3542
G01 X43.2087 Y211.0973
G01 X43.2099 Y212.8405
G01 X43.2113 Y214.5836
G01 X43.2129 Y216.3267
G01 X43.2147 Y218.0699
G01 X43.2168 Y219.8130
G02 X43.2249 Y225.0424 I9994.0255 J-12.7645
G02 X43.7402 Y287.7921 I3835.6791 J-0.1239
G02 X44.8335 Y320.8919 I971.6177 J-15.5245
G02 X46.0665 Y336.5291 I263.5465 J-12.9142
G02 X47.1523 Y343.4136 I71.0246 J-7.6733
G01 X47.5873 Y345.1012
G01 X48.2078 Y346.7279
G01 X49.4269 Y347.8567
G01 X50.6584 Y346.7385
G01 X51.2959 Y345.1180
G02 X52.4030 Y340.0098 I-40.8240 J-11.5219
G02 X53.7472 Y327.8816 I-166.7563 J-24.6204
G02 X55.1124 Y301.7650 I-618.3581 J-45.4191
G02 X56.0928 Y251.2105 I-2143.7860 J-66.8599
G02 X56.3506 Y165.7760 I-9259.6454 J-70.6554
G01 X56.3503 Y164.0329
G01 X56.3500 Y162.2898
G01 X56.3497 Y160.5466
G01 X56.3494 Y158.8035
G01 X56.3492 Y157.0604
G01 X56.3490 Y155.3173
G01 X56.3488 Y153.5741
G01 X56.3487 Y151.8310
G01 Y150.0879
G01 X56.3488 Y148.3447
G01 X56.3490 Y146.6016
G01 X56.3494 Y144.8585
G01 X56.3498 Y143.1154
G01 X56.3505 Y141.3722
G01 X56.3512 Y139.6291
G01 X56.3522 Y137.8860
G01 X56.3534 Y136.1428
G01 X56.3548 Y134.3997
G01 X56.3564 Y132.6566
G01 X56.3582 Y130.9135
G01 X56.3603 Y129.1703
G03 X56.3684 Y123.9410 I9994.0200 J12.7645
G03 X56.8837 Y61.1912 I3835.6772 J0.1239
G03 X57.9770 Y28.0915 I971.6172 J15.5245
G03 X59.2100 Y12.4542 I263.5463 J12.9142
G03 X60.2958 Y5.5697 I71.0246 J7.6733
G01 X60.7308 Y3.8821
G01 X61.3513 Y2.2555
G01 X62.5704 Y1.1266
G01 X63.8019 Y2.2448
G01 X64.4394 Y3.8654
G03 X65.5465 Y8.9735 I-40.8240 J11.5219
G03 X66.8907 Y21.1017 I-166.7564 J24.6204
G03 X68.2559 Y47.2183 I-618.3584 J45.4191
G03 X69.2363 Y97.7728 I-2143.7872 J66.8599
G03 X69.4941 Y183.2073 I-9259.6499 J70.6554
G01 X69.4938 Y184.9504
G01 X69.4935 Y186.6936
G01 X69.4932 Y188.4367
G01 X69.4929 Y190.1798
G01 X69.4927 Y191.9229
G01 X69.4925 Y193.6661
G01 X69.4923 Y195.4092
G01 X69.4922 Y197.1523
G01 Y198.8955
G01 X69.4923 Y200.6386
G01 X69.4925 Y202.3817
G01 X69.4929 Y204.1248
G01 X69.4933 Y205.8680
G01 X69.4939 Y207.6111
G01 X69.4947 Y209.3542
G01 X69.4957 Y211.0973
G01 X69.4969 Y212.8405
G01 X69.4982 Y214.5836
G01 X69.4998 Y216.3267
G01 X69.5017 Y218.0699
G01 X69.5038 Y219.8130
G02 X69.5119 Y225.0424 I9994.0255 J-12.7645
G02 X70.0272 Y287.7921 I3835.6791 J-0.1239
G02 X71.1205 Y320.8919 I971.6177 J-15.5245
G02 X72.3535 Y336.5291 I263.5465 J-12.9142
G02 X73.4393 Y343.4136 I71.0246 J-7.6733
G01 X73.8742 Y345.1012
G01 X74.4948 Y346.7279
G01 X75.7139 Y347.8567
G01 X76.9454 Y346.7385
G01 X77.5829 Y345.1180
G02 X78.6900 Y340.0098 I-40.8240 J-11.5219
G02 X80.0342 Y327.8816 I-166.7564 J-24.6204
G02 X81.3994 Y301.7650 I-618.3581 J-45.4191
G02 X82.3798 Y251.2105 I-2143.7860 J-66.8599
G02 X82.6376 Y165.7760 I-9259.6403 J-70.6554
G01 X82.6373 Y164.0329
G01 X82.6370 Y162.2898
G01 X82.6367 Y160.5466
G01 X82.6364 Y158.8035
G01 X82.6362 Y157.0604
G01 X82.6360 Y155.3173
G01 X82.6358 Y153.5741
G01 X82.6357 Y151.8310
G01 Y150.0879
G01 X82.6358 Y148.3447
G01 X82.6360 Y146.6016
G01 X82.6363 Y144.8585
G01 X82.6368 Y143.1154
G01 X82.6374 Y141.3722
G01 X82.6382 Y139.6291
G01 X82.6392 Y137.8860
G01 X82.6404 Y136.1428
G01 X82.6417 Y134.3997
G01 X82.6433 Y132.6566
G01 X82.6452 Y130.9135
G01 X82.6473 Y129.1703
G03 X82.6553 Y123.9410 I9994.0247 J12.7645
G03 X83.1707 Y61.1912 I3835.6774 J0.1239
G03 X84.2640 Y28.0915 I971.6171 J15.5245
G03 X85.4970 Y12.4542 I263.5463 J12.9142
G03 X86.5828 Y5.5697 I71.0246 J7.6733
G01 X87.0177 Y3.8821
G01 X87.6383 Y2.2555
G01 X88.8574 Y1.1266
G01 X90.0889 Y2.2448
G01 X90.7264 Y3.8654
G03 X91.8335 Y8.9735 I-40.8240 J11.5219
G03 X93.1777 Y21.1017 I-166.7564 J24.6204
G03 X94.5429 Y47.2183 I-618.3584 J45.4191
G03 X95.5233 Y97.7728 I-2143.7872 J66.8599
G03 X95.7811 Y183.2073 I-9259.6499 J70.6554
G01 X95.7808 Y184.9504
G01 X95.7805 Y186.6936
G01 X95.7802 Y188.4367
G01 X95.7799 Y190.1798
G01 X95.7797 Y191.9229
G01 X95.7794 Y193.6661
G01 X95.7793 Y195.4092
G01 X95.7792 Y197.1523
G01 Y198.8955
G01 X95.7793 Y200.6386
G01 X95.7795 Y202.3817
G01 X95.7798 Y204.1248
G01 X95.7803 Y205.8680
G01 X95.7809 Y207.6111
G01 X95.7817 Y209.3542
G01 X95.7827 Y211.0973
G01 X95.7839 Y212.8405
G01 X95.7852 Y214.5836
G01 X95.7868 Y216.3267
G01 X95.7887 Y218.0699
G01 X95.7908 Y219.8130
G02 X95.7988 Y225.0424 I9994.0255 J-12.7645
G02 X96.3142 Y287.7921 I3835.6791 J-0.1239
G02 X97.4075 Y320.8919 I971.6177 J-15.5245
G02 X98.6405 Y336.5291 I263.5465 J-12.9142
G02 X99.7262 Y343.4136 I71.0246 J-7.6733
G01 X100.1612 Y345.1012
G01 X100.7818 Y346.7279
G01 X102.0009 Y347.8567
G01 X103.2324 Y346.7385
G01 X103.8699 Y345.1180
G02 X104.9770 Y340.0098 I-40.8240 J-11.5219
G02 X106.3212 Y327.8816 I-166.7564 J-24.6204
G02 X107.6864 Y301.7650 I-618.3581 J-45.4191
G02 X108.6668 Y251.2105 I-2143.7860 J-66.8599
G02 X108.9246 Y165.7760 I-9259.6403 J-70.6554
G01 X108.9243 Y164.0329
G01 X108.9240 Y162.2898
G01 X108.9237 Y160.5466
G01 X108.9234 Y158.8035
G01 X108.9231 Y157.0604
G01 X108.9229 Y155.3173
G01 X108.9228 Y153.5741
G01 X108.9227 Y151.8310
G01 Y150.0879
G01 X108.9228 Y148.3447
G01 X108.9230 Y146.6016
G01 X108.9233 Y144.8585
G01 X108.9238 Y143.1154
G01 X108.9244 Y141.3722
G01 X108.9252 Y139.6291
G01 X108.9262 Y137.8860
G01 X108.9273 Y136.1428
G01 X108.9287 Y134.3997
G01 X108.9303 Y132.6566
G01 X108.9322 Y130.9135
G01 X108.9343 Y129.1703
G03 X108.9423 Y123.9410 I9994.0265 J12.7645
G03 X109.4577 Y61.1912 I3835.6780 J0.1238
G03 X110.5509 Y28.0915 I971.6172 J15.5245
G03 X111.7840 Y12.4542 I263.5463 J12.9142
G03 X112.8697 Y5.5697 I71.0246 J7.6733
G01 X113.3047 Y3.8821
G01 X113.9253 Y2.2555
G01 X115.1444 Y1.1266
G01 X116.3758 Y2.2448
G01 X117.0134 Y3.8654
G03 X118.1205 Y8.9735 I-40.8240 J11.5219
G03 X119.4646 Y21.1017 I-166.7564 J24.6204
G03 X120.8299 Y47.2183 I-618.3583 J45.4191
G03 X121.8103 Y97.7728 I-2143.7869 J66.8599
G03 X122.0681 Y183.2073 I-9259.6488 J70.6554
G01 X122.0678 Y184.9504
G01 X122.0675 Y186.6936
G01 X122.0672 Y188.4367
G01 X122.0669 Y190.1798
G01 X122.0666 Y191.9229
G01 X122.0664 Y193.6661
G01 X122.0663 Y195.4092
G01 X122.0662 Y197.1523
G01 Y198.8955
G01 X122.0663 Y200.6386
G01 X122.0665 Y202.3817
G01 X122.0668 Y204.1248
G01 X122.0673 Y205.8680
G01 X122.0679 Y207.6111
G01 X122.0687 Y209.3542
G01 X122.0697 Y211.0973
G01 X122.0708 Y212.8405
G01 X122.0722 Y214.5836
G01 X122.0738 Y216.3267
G01 X122.0757 Y218.0699
G01 X122.0778 Y219.8130
G02 X122.0858 Y225.0424 I9994.0255 J-12.7645
G02 X122.6012 Y287.7921 I3835.6791 J-0.1239
G02 X123.6944 Y320.8919 I971.6177 J-15.5245
G02 X124.9275 Y336.5291 I263.5465 J-12.9142
G02 X126.0132 Y343.4136 I71.0246 J-7.6733
G01 X126.4482 Y345.1012
G01 X127.0688 Y346.7279
G01 X128.2878 Y347.8567
G01 X129.5193 Y346.7385
G01 X130.1569 Y345.1180
G02 X131.2640 Y340.0098 I-40.8240 J-11.5219
G02 X132.6081 Y327.8816 I-166.7564 J-24.6204
G02 X133.9734 Y301.7650 I-618.3581 J-45.4191
G02 X134.9538 Y251.2105 I-2143.7860 J-66.8599
G02 X135.2115 Y165.7760 I-9259.6403 J-70.6554
G01 X135.2113 Y164.0329
G01 X135.2110 Y162.2898
G01 X135.2107 Y160.5466
G01 X135.2104 Y158.8035
G01 X135.2101 Y157.0604
G01 X135.2099 Y155.3173
G01 X135.2098 Y153.5741
G01 X135.2097 Y151.8310
G01 Y150.0879
G01 X135.2098 Y148.3447
G01 X135.2100 Y146.6016
G01 X135.2103 Y144.8585
G01 X135.2108 Y143.1154
G01 X135.2114 Y141.3722
G01 X135.2122 Y139.6291
G01 X135.2132 Y137.8860
G01 X135.2143 Y136.1428
G01 X135.2157 Y134.3997
G01 X135.2173 Y132.6566
G01 X135.2192 Y130.9135
G01 X135.2213 Y129.1703
G03 X135.2293 Y123.9410 I9994.0266 J12.7645
G03 X135.7447 Y61.1912 I3835.6780 J0.1238
G03 X136.8379 Y28.0915 I971.6172 J15.5245
G03 X138.0710 Y12.4542 I263.5463 J12.9142
G03 X139.1567 Y5.5697 I71.0246 J7.6733
G01 X139.5917 Y3.8821
G01 X140.2123 Y2.2555
G01 X141.4313 Y1.1266
G01 X142.6628 Y2.2448
G01 X143.3004 Y3.8654
G03 X144.4075 Y8.9735 I-40.8240 J11.5219
G03 X145.7516 Y21.1017 I-166.7564 J24.6204
G03 X147.1169 Y47.2183 I-618.3583 J45.4191
G03 X148.0973 Y97.7728 I-2143.7869 J66.8599
G03 X148.3550 Y183.2073 I-9259.6488 J70.6554
G01 X148.3547 Y184.9504
G01 X148.3544 Y186.6936
G01 X148.3542 Y188.4367
G01 X148.3539 Y190.1798
G01 X148.3536 Y191.9229
G01 X148.3534 Y193.6661
G01 X148.3533 Y195.4092
G01 X148.3532 Y197.1523
G01 Y198.8955
G01 X148.3533 Y200.6386
G01 X148.3535 Y202.3817
G01 X148.3538 Y204.1248
G01 X148.3543 Y205.8680
G01 X148.3549 Y207.6111
G01 X148.3557 Y209.3542
G01 X148.3567 Y211.0973
G01 X148.3578 Y212.8405
G01 X148.3592 Y214.5836
G01 X148.3608 Y216.3267
G01 X148.3627 Y218.0699
G01 X148.3648 Y219.8130
G02 X148.3728 Y225.0424 I9994.0255 J-12.7645
G02 X148.8881 Y287.7921 I3835.6791 J-0.1239
G02 X149.9814 Y320.8919 I971.6177 J-15.5245
G02 X151.2145 Y336.5291 I263.5465 J-12.9142
G02 X152.3002 Y343.4136 I71.0246 J-7.6733
G01 X152.7352 Y345.1012
G01 X153.3557 Y346.7279
G01 X154.5748 Y347.8567
G01 X155.8063 Y346.7385
G01 X156.4438 Y345.1180
G02 X157.5509 Y340.0098 I-40.8240 J-11.5219
G02 X158.8951 Y327.8816 I-166.7564 J-24.6204
G02 X160.2604 Y301.7650 I-618.3582 J-45.4191
G02 X161.2408 Y251.2105 I-2143.7863 J-66.8599
G02 X161.4985 Y165.7760 I-9259.6465 J-70.6554
G01 X161.4982 Y164.0329
G01 X161.4979 Y162.2898
G01 X161.4976 Y160.5466
G01 X161.4974 Y158.8035
G01 X161.4971 Y157.0604
G01 X161.4969 Y155.3173
G01 X161.4968 Y153.5741
G01 X161.4967 Y151.8310
G01 Y150.0879
G01 X161.4968 Y148.3447
G01 X161.4970 Y146.6016
G01 X161.4973 Y144.8585
G01 X161.4978 Y143.1154
G01 X161.4984 Y141.3722
G01 X161.4992 Y139.6291
G01 X161.5001 Y137.8860
G01 X161.5013 Y136.1428
G01 X161.5027 Y134.3997
G01 X161.5043 Y132.6566
G01 X161.5061 Y130.9135
G01 X161.5083 Y129.1703
G03 X161.5163 Y123.9410 I9994.0200 J12.7645
G03 X162.0316 Y61.1912 I3835.6772 J0.1239
G03 X163.1249 Y28.0915 I971.6172 J15.5245
G03 X164.3580 Y12.4542 I263.5463 J12.9142
G03 X165.4437 Y5.5697 I71.0246 J7.6733
G01 X165.8787 Y3.8821
G01 X166.4992 Y2.2555
G01 X167.7183 Y1.1266
G01 X168.9498 Y2.2448
G01 X169.5873 Y3.8654
G03 X170.6944 Y8.9735 I-40.8240 J11.5219
G03 X172.0386 Y21.1017 I-166.7564 J24.6204
G03 X173.4039 Y47.2183 I-618.3583 J45.4191
G03 X174.3843 Y97.7728 I-2143.7869 J66.8599
G03 X174.6420 Y183.2073 I-9259.6488 J70.6554
G01 X174.6417 Y184.9504
G01 X174.6414 Y186.6936
G01 X174.6411 Y188.4367
G01 X174.6409 Y190.1798
G01 X174.6406 Y191.9229
G01 X174.6404 Y193.6661
G01 X174.6402 Y195.4092
G01 Y197.1523
G01 Y198.8955
G01 X174.6403 Y200.6386
G01 X174.6405 Y202.3817
G01 X174.6408 Y204.1248
G01 X174.6413 Y205.8680
G01 X174.6419 Y207.6111
G01 X174.6427 Y209.3542
G01 X174.6436 Y211.0973
G01 X174.6448 Y212.8405
G01 X174.6462 Y214.5836
G01 X174.6478 Y216.3267
G01 X174.6496 Y218.0699
G01 X174.6517 Y219.8130
G02 X174.6598 Y225.0424 I9994.0255 J-12.7645
G02 X175.1751 Y287.7921 I3835.6791 J-0.1239
G02 X176.2684 Y320.8919 I971.6177 J-15.5245
G02 X177.5015 Y336.5291 I263.5465 J-12.9142
G02 X178.5872 Y343.4136 I71.0246 J-7.6733
G01 X179.0222 Y345.1012
G01 X179.6427 Y346.7279
G01 X180.8618 Y347.8567
G01 X182.0933 Y346.7385
G01 X182.7308 Y345.1180
G02 X183.8379 Y340.0098 I-40.8240 J-11.5219
G02 X185.1821 Y327.8816 I-166.7564 J-24.6204
G02 X186.5474 Y301.7650 I-618.3582 J-45.4191
G02 X187.5277 Y251.2105 I-2143.7863 J-66.8599
G02 X187.7855 Y165.7760 I-9259.6465 J-70.6554
G01 X187.7852 Y164.0329
G01 X187.7849 Y162.2898
G01 X187.7846 Y160.5466
G01 X187.7844 Y158.8035
G01 X187.7841 Y157.0604
G01 X187.7839 Y155.3173
G01 X187.7837 Y153.5741
G01 Y151.8310
G01 Y150.0879
G01 X187.7838 Y148.3447
G01 X187.7840 Y146.6016
G01 X187.7843 Y144.8585
G01 X187.7848 Y143.1154
G01 X187.7854 Y141.3722
G01 X187.7862 Y139.6291
G01 X187.7871 Y137.8860
G01 X187.7883 Y136.1428
G01 X187.7897 Y134.3997
G01 X187.7913 Y132.6566
G01 X187.7931 Y130.9135
G01 X187.7952 Y129.1703
G03 X187.8033 Y123.9410 I9994.0200 J12.7645
G03 X188.3186 Y61.1912 I3835.6772 J0.1239
G03 X189.4119 Y28.0915 I971.6172 J15.5245
G03 X190.6450 Y12.4542 I263.5463 J12.9142
G03 X191.7307 Y5.5697 I71.0246 J7.6733
G01 X192.1657 Y3.8821
G01 X192.7862 Y2.2555
G01 X194.0053 Y1.1266
G01 X195.2368 Y2.2448
G01 X195.8743 Y3.8654
G03 X196.9814 Y8.9735 I-40.8240 J11.5219
G03 X198.3256 Y21.1017 I-166.7564 J24.6204
G03 X199.6909 Y47.2183 I-618.3583 J45.4191
G03 X200.6712 Y97.7728 I-2143.7869 J66.8599
G03 X200.9290 Y183.2073 I-9259.6488 J70.6554
G01 X200.9287 Y184.9504
G01 X200.9284 Y186.6936
G01 X200.9281 Y188.4367
G01 X200.9278 Y190.1798
G01 X200.9276 Y191.9229
G01 X200.9274 Y193.6661
G01 X200.9272 Y195.4092
G01 X200.9271 Y197.1523
G01 Y198.8955
G01 X200.9272 Y200.6386
G01 X200.9274 Y202.3817
G01 X200.9278 Y204.1248
G01 X200.9282 Y205.8680
G01 X200.9289 Y207.6111
G01 X200.9297 Y209.3542
G01 X200.9306 Y211.0973
G01 X200.9318 Y212.8405
G01 X200.9332 Y214.5836
G01 X200.9348 Y216.3267
G01 X200.9366 Y218.0699
G01 X200.9387 Y219.8130
G02 X200.9468 Y225.0424 I9994.0255 J-12.7645
G02 X201.4621 Y287.7921 I3835.6791 J-0.1239
G02 X202.5554 Y320.8919 I971.6177 J-15.5245
G02 X203.7884 Y336.5291 I263.5465 J-12.9142
G02 X204.8742 Y343.4136 I71.0246 J-7.6733
G01 X205.3092 Y345.1012
G01 X205.9297 Y346.7279
G01 X207.1488 Y347.8567
G01 X208.3803 Y346.7385
G01 X209.0178 Y345.1180
G02 X210.1249 Y340.0098 I-40.8240 J-11.5219
G02 X211.4691 Y327.8816 I-166.7564 J-24.6204
G02 X212.8344 Y301.7650 I-618.3582 J-45.4191
G02 X213.8147 Y251.2105 I-2143.7863 J-66.8599
G02 X214.0725 Y165.7760 I-9259.6465 J-70.6554
G01 X214.0722 Y164.0329
G01 X214.0719 Y162.2898
G01 X214.0716 Y160.5466
G01 X214.0713 Y158.8035
G01 X214.0711 Y157.0604
G01 X214.0709 Y155.3173
G01 X214.0707 Y153.5741
G01 X214.0706 Y151.8310
G01 Y150.0879
G01 X214.0707 Y148.3447
G01 X214.0709 Y146.6016
G01 X214.0713 Y144.8585
G01 X214.0717 Y143.1154
G01 X214.0724 Y141.3722
G01 X214.0731 Y139.6291
G01 X214.0741 Y137.8860
G01 X214.0753 Y136.1428
G01 X214.0767 Y134.3997
G01 X214.0783 Y132.6566
G01 X214.0801 Y130.9135
G01 X214.0822 Y129.1703
G03 X214.0903 Y123.9410 I9994.0200 J12.7645
G03 X214.6056 Y61.1912 I3835.6772 J0.1239
G03 X215.6989 Y28.0915 I971.6172 J15.5245
G03 X216.9319 Y12.4542 I263.5463 J12.9142
G03 X218.0177 Y5.5697 I71.0246 J7.6733
G01 X218.4527 Y3.8821
G01 X219.0732 Y2.2555
G01 X220.2923 Y1.1266
G01 X221.5238 Y2.2448
G01 X222.1613 Y3.8654
G03 X223.2684 Y8.9735 I-40.8240 J11.5219
G03 X224.6126 Y21.1017 I-166.7564 J24.6204
G03 X225.9779 Y47.2183 I-618.3583 J45.4191
G03 X226.9582 Y97.7728 I-2143.7869 J66.8599
G03 X227.2160 Y183.2073 I-9259.6488 J70.6554
G01 X227.2157 Y184.9504
G01 X227.2154 Y186.6936
G01 X227.2151 Y188.4367
G01 X227.2148 Y190.1798
G01 X227.2146 Y191.9229
G01 X227.2144 Y193.6661
G01 X227.2142 Y195.4092
G01 X227.2141 Y197.1523
G01 Y198.8955
G01 X227.2142 Y200.6386
G01 X227.2144 Y202.3817
G01 X227.2148 Y204.1248
G01 X227.2152 Y205.8680
G01 X227.2159 Y207.6111
G01 X227.2166 Y209.3542
G01 X227.2176 Y211.0973
G01 X227.2188 Y212.8405
G01 X227.2202 Y214.5836
G01 X227.2218 Y216.3267
G01 X227.2236 Y218.0699
G01 X227.2257 Y219.8130
G02 X227.2338 Y225.0424 I9994.0255 J-12.7645
G02 X227.7491 Y287.7921 I3835.6791 J-0.1239
G02 X228.8424 Y320.8919 I971.6177 J-15.5245
G02 X230.0754 Y336.5291 I263.5465 J-12.9142
G02 X231.1612 Y343.4136 I71.0246 J-7.6733
G01 X231.5962 Y345.1012
G01 X232.2167 Y346.7279
G01 X233.4358 Y347.8567
G01 X234.6673 Y346.7385
G01 X235.3048 Y345.1180
G02 X236.4119 Y340.0098 I-40.8240 J-11.5219
G02 X237.7561 Y327.8816 I-166.7564 J-24.6204
G02 X239.1213 Y301.7650 I-618.3582 J-45.4191
G02 X240.1017 Y251.2105 I-2143.7863 J-66.8599
G02 X240.3595 Y165.7760 I-9259.6465 J-70.6554
G01 X240.3592 Y164.0329
G01 X240.3589 Y162.2898
G01 X240.3586 Y160.5466
G01 X240.3583 Y158.8035
G01 X240.3581 Y157.0604
G01 X240.3579 Y155.3173
G01 X240.3577 Y153.5741
G01 X240.3576 Y151.8310
G01 Y150.0879
G01 X240.3577 Y148.3447
G01 X240.3579 Y146.6016
G01 X240.3583 Y144.8585
G01 X240.3587 Y143.1154
G01 X240.3593 Y141.3722
G01 X240.3601 Y139.6291
G01 X240.3611 Y137.8860
G01 X240.3623 Y136.1428
G01 X240.3636 Y134.3997
G01 X240.3653 Y132.6566
G01 X240.3671 Y130.9135
G01 X240.3692 Y129.1703
G03 X240.3773 Y123.9410 I9994.0200 J12.7645
G03 X240.8926 Y61.1912 I3835.6772 J0.1239
G03 X241.9859 Y28.0915 I971.6172 J15.5245
G03 X243.2189 Y12.4542 I263.5463 J12.9142
G03 X244.3047 Y5.5697 I71.0246 J7.6733
G01 X244.7396 Y3.8821
G01 X245.3602 Y2.2555
G01 X246.5793 Y1.1266
G01 X247.8108 Y2.2448
G01 X248.4483 Y3.8654
G03 X249.5554 Y8.9735 I-40.8240 J11.5219
G03 X250.8996 Y21.1017 I-166.7564 J24.6204
G03 X252.2648 Y47.2183 I-618.3583 J45.4191
G03 X253.2452 Y97.7728 I-2143.7869 J66.8599
G03 X253.5030 Y183.2073 I-9259.6488 J70.6554
G01 X253.5027 Y184.9504
G01 X253.5024 Y186.6936
G01 X253.5021 Y188.4367
G01 X253.5018 Y190.1798
G01 X253.5016 Y191.9229
G01 X253.5014 Y193.6661
G01 X253.5012 Y195.4092
G01 X253.5011 Y197.1523
G01 Y198.8955
G01 X253.5012 Y200.6386
G01 X253.5014 Y202.3817
G01 X253.5017 Y204.1248
G01 X253.5022 Y205.8680
G01 X253.5028 Y207.6111
G01 X253.5036 Y209.3542
G01 X253.5046 Y211.0973
G01 X253.5058 Y212.8405
G01 X253.5071 Y214.5836
G01 X253.5087 Y216.3267
G01 X253.5106 Y218.0699
G01 X253.5127 Y219.8130
G02 X253.5207 Y225.0424 I9994.0255 J-12.7645
G02 X254.0361 Y287.7921 I3835.6791 J-0.1239
G02 X255.1294 Y320.8919 I971.6177 J-15.5245
G02 X256.3624 Y336.5291 I263.5465 J-12.9142
G02 X257.4482 Y343.4136 I71.0246 J-7.6733
G01 X257.8831 Y345.1012
G01 X258.5037 Y346.7279
G01 X259.7228 Y347.8567
G01 X260.9543 Y346.7385
G01 X261.5918 Y345.1180
G02 X262.6989 Y340.0098 I-40.8240 J-11.5219
G02 X264.0431 Y327.8816 I-166.7564 J-24.6204
G02 X265.4083 Y301.7650 I-618.3582 J-45.4191
G02 X266.3887 Y251.2105 I-2143.7863 J-66.8599
G02 X266.6465 Y165.7760 I-9259.6465 J-70.6554
G01 X266.6462 Y164.0329
G01 X266.6459 Y162.2898
G01 X266.6456 Y160.5466
G01 X266.6453 Y158.8035
G01 X266.6451 Y157.0604
G01 X266.6448 Y155.3173
G01 X266.6447 Y153.5741
G01 X266.6446 Y151.8310
G01 Y150.0879
G01 X266.6447 Y148.3447
G01 X266.6449 Y146.6016
G01 X266.6452 Y144.8585
G01 X266.6457 Y143.1154
G01 X266.6463 Y141.3722
G01 X266.6471 Y139.6291
G01 X266.6481 Y137.8860
G01 X266.6493 Y136.1428
G01 X266.6506 Y134.3997
G01 X266.6522 Y132.6566
G01 X266.6541 Y130.9135
G01 X266.6562 Y129.1703
G03 X266.6642 Y123.9410 I9994.0200 J12.7645
G03 X267.1796 Y61.1912 I3835.6772 J0.1239
G03 X268.2729 Y28.0915 I971.6172 J15.5245
G03 X269.5059 Y12.4542 I263.5463 J12.9142
G03 X270.5916 Y5.5697 I71.0246 J7.6733
G01 X271.0266 Y3.8821
G01 X271.6472 Y2.2555
G01 X272.8663 Y1.1266
G01 X274.0978 Y2.2448
G01 X274.7353 Y3.8654
G03 X275.8424 Y8.9735 I-40.8240 J11.5219
G03 X277.1866 Y21.1017 I-166.7564 J24.6204
G03 X278.5518 Y47.2183 I-618.3584 J45.4191
G03 X279.5322 Y97.7728 I-2143.7870 J66.8599
G03 X279.7900 Y183.2073 I-9259.6438 J70.6554
G01 X279.7897 Y184.9504
G01 X279.7894 Y186.6936
G01 X279.7891 Y188.4367
G01 X279.7888 Y190.1798
G01 X279.7885 Y191.9229
G01 X279.7883 Y193.6661
G01 X279.7882 Y195.4092
G01 X279.7881 Y197.1523
G01 Y198.8955
G01 X279.7882 Y200.6386
G01 X279.7884 Y202.3817
G01 X279.7887 Y204.1248
G01 X279.7892 Y205.8680
G01 X279.7898 Y207.6111
G01 X279.7906 Y209.3542
G01 X279.7916 Y211.0973
G01 X279.7927 Y212.8405
G01 X279.7941 Y214.5836
G01 X279.7957 Y216.3267
G01 X279.7976 Y218.0699
G01 X279.7997 Y219.8130
G02 X279.8077 Y225.0424 I9994.0358 J-12.7645
G02 X280.3231 Y287.7921 I3835.6812 J-0.1238
G02 X281.4163 Y320.8919 I971.6180 J-15.5245
G02 X282.6494 Y336.5291 I263.5466 J-12.9142
G02 X283.7351 Y343.4136 I71.0247 J-7.6733
G01 X284.1701 Y345.1012
G01 X284.7907 Y346.7279
G01 X286.0098 Y347.8567
G01 X287.2412 Y346.7385
G01 X287.8788 Y345.1180
G02 X288.9859 Y340.0098 I-40.8239 J-11.5219
G02 X290.3300 Y327.8817 I-166.7561 J-24.6203
G02 X291.6953 Y301.7650 I-618.3576 J-45.4190
G02 X292.6757 Y251.2105 I-2143.7869 J-66.8597
G02 X292.9334 Y165.7760 I-9259.7223 J-70.6553
G01 X292.9332 Y164.0329
G01 X292.9329 Y162.2898
G01 X292.9326 Y160.5466
G01 X292.9323 Y158.8035
G01 X292.9320 Y157.0604
G01 X292.9318 Y155.3173
G01 X292.9317 Y153.5741
G01 X292.9316 Y151.8310
G01 Y150.0879
G01 X292.9317 Y148.3447
G01 X292.9319 Y146.6016
G01 X292.9322 Y144.8585
G01 X292.9327 Y143.1154
G01 X292.9333 Y141.3722
G01 X292.9341 Y139.6291
G01 X292.9351 Y137.8860
G01 X292.9362 Y136.1428
G01 X292.9376 Y134.3997
G01 X292.9392 Y132.6566
G01 X292.9411 Y130.9135
G01 X292.9432 Y129.1703
G03 X292.9512 Y123.9410 I9993.9663 J12.7649
G03 X293.4666 Y61.1912 I3835.6783 J0.1241
G03 X294.5598 Y28.0915 I971.6196 J15.5246
G03 X295.7929 Y12.4542 I263.5472 J12.9142
G03 X296.8786 Y5.5697 I71.0248 J7.6733
G01 X297.3136 Y3.8821
G01 X297.9342 Y2.2555
G01 X299.1532 Y1.1266
G01 X300.3847 Y2.2448
G01 X301.0223 Y3.8654
G03 X302.1294 Y8.9735 I-40.8239 J11.5219
G03 X303.4735 Y21.1017 I-166.7561 J24.6204
G03 X304.8388 Y47.2183 I-618.3570 J45.4191
G03 X305.8192 Y97.7728 I-2143.7799 J66.8600
G03 X306.0770 Y183.2073 I-9259.5507 J70.6555
G01 X306.0767 Y184.9504
G01 X306.0764 Y186.6936
G01 X306.0761 Y188.4367
G01 X306.0758 Y190.1798
G01 X306.0755 Y191.9229
G01 X306.0753 Y193.6661
G01 X306.0752 Y195.4092
G01 X306.0751 Y197.1523
G01 Y198.8955
G01 X306.0752 Y200.6386
G01 X306.0754 Y202.3817
G01 X306.0757 Y204.1248
G01 X306.0762 Y205.8680
G01 X306.0768 Y207.6111
G01 X306.0776 Y209.3542
G01 X306.0786 Y211.0973
G01 X306.0797 Y212.8405
G01 X306.0811 Y214.5836
G01 X306.0827 Y216.3267
G01 X306.0846 Y218.0699
G01 X306.0867 Y219.8130
G02 X306.0947 Y225.0424 I9994.0961 J-12.7642
G02 X306.6101 Y287.7921 I3835.6838 J-0.1237
G02 X307.7033 Y320.8919 I971.6166 J-15.5244
G02 X308.9364 Y336.5291 I263.5460 J-12.9142
G02 X310.0221 Y343.4136 I71.0245 J-7.6733
G01 X310.4571 Y345.1012
G01 X311.0777 Y346.7279
G01 X312.2968 Y347.8567
G01 X313.5282 Y346.7385
G01 X314.1658 Y345.1180
G02 X315.2729 Y340.0098 I-40.8241 J-11.5219
G02 X316.6170 Y327.8816 I-166.7569 J-24.6204
G02 X317.9823 Y301.7650 I-618.3597 J-45.4191
G02 X318.9627 Y251.2105 I-2143.7889 J-66.8600
G02 X319.2204 Y165.7760 I-9259.5818 J-70.6555
G01 X319.2202 Y164.0329
G01 X319.2199 Y162.2898
G01 X319.2196 Y160.5466
G01 X319.2193 Y158.8035
G01 X319.2190 Y157.0604
G01 X319.2188 Y155.3173
G01 X319.2187 Y153.5741
G01 X319.2186 Y151.8310
G01 Y150.0879
G01 X319.2187 Y148.3447
G01 X319.2189 Y146.6016
G01 X319.2192 Y144.8585
G01 X319.2197 Y143.1154
G01 X319.2203 Y141.3722
G01 X319.2211 Y139.6291
G01 X319.2221 Y137.8860
G01 X319.2232 Y136.1428
G01 X319.2246 Y134.3997
G01 X319.2262 Y132.6566
G01 X319.2281 Y130.9135
G01 X319.2302 Y129.1703
G03 X319.2382 Y123.9410 I9994.0963 J12.7642
G03 X319.7535 Y61.1912 I3835.6838 J0.1237
G03 X320.8468 Y28.0915 I971.6166 J15.5244
G03 X322.0799 Y12.4542 I263.5460 J12.9142
G03 X323.1656 Y5.5697 I71.0245 J7.6733
G01 X323.6006 Y3.8821
G01 X324.2211 Y2.2555
G01 X325.4402 Y1.1266
G01 X326.6866 Y2.2340
G01 X327.3523 Y3.8443
G01 X327.8329 Y5.5211
G01 X328.2201 Y7.2222
G03 X329.5407 Y15.8425 I-108.7655 J21.0733
G01 X329.7380 Y17.5760
G03 X331.4795 Y40.1877 I-453.1920 J46.2753
G01 X331.5747 Y41.9298
G03 X333.2098 Y89.0065 I-1551.5685 J77.4559
G01 X333.2470 Y90.7508
G03 X334.0035 Y181.4268 I-4231.4981 J80.6452
G03 X332.0120 Y347.8567 I-8589.6074 J-19.5575
G00 Z5.0000


(No. 2: Engraving 3)
G00 X332.0120 Y347.8567 Z0.5000
G01 Z-0.0100 F500
G01 X348.7052 Y348.7052
G00 Z5.0000


(No. 3: Engraving 4)
G00 X348.7052 Y348.7052 Z0.5000
G01 Z-0.0100 F500
G01 Y0.0000
G01 X0.0000
G01 Y348.7052
G01 X348.7052
G00 Z5.0000


(No. 4: Engraving 5)
G00 X348.7052 Y348.7052 Z0.5000
G01 Z-0.0100 F500
G01 Y0.0000
G01 X0.0000
G00 Z5.0000

M05
M30
