(Project River1)
(Created by Estlcam version 10 build 10.041)
(Machining time about 00:18:49 hours)

(Required tools:)
(Pen)
G21
G90
G94
M03 S24000
G00 Z5.0000


(No. 1: Engraving 21)
G00 X137.8639 Y88.9702
G00 Z0.5000
G01 Z-0.0100 F1200 S24000
G02 X138.5717 Y55.0497 I-374.2094 J-24.7754
G02 X137.3461 Y38.4524 I-164.6108 J3.8114
G02 X135.4500 Y29.0457 I-61.5520 J7.5124
G02 X133.7734 Y24.8145 I-21.7896 J6.1867
G02 X133.1547 Y23.9390 I-3.4255 J1.7643
G01 X132.8714 Y23.7217
G01 X132.5253 Y23.6645
G01 X132.2264 Y23.8523
G02 X131.6521 Y25.1525 I2.7587 J1.9955
G02 X131.0428 Y29.4050 I27.0255 J6.0419
G01 X131.0143 Y29.7623
G02 X130.6170 Y42.2978 I205.5857 J12.7907
G02 X130.5943 Y48.0322 I750.1045 J5.8382
G01 X130.5941 Y48.3906
G01 Y48.7490
G02 X130.6091 Y56.6337 I3026.7285 J-1.8240
G03 X130.4125 Y83.3378 I-876.1691 J6.9038
G03 X129.4891 Y98.4913 I-193.4340 J-4.1831
G03 X128.2475 Y105.7096 I-49.0861 J-4.7273
G03 X127.1319 Y108.6383 I-11.8227 J-2.8265
G01 X126.8682 Y109.0534
G01 X126.5426 Y109.4207
G01 X126.1006 Y109.6092
G01 X125.6855 Y109.3721
G01 X125.4245 Y108.9566
G03 X124.8645 Y107.0747 I7.9724 J-3.3969
G03 X124.1666 Y101.2155 I51.1953 J-9.0691
G03 X123.5959 Y85.4833 I297.4845 J-18.6680
G03 X123.4118 Y52.2120 I3373.3560 J-35.2945
G02 X122.9357 Y24.7601 I-826.5473 J0.6058
G02 X121.9657 Y11.0693 I-177.1067 J5.6686
G02 X121.0107 Y5.7874 I-37.3940 J4.0335
G02 X120.0846 Y3.5996 I-7.0854 J1.7094
G01 X119.6615 Y3.1830
G01 X119.0940 Y3.0843
G01 X118.6449 Y3.4644
G01 X118.3569 Y3.9869
G02 X117.6062 Y6.8721 I13.4941 J5.0516
G01 X117.5110 Y7.4621
G02 X116.6997 Y16.9854 I101.4932 J13.4426
G02 X116.2556 Y39.0904 I554.6794 J22.2010
G02 X116.2398 Y46.2616 I1708.3002 J7.3567
G01 X116.2397 Y46.8592
G01 Y47.4568
G02 X116.2730 Y64.0382 I7414.0494 J-6.5774
G03 X116.0811 Y101.3558 I-1680.4493 J10.0199
G03 X115.1757 Y122.2320 I-375.3867 J-5.8234
G03 X114.0035 Y131.8594 I-93.8862 J-6.5461
G03 X113.0830 Y135.4724 I-23.9827 J-4.1862
G01 X112.8097 Y136.1667
G01 X112.5223 Y136.7473
G01 X112.1326 Y137.2615
G01 X111.5518 Y137.2886
G01 X111.2054 Y136.7465
G03 X110.5898 Y134.2341 I11.3764 J-4.1190
G03 X109.8699 Y126.4934 I85.1264 J-11.8210
G01 X109.8338 Y125.8463
G03 X109.2683 Y104.4681 I555.3020 J-25.3865
G03 X109.0773 Y60.5173 I7157.6751 J-53.0785
G02 X108.5679 Y25.5465 I-1303.2911 J1.4980
G02 X107.6105 Y9.2060 I-250.2030 J6.4608
G02 X106.7014 Y3.3270 I-46.5708 J4.1912
G01 X106.5028 Y2.6099
G01 X106.2518 Y1.9097
G01 X105.8984 Y1.2567
G01 X105.2964 Y0.8675
G01 X104.5449 Y2.2865
G01 X104.2297 Y3.9344
G01 X104.0071 Y5.5977
G02 X103.3490 Y13.9619 I155.2946 J16.4278
G02 X102.5410 Y39.1215 I756.2432 J36.8783
G01 X102.5107 Y40.7995
G02 X102.0664 Y101.2145 I4131.2063 J60.5905
G01 X102.0636 Y102.8927
G01 X102.0612 Y104.5710
G01 X102.0589 Y106.2492
G01 X102.0569 Y107.9275
G01 X102.0552 Y109.6058
G01 X102.0536 Y111.2840
G01 X102.0522 Y112.9623
G01 X102.0511 Y114.6405
G01 X102.0501 Y116.3188
G01 X102.0493 Y117.9970
G01 X102.0486 Y119.6753
G01 X102.0481 Y121.3535
G01 X102.0477 Y123.0318
G01 X102.0475 Y124.7101
G01 X102.0474 Y126.3883
G01 Y128.0666
G01 X102.0475 Y129.7448
G01 X102.0477 Y131.4231
G01 X102.0479 Y133.1013
G01 X102.0483 Y134.7796
G01 X102.0487 Y136.4578
G01 X102.0492 Y138.1361
G01 X102.0498 Y139.8144
G01 X102.0503 Y141.4926
G01 X102.0510 Y143.1709
G01 X102.0516 Y144.8491
G01 X102.0523 Y146.5274
G01 X102.0530 Y148.2056
G01 X102.0537 Y149.8839
G01 X102.0544 Y151.5621
G01 X102.0551 Y153.2404
G01 X102.0557 Y154.9187
G01 X102.0564 Y156.5969
G01 X102.0570 Y158.2752
G01 X102.0576 Y159.9534
G01 X102.0581 Y161.6317
G01 X102.0586 Y163.3099
G01 X102.0591 Y164.9882
G01 X102.0594 Y166.6664
G01 X102.0597 Y168.3447
G01 X102.0599 Y170.0988
G01 X102.0601 Y171.8529
G01 Y173.6070
G01 X102.0600 Y175.3611
G01 X102.0598 Y177.1152
G01 X102.0595 Y178.8693
G01 X102.0590 Y180.6234
G01 X102.0585 Y182.3775
G01 X102.0578 Y184.1316
G01 X102.0569 Y185.8858
G01 X102.0559 Y187.6399
G01 X102.0547 Y189.3940
G01 X102.0534 Y191.1481
G01 X102.0519 Y192.9022
G01 X102.0502 Y194.6563
G01 X102.0484 Y196.4104
G01 X102.0463 Y198.1645
G01 X102.0441 Y199.9186
G01 X102.0416 Y201.6727
G01 X102.0389 Y203.4268
G01 X102.0360 Y205.1809
G01 X102.0329 Y206.9350
G01 X102.0295 Y208.6891
G01 X102.0259 Y210.4432
G01 X102.0221 Y212.1973
G01 X102.0180 Y213.9514
G01 X102.0136 Y215.7055
G01 X102.0089 Y217.4596
G01 X102.0039 Y219.2137
G03 X101.3735 Y291.1286 I-4901.4056 J-7.0045
G03 X100.3610 Y324.4399 I-1116.5512 J-17.2697
G03 X99.4960 Y336.6868 I-238.9930 J-10.7242
G03 X98.7265 Y341.8895 I-42.7016 J-3.6580
G01 X98.1390 Y343.5333
G01 X97.2333 Y342.6664
G01 X96.9122 Y341.0142
G01 X96.6956 Y339.3445
G03 X96.0733 Y330.9498 I159.8186 J-16.0671
G03 X95.3247 Y305.7053 I811.6223 J-36.7006
G03 X94.8934 Y245.0912 I4294.3688 J-60.8674
G01 X94.8907 Y243.4074
G01 X94.8882 Y241.7236
G01 X94.8860 Y240.0399
G01 X94.8839 Y238.3561
G01 X94.8821 Y236.6723
G01 X94.8805 Y234.9885
G01 X94.8791 Y233.3047
G01 X94.8779 Y231.6209
G01 X94.8768 Y229.9372
G01 X94.8759 Y228.2534
G01 X94.8752 Y226.5696
G01 X94.8746 Y224.8858
G01 X94.8741 Y223.2020
G01 X94.8737 Y221.5182
G01 X94.8735 Y219.8345
G01 X94.8734 Y218.1507
G01 X94.8733 Y216.4669
G01 X94.8734 Y214.7831
G01 X94.8735 Y213.0993
G01 X94.8738 Y211.4155
G01 X94.8740 Y209.7318
G01 X94.8744 Y208.0480
G01 X94.8748 Y206.3642
G01 X94.8752 Y204.6804
G01 X94.8757 Y202.9966
G01 X94.8762 Y201.3128
G01 X94.8767 Y199.6291
G01 X94.8772 Y197.9453
G01 X94.8777 Y196.2615
G01 X94.8783 Y194.5777
G01 X94.8788 Y192.8939
G01 X94.8793 Y191.2101
G01 X94.8798 Y189.5264
G01 X94.8803 Y187.8426
G01 X94.8807 Y186.1588
G01 X94.8811 Y184.4750
G01 X94.8815 Y182.7912
G01 X94.8818 Y181.1074
G01 X94.8820 Y179.4237
G01 X94.8822 Y177.7399
G01 X94.8823 Y176.0561
G01 Y174.3006
G01 X94.8822 Y172.5451
G01 X94.8820 Y170.7895
G01 X94.8817 Y169.0340
G01 X94.8813 Y167.2785
G01 X94.8808 Y165.5230
G01 X94.8802 Y163.7674
G01 X94.8794 Y162.0119
G01 X94.8785 Y160.2564
G01 X94.8774 Y158.5009
G01 X94.8762 Y156.7454
G01 X94.8749 Y154.9898
G01 X94.8734 Y153.2343
G01 X94.8717 Y151.4788
G01 X94.8699 Y149.7233
G01 X94.8679 Y147.9678
G01 X94.8657 Y146.2122
G01 X94.8633 Y144.4567
G01 X94.8608 Y142.7012
G01 X94.8580 Y140.9457
G01 X94.8550 Y139.1902
G01 X94.8518 Y137.4346
G01 X94.8484 Y135.6791
G01 X94.8447 Y133.9236
G01 X94.8408 Y132.1681
G01 X94.8367 Y130.4126
G01 X94.8323 Y128.6570
G01 X94.8276 Y126.9015
G01 X94.8227 Y125.1460
G01 X94.8175 Y123.3905
G01 X94.8120 Y121.6350
G02 X94.1605 Y49.6622 I-4909.8914 J8.4499
G02 X93.1928 Y18.0789 I-1048.3476 J16.3163
G02 X92.2763 Y5.8265 I-192.9050 J8.2688
G01 X92.0401 Y4.0871
G01 X91.7110 Y2.3632
G01 X90.9406 Y0.8675
G01 X90.1886 Y2.3578
G01 X89.8758 Y4.0714
G01 X89.6546 Y5.7996
G02 X88.9998 Y14.4859 I168.7917 J17.0921
G02 X88.1941 Y40.6082 I819.8754 J38.3613
G01 X88.1638 Y42.3504
G02 X87.7175 Y105.0748 I4473.0549 J63.1943
G01 X87.7146 Y106.8172
G01 X87.7120 Y108.5596
G01 X87.7097 Y110.3020
G01 X87.7076 Y112.0444
G01 X87.7057 Y113.7868
G01 X87.7040 Y115.5292
G01 X87.7026 Y117.2716
G01 X87.7013 Y119.0140
G01 X87.7002 Y120.7564
G01 X87.6992 Y122.4988
G01 X87.6984 Y124.2412
G01 X87.6978 Y125.9836
G01 X87.6973 Y127.7260
G01 X87.6969 Y129.4684
G01 X87.6967 Y131.2108
G01 X87.6965 Y132.9532
G01 Y134.6956
G01 Y136.4380
G01 X87.6967 Y138.1804
G01 X87.6969 Y139.9228
G01 X87.6972 Y141.6652
G01 X87.6975 Y143.4076
G01 X87.6979 Y145.1500
G01 X87.6983 Y146.8924
G01 X87.6987 Y148.6348
G01 X87.6992 Y150.3772
G01 X87.6997 Y152.1196
G01 X87.7002 Y153.8620
G01 X87.7007 Y155.6044
G01 X87.7012 Y157.3468
G01 X87.7017 Y159.0892
G01 X87.7022 Y160.8316
G01 X87.7026 Y162.5740
G01 X87.7031 Y164.3164
G01 X87.7034 Y166.0589
G01 X87.7037 Y167.8013
G01 X87.7040 Y169.5437
G01 X87.7042 Y171.2861
G01 X87.7043 Y173.0285
G01 X87.7044 Y174.7709
G01 X87.7043 Y176.5136
G01 X87.7042 Y178.2563
G01 X87.7039 Y179.9990
G01 X87.7036 Y181.7417
G01 X87.7032 Y183.4844
G01 X87.7026 Y185.2271
G01 X87.7019 Y186.9698
G01 X87.7011 Y188.7125
G01 X87.7002 Y190.4552
G01 X87.6991 Y192.1979
G01 X87.6979 Y193.9406
G01 X87.6965 Y195.6833
G01 X87.6950 Y197.4260
G01 X87.6933 Y199.1687
G01 X87.6914 Y200.9114
G01 X87.6894 Y202.6541
G01 X87.6872 Y204.3968
G01 X87.6848 Y206.1395
G01 X87.6822 Y207.8822
G01 X87.6794 Y209.6249
G01 X87.6765 Y211.3676
G01 X87.6732 Y213.1103
G01 X87.6698 Y214.8530
G01 X87.6662 Y216.5957
G01 X87.6623 Y218.3384
G01 X87.6581 Y220.0811
G01 X87.6538 Y221.8238
G01 X87.6491 Y223.5665
G01 X87.6442 Y225.3092
G01 X87.6390 Y227.0519
G01 X87.6335 Y228.7946
G03 X86.9849 Y300.2417 I-4852.6359 J-8.3260
G03 X86.0183 Y331.5942 I-1031.2683 J-16.1019
G03 X85.1009 Y343.7564 I-189.4572 J-8.1760
G01 X84.8641 Y345.4829
G01 X84.5341 Y347.1936
G01 X83.7626 Y348.6742
G01 X83.0107 Y347.1840
G01 X82.6978 Y345.4703
G01 X82.4767 Y343.7421
G03 X81.8219 Y335.0559 I168.7917 J-17.0921
G03 X81.0162 Y308.9335 I819.8753 J-38.3613
G01 X80.9859 Y307.1914
G03 X80.5395 Y244.4670 I4473.0549 J-63.1943
G01 X80.5367 Y242.7246
G01 X80.5341 Y240.9822
G01 X80.5318 Y239.2398
G01 X80.5297 Y237.4974
G01 X80.5278 Y235.7550
G01 X80.5261 Y234.0126
G01 X80.5246 Y232.2702
G01 X80.5234 Y230.5278
G01 X80.5222 Y228.7854
G01 X80.5213 Y227.0430
G01 X80.5205 Y225.3006
G01 X80.5199 Y223.5582
G01 X80.5194 Y221.8158
G01 X80.5190 Y220.0733
G01 X80.5188 Y218.3309
G01 X80.5186 Y216.5885
G01 Y214.8461
G01 Y213.1037
G01 X80.5187 Y211.3613
G01 X80.5190 Y209.6189
G01 X80.5192 Y207.8765
G01 X80.5196 Y206.1341
G01 X80.5199 Y204.3917
G01 X80.5204 Y202.6493
G01 X80.5208 Y200.9069
G01 X80.5213 Y199.1645
G01 X80.5218 Y197.4221
G01 X80.5223 Y195.6797
G01 X80.5228 Y193.9373
G01 X80.5233 Y192.1949
G01 X80.5238 Y190.4525
G01 X80.5243 Y188.7101
G01 X80.5247 Y186.9677
G01 X80.5251 Y185.2253
G01 X80.5255 Y183.4829
G01 X80.5258 Y181.7405
G01 X80.5261 Y179.9981
G01 X80.5263 Y178.2557
G01 X80.5264 Y176.5133
G01 Y174.7709
G01 Y173.0282
G01 X80.5263 Y171.2855
G01 X80.5260 Y169.5428
G01 X80.5257 Y167.8001
G01 X80.5252 Y166.0574
G01 X80.5247 Y164.3147
G01 X80.5240 Y162.5720
G01 X80.5232 Y160.8293
G01 X80.5222 Y159.0866
G01 X80.5212 Y157.3438
G01 X80.5199 Y155.6011
G01 X80.5186 Y153.8584
G01 X80.5170 Y152.1157
G01 X80.5154 Y150.3730
G01 X80.5135 Y148.6303
G01 X80.5115 Y146.8876
G01 X80.5093 Y145.1449
G01 X80.5069 Y143.4022
G01 X80.5043 Y141.6595
G01 X80.5015 Y139.9168
G01 X80.4985 Y138.1741
G01 X80.4953 Y136.4314
G01 X80.4919 Y134.6887
G01 X80.4882 Y132.9460
G01 X80.4843 Y131.2034
G01 X80.4802 Y129.4607
G01 X80.4758 Y127.7180
G01 X80.4712 Y125.9753
G01 X80.4663 Y124.2326
G01 X80.4611 Y122.4899
G01 X80.4556 Y120.7472
G02 X79.8070 Y49.3000 I-4852.6359 J8.3260
G02 X78.8404 Y17.9475 I-1031.2682 J16.1019
G02 X77.9230 Y5.7853 I-189.4572 J8.1760
G01 X77.6862 Y4.0588
G01 X77.3562 Y2.3482
G01 X76.5847 Y0.8675
G01 X75.8327 Y2.3578
G01 X75.5199 Y4.0714
G01 X75.2988 Y5.7996
G02 X74.6440 Y14.4859 I168.7917 J17.0921
G02 X73.8383 Y40.6082 I819.8753 J38.3613
G01 X73.8080 Y42.3504
G02 X73.3616 Y105.0748 I4473.0549 J63.1943
G01 X73.3588 Y106.8172
G01 X73.3562 Y108.5596
G01 X73.3539 Y110.3020
G01 X73.3517 Y112.0444
G01 X73.3499 Y113.7868
G01 X73.3482 Y115.5292
G01 X73.3467 Y117.2716
G01 X73.3454 Y119.0140
G01 X73.3443 Y120.7564
G01 X73.3434 Y122.4988
G01 X73.3426 Y124.2412
G01 X73.3420 Y125.9836
G01 X73.3415 Y127.7260
G01 X73.3411 Y129.4684
G01 X73.3408 Y131.2108
G01 X73.3407 Y132.9532
G01 X73.3406 Y134.6956
G01 X73.3407 Y136.4380
G01 X73.3408 Y138.1804
G01 X73.3410 Y139.9228
G01 X73.3413 Y141.6652
G01 X73.3416 Y143.4076
G01 X73.3420 Y145.1500
G01 X73.3424 Y146.8924
G01 X73.3429 Y148.6348
G01 X73.3434 Y150.3772
G01 X73.3439 Y152.1196
G01 X73.3444 Y153.8620
G01 X73.3449 Y155.6044
G01 X73.3454 Y157.3468
G01 X73.3459 Y159.0892
G01 X73.3463 Y160.8316
G01 X73.3468 Y162.5740
G01 X73.3472 Y164.3164
G01 X73.3476 Y166.0589
G01 X73.3479 Y167.8013
G01 X73.3482 Y169.5437
G01 X73.3483 Y171.2861
G01 X73.3485 Y173.0285
G01 Y174.7709
G01 Y176.5136
G01 X73.3483 Y178.2563
G01 X73.3481 Y179.9990
G01 X73.3478 Y181.7417
G01 X73.3473 Y183.4844
G01 X73.3467 Y185.2271
G01 X73.3461 Y186.9698
G01 X73.3452 Y188.7125
G01 X73.3443 Y190.4552
G01 X73.3432 Y192.1979
G01 X73.3420 Y193.9406
G01 X73.3406 Y195.6833
G01 X73.3391 Y197.4260
G01 X73.3374 Y199.1687
G01 X73.3356 Y200.9114
G01 X73.3336 Y202.6541
G01 X73.3314 Y204.3968
G01 X73.3290 Y206.1395
G01 X73.3264 Y207.8822
G01 X73.3236 Y209.6249
G01 X73.3206 Y211.3676
G01 X73.3174 Y213.1103
G01 X73.3140 Y214.8530
G01 X73.3103 Y216.5957
G01 X73.3064 Y218.3384
G01 X73.3023 Y220.0811
G01 X73.2979 Y221.8238
G01 X73.2933 Y223.5665
G01 X73.2883 Y225.3092
G01 X73.2831 Y227.0519
G01 X73.2777 Y228.7946
G03 X72.6291 Y300.2417 I-4852.6359 J-8.3260
G03 X71.6625 Y331.5942 I-1031.2683 J-16.1019
G03 X70.7450 Y343.7564 I-189.4572 J-8.1760
G01 X70.5083 Y345.4829
G01 X70.1782 Y347.1936
G01 X69.4068 Y348.6742
G01 X68.6548 Y347.1840
G01 X68.3420 Y345.4703
G01 X68.1209 Y343.7421
G03 X67.4661 Y335.0559 I168.7930 J-17.0922
G03 X66.6604 Y308.9335 I819.8810 J-38.3615
G01 X66.6301 Y307.1913
G03 X66.1837 Y244.4670 I4473.0630 J-63.1949
G01 X66.1809 Y242.7246
G01 X66.1783 Y240.9822
G01 X66.1759 Y239.2398
G01 X66.1738 Y237.4974
G01 X66.1719 Y235.7550
G01 X66.1703 Y234.0126
G01 X66.1688 Y232.2702
G01 X66.1675 Y230.5278
G01 X66.1664 Y228.7854
G01 X66.1655 Y227.0430
G01 X66.1647 Y225.3006
G01 X66.1640 Y223.5582
G01 X66.1635 Y221.8158
G01 X66.1632 Y220.0733
G01 X66.1629 Y218.3309
G01 X66.1628 Y216.5885
G01 X66.1627 Y214.8461
G01 X66.1628 Y213.1037
G01 X66.1629 Y211.3613
G01 X66.1631 Y209.6189
G01 X66.1634 Y207.8765
G01 X66.1637 Y206.1341
G01 X66.1641 Y204.3917
G01 X66.1645 Y202.6493
G01 X66.1650 Y200.9069
G01 X66.1654 Y199.1645
G01 X66.1659 Y197.4221
G01 X66.1664 Y195.6797
G01 X66.1670 Y193.9373
G01 X66.1675 Y192.1949
G01 X66.1679 Y190.4525
G01 X66.1684 Y188.7101
G01 X66.1689 Y186.9677
G01 X66.1693 Y185.2253
G01 X66.1696 Y183.4829
G01 X66.1700 Y181.7405
G01 X66.1702 Y179.9981
G01 X66.1704 Y178.2557
G01 X66.1705 Y176.5133
G01 X66.1706 Y174.7709
G01 X66.1705 Y173.0282
G01 X66.1704 Y171.2855
G01 X66.1702 Y169.5428
G01 X66.1698 Y167.8001
G01 X66.1694 Y166.0574
G01 X66.1688 Y164.3147
G01 X66.1681 Y162.5720
G01 X66.1673 Y160.8293
G01 X66.1664 Y159.0866
G01 X66.1653 Y157.3438
G01 X66.1641 Y155.6011
G01 X66.1627 Y153.8584
G01 X66.1612 Y152.1157
G01 X66.1595 Y150.3730
G01 X66.1577 Y148.6303
G01 X66.1556 Y146.8876
G01 X66.1534 Y145.1449
G01 X66.1510 Y143.4022
G01 X66.1484 Y141.6595
G01 X66.1457 Y139.9168
G01 X66.1427 Y138.1741
G01 X66.1395 Y136.4314
G01 X66.1360 Y134.6887
G01 X66.1324 Y132.9460
G01 X66.1285 Y131.2033
G01 X66.1244 Y129.4607
G01 X66.1200 Y127.7180
G01 X66.1153 Y125.9753
G01 X66.1104 Y124.2326
G01 X66.1052 Y122.4899
G01 X66.0997 Y120.7472
G02 X65.4511 Y49.3000 I-4852.6378 J8.3255
G02 X64.4846 Y17.9475 I-1031.2619 J16.1017
G02 X63.5671 Y5.7853 I-189.4557 J8.1760
G01 X63.3303 Y4.0588
G01 X63.0003 Y2.3482
G01 X62.2288 Y0.8675
G01 X61.4769 Y2.3578
G01 X61.1641 Y4.0714
G01 X60.9429 Y5.7996
G02 X60.2881 Y14.4859 I168.7930 J17.0922
G02 X59.4824 Y40.6082 I819.8810 J38.3615
G01 X59.4521 Y42.3504
G02 X59.0058 Y105.0748 I4473.0631 J63.1949
G01 X59.0029 Y106.8172
G01 X59.0003 Y108.5596
G01 X58.9980 Y110.3020
G01 X58.9959 Y112.0444
G01 X58.9940 Y113.7868
G01 X58.9923 Y115.5292
G01 X58.9909 Y117.2716
G01 X58.9896 Y119.0140
G01 X58.9885 Y120.7564
G01 X58.9875 Y122.4988
G01 X58.9867 Y124.2412
G01 X58.9861 Y125.9836
G01 X58.9856 Y127.7260
G01 X58.9852 Y129.4684
G01 X58.9850 Y131.2108
G01 X58.9848 Y132.9532
G01 Y134.6956
G01 Y136.4380
G01 X58.9850 Y138.1804
G01 X58.9852 Y139.9228
G01 X58.9854 Y141.6652
G01 X58.9858 Y143.4076
G01 X58.9862 Y145.1500
G01 X58.9866 Y146.8924
G01 X58.9870 Y148.6348
G01 X58.9875 Y150.3772
G01 X58.9880 Y152.1196
G01 X58.9885 Y153.8620
G01 X58.9890 Y155.6044
G01 X58.9895 Y157.3468
G01 X58.9900 Y159.0892
G01 X58.9905 Y160.8316
G01 X58.9909 Y162.5740
G01 X58.9914 Y164.3164
G01 X58.9917 Y166.0589
G01 X58.9920 Y167.8013
G01 X58.9923 Y169.5437
G01 X58.9925 Y171.2861
G01 X58.9926 Y173.0285
G01 X58.9927 Y174.7709
G01 X58.9926 Y176.5136
G01 X58.9925 Y178.2563
G01 X58.9922 Y179.9990
G01 X58.9919 Y181.7417
G01 X58.9915 Y183.4844
G01 X58.9909 Y185.2271
G01 X58.9902 Y186.9698
G01 X58.9894 Y188.7125
G01 X58.9885 Y190.4552
G01 X58.9874 Y192.1979
G01 X58.9862 Y193.9406
G01 X58.9848 Y195.6833
G01 X58.9833 Y197.4260
G01 X58.9816 Y199.1687
G01 X58.9797 Y200.9114
G01 X58.9777 Y202.6541
G01 X58.9755 Y204.3968
G01 X58.9731 Y206.1395
G01 X58.9705 Y207.8822
G01 X58.9677 Y209.6249
G01 X58.9647 Y211.3676
G01 X58.9615 Y213.1103
G01 X58.9581 Y214.8530
G01 X58.9545 Y216.5957
G01 X58.9506 Y218.3384
G01 X58.9464 Y220.0811
G01 X58.9420 Y221.8238
G01 X58.9374 Y223.5665
G01 X58.9325 Y225.3092
G01 X58.9273 Y227.0519
G01 X58.9218 Y228.7946
G03 X58.2732 Y300.2417 I-4852.6378 J-8.3255
G03 X57.3066 Y331.5942 I-1031.2619 J-16.1017
G03 X56.3892 Y343.7564 I-189.4557 J-8.1760
G01 X56.1524 Y345.4829
G01 X55.8224 Y347.1936
G01 X55.0509 Y348.6742
G01 X54.2990 Y347.1840
G01 X53.9861 Y345.4703
G01 X53.7650 Y343.7421
G03 X53.1102 Y335.0559 I168.7931 J-17.0921
G03 X52.3045 Y308.9335 I819.8821 J-38.3613
G01 X52.2742 Y307.1913
G03 X51.8279 Y244.4670 I4473.0931 J-63.1943
G01 X51.8250 Y242.7246
G01 X51.8224 Y240.9822
G01 X51.8201 Y239.2398
G01 X51.8180 Y237.4974
G01 X51.8161 Y235.7550
G01 X51.8144 Y234.0126
G01 X51.8130 Y232.2702
G01 X51.8117 Y230.5278
G01 X51.8106 Y228.7854
G01 X51.8096 Y227.0430
G01 X51.8088 Y225.3006
G01 X51.8082 Y223.5582
G01 X51.8077 Y221.8158
G01 X51.8073 Y220.0733
G01 X51.8071 Y218.3309
G01 X51.8069 Y216.5885
G01 Y214.8461
G01 Y213.1037
G01 X51.8071 Y211.3613
G01 X51.8073 Y209.6189
G01 X51.8075 Y207.8765
G01 X51.8079 Y206.1341
G01 X51.8083 Y204.3917
G01 X51.8087 Y202.6493
G01 X51.8091 Y200.9069
G01 X51.8096 Y199.1645
G01 X51.8101 Y197.4221
G01 X51.8106 Y195.6797
G01 X51.8111 Y193.9373
G01 X51.8116 Y192.1949
G01 X51.8121 Y190.4525
G01 X51.8126 Y188.7101
G01 X51.8130 Y186.9677
G01 X51.8135 Y185.2253
G01 X51.8138 Y183.4829
G01 X51.8141 Y181.7405
G01 X51.8144 Y179.9981
G01 X51.8146 Y178.2557
G01 X51.8147 Y176.5133
G01 X51.8148 Y174.7709
G01 X51.8147 Y173.0282
G01 X51.8146 Y171.2855
G01 X51.8143 Y169.5428
G01 X51.8140 Y167.8001
G01 X51.8136 Y166.0574
G01 X51.8130 Y164.3147
G01 X51.8123 Y162.5720
G01 X51.8115 Y160.8293
G01 X51.8106 Y159.0866
G01 X51.8095 Y157.3438
G01 X51.8083 Y155.6011
G01 X51.8069 Y153.8584
G01 X51.8054 Y152.1157
G01 X51.8037 Y150.3730
G01 X51.8018 Y148.6303
G01 X51.7998 Y146.8876
G01 X51.7976 Y145.1449
G01 X51.7952 Y143.4022
G01 X51.7926 Y141.6595
G01 X51.7898 Y139.9168
G01 X51.7868 Y138.1741
G01 X51.7836 Y136.4314
G01 X51.7802 Y134.6887
G01 X51.7766 Y132.9460
G01 X51.7727 Y131.2034
G01 X51.7685 Y129.4607
G01 X51.7641 Y127.7180
G01 X51.7595 Y125.9753
G01 X51.7546 Y124.2326
G01 X51.7494 Y122.4899
G01 X51.7439 Y120.7472
G02 X51.0953 Y49.3000 I-4852.6360 J8.3260
G02 X50.1287 Y17.9475 I-1031.2682 J16.1019
G02 X49.2113 Y5.7853 I-189.4572 J8.1760
G01 X48.9745 Y4.0588
G01 X48.6445 Y2.3482
G01 X47.8730 Y0.8675
G01 X47.1211 Y2.3578
G01 X46.8082 Y4.0714
G01 X46.5871 Y5.7996
G02 X45.9323 Y14.4859 I168.7917 J17.0921
G02 X45.1266 Y40.6082 I819.8753 J38.3613
G01 X45.0963 Y42.3504
G02 X44.6499 Y105.0748 I4473.0549 J63.1943
G01 X44.6471 Y106.8172
G01 X44.6445 Y108.5596
G01 X44.6422 Y110.3020
G01 X44.6401 Y112.0444
G01 X44.6382 Y113.7868
G01 X44.6365 Y115.5292
G01 X44.6350 Y117.2716
G01 X44.6337 Y119.0140
G01 X44.6326 Y120.7564
G01 X44.6317 Y122.4988
G01 X44.6309 Y124.2412
G01 X44.6303 Y125.9836
G01 X44.6298 Y127.7260
G01 X44.6294 Y129.4684
G01 X44.6292 Y131.2108
G01 X44.6290 Y132.9532
G01 Y134.6956
G01 Y136.4380
G01 X44.6291 Y138.1804
G01 X44.6293 Y139.9228
G01 X44.6296 Y141.6652
G01 X44.6299 Y143.4076
G01 X44.6303 Y145.1500
G01 X44.6307 Y146.8924
G01 X44.6312 Y148.6348
G01 X44.6317 Y150.3772
G01 X44.6322 Y152.1196
G01 X44.6327 Y153.8620
G01 X44.6332 Y155.6044
G01 X44.6337 Y157.3468
G01 X44.6342 Y159.0892
G01 X44.6347 Y160.8316
G01 X44.6351 Y162.5740
G01 X44.6355 Y164.3164
G01 X44.6359 Y166.0589
G01 X44.6362 Y167.8013
G01 X44.6365 Y169.5437
G01 X44.6367 Y171.2861
G01 X44.6368 Y173.0285
G01 Y174.7709
G01 Y176.5136
G01 X44.6366 Y178.2563
G01 X44.6364 Y179.9990
G01 X44.6361 Y181.7417
G01 X44.6356 Y183.4844
G01 X44.6351 Y185.2271
G01 X44.6344 Y186.9698
G01 X44.6336 Y188.7125
G01 X44.6326 Y190.4552
G01 X44.6316 Y192.1979
G01 X44.6303 Y193.9406
G01 X44.6290 Y195.6833
G01 X44.6274 Y197.4260
G01 X44.6258 Y199.1687
G01 X44.6239 Y200.9114
G01 X44.6219 Y202.6541
G01 X44.6197 Y204.3968
G01 X44.6173 Y206.1395
G01 X44.6147 Y207.8822
G01 X44.6119 Y209.6249
G01 X44.6089 Y211.3676
G01 X44.6057 Y213.1103
G01 X44.6023 Y214.8530
G01 X44.5986 Y216.5957
G01 X44.5947 Y218.3384
G01 X44.5906 Y220.0811
G01 X44.5862 Y221.8238
G01 X44.5816 Y223.5665
G01 X44.5767 Y225.3092
G01 X44.5715 Y227.0519
G01 X44.5660 Y228.7946
G03 X43.9174 Y300.2417 I-4852.6359 J-8.3260
G03 X42.9508 Y331.5942 I-1031.2683 J-16.1019
G03 X42.0334 Y343.7564 I-189.4572 J-8.1760
G01 X41.7966 Y345.4829
G01 X41.4666 Y347.1936
G01 X40.6951 Y348.6742
G01 X39.9431 Y347.1840
G01 X39.6303 Y345.4703
G01 X39.4092 Y343.7421
G03 X38.7544 Y335.0559 I168.7916 J-17.0921
G03 X37.9487 Y308.9335 I819.8751 J-38.3613
G01 X37.9184 Y307.1914
G03 X37.4720 Y244.4670 I4473.0546 J-63.1943
G01 X37.4692 Y242.7246
G01 X37.4666 Y240.9822
G01 X37.4642 Y239.2398
G01 X37.4621 Y237.4974
G01 X37.4603 Y235.7550
G01 X37.4586 Y234.0126
G01 X37.4571 Y232.2702
G01 X37.4558 Y230.5278
G01 X37.4547 Y228.7854
G01 X37.4538 Y227.0430
G01 X37.4530 Y225.3006
G01 X37.4524 Y223.5582
G01 X37.4519 Y221.8158
G01 X37.4515 Y220.0733
G01 X37.4512 Y218.3309
G01 X37.4511 Y216.5885
G01 X37.4510 Y214.8461
G01 X37.4511 Y213.1037
G01 X37.4512 Y211.3613
G01 X37.4514 Y209.6189
G01 X37.4517 Y207.8765
G01 X37.4520 Y206.1341
G01 X37.4524 Y204.3917
G01 X37.4528 Y202.6493
G01 X37.4533 Y200.9069
G01 X37.4538 Y199.1645
G01 X37.4543 Y197.4221
G01 X37.4548 Y195.6797
G01 X37.4553 Y193.9373
G01 X37.4558 Y192.1949
G01 X37.4563 Y190.4525
G01 X37.4567 Y188.7101
G01 X37.4572 Y186.9677
G01 X37.4576 Y185.2253
G01 X37.4580 Y183.4829
G01 X37.4583 Y181.7405
G01 X37.4585 Y179.9981
G01 X37.4587 Y178.2557
G01 X37.4589 Y176.5133
G01 Y174.7709
G01 Y173.0282
G01 X37.4587 Y171.2855
G01 X37.4585 Y169.5428
G01 X37.4581 Y167.8001
G01 X37.4577 Y166.0574
G01 X37.4571 Y164.3147
G01 X37.4565 Y162.5720
G01 X37.4556 Y160.8293
G01 X37.4547 Y159.0866
G01 X37.4536 Y157.3438
G01 X37.4524 Y155.6011
G01 X37.4510 Y153.8584
G01 X37.4495 Y152.1157
G01 X37.4478 Y150.3730
G01 X37.4460 Y148.6303
G01 X37.4439 Y146.8876
G01 X37.4417 Y145.1449
G01 X37.4394 Y143.4022
G01 X37.4368 Y141.6595
G01 X37.4340 Y139.9168
G01 X37.4310 Y138.1741
G01 X37.4278 Y136.4314
G01 X37.4244 Y134.6887
G01 X37.4207 Y132.9460
G01 X37.4168 Y131.2034
G01 X37.4127 Y129.4607
G01 X37.4083 Y127.7180
G01 X37.4036 Y125.9753
G01 X37.3987 Y124.2326
G01 X37.3935 Y122.4899
G01 X37.3881 Y120.7472
G02 X36.7395 Y49.3000 I-4852.6347 J8.3260
G02 X35.7729 Y17.9475 I-1031.2682 J16.1019
G02 X34.8554 Y5.7853 I-189.4572 J8.1760
G01 X34.6187 Y4.0588
G01 X34.2886 Y2.3482
G01 X33.5172 Y0.8675
G01 X32.7652 Y2.3578
G01 X32.4524 Y4.0714
G01 X32.2313 Y5.7996
G02 X31.5765 Y14.4859 I168.7931 J17.0922
G02 X30.7708 Y40.6082 I819.8812 J38.3615
G01 X30.7404 Y42.3504
G02 X30.2941 Y105.0748 I4473.0644 J63.1949
G01 X30.2912 Y106.8172
G01 X30.2887 Y108.5596
G01 X30.2863 Y110.3020
G01 X30.2842 Y112.0444
G01 X30.2823 Y113.7868
G01 X30.2807 Y115.5292
G01 X30.2792 Y117.2716
G01 X30.2779 Y119.0140
G01 X30.2768 Y120.7564
G01 X30.2758 Y122.4988
G01 X30.2751 Y124.2412
G01 X30.2744 Y125.9836
G01 X30.2739 Y127.7260
G01 X30.2736 Y129.4684
G01 X30.2733 Y131.2108
G01 X30.2732 Y132.9532
G01 X30.2731 Y134.6956
G01 X30.2732 Y136.4380
G01 X30.2733 Y138.1804
G01 X30.2735 Y139.9228
G01 X30.2738 Y141.6652
G01 X30.2741 Y143.4076
G01 X30.2745 Y145.1500
G01 X30.2749 Y146.8924
G01 X30.2753 Y148.6348
G01 X30.2758 Y150.3772
G01 X30.2763 Y152.1196
G01 X30.2768 Y153.8620
G01 X30.2773 Y155.6044
G01 X30.2778 Y157.3468
G01 X30.2783 Y159.0892
G01 X30.2788 Y160.8316
G01 X30.2793 Y162.5740
G01 X30.2797 Y164.3164
G01 X30.2800 Y166.0589
G01 X30.2804 Y167.8013
G01 X30.2806 Y169.5437
G01 X30.2808 Y171.2861
G01 X30.2809 Y173.0285
G01 X30.2810 Y174.7709
G01 X30.2809 Y176.5136
G01 X30.2808 Y178.2563
G01 X30.2806 Y179.9990
G01 X30.2802 Y181.7417
G01 X30.2798 Y183.4844
G01 X30.2792 Y185.2271
G01 X30.2785 Y186.9698
G01 X30.2777 Y188.7125
G01 X30.2768 Y190.4552
G01 X30.2757 Y192.1979
G01 X30.2745 Y193.9406
G01 X30.2731 Y195.6833
G01 X30.2716 Y197.4260
G01 X30.2699 Y199.1687
G01 X30.2680 Y200.9114
G01 X30.2660 Y202.6541
G01 X30.2638 Y204.3968
G01 X30.2614 Y206.1395
G01 X30.2588 Y207.8822
G01 X30.2561 Y209.6249
G01 X30.2531 Y211.3676
G01 X30.2499 Y213.1103
G01 X30.2464 Y214.8530
G01 X30.2428 Y216.5957
G01 X30.2389 Y218.3384
G01 X30.2348 Y220.0811
G01 X30.2304 Y221.8238
G01 X30.2257 Y223.5665
G01 X30.2208 Y225.3092
G01 X30.2156 Y227.0519
G01 X30.2101 Y228.7946
G03 X29.5615 Y300.2417 I-4852.6365 J-8.3255
G03 X28.5950 Y331.5942 I-1031.2616 J-16.1017
G03 X27.6775 Y343.7564 I-189.4556 J-8.1760
G01 X27.4407 Y345.4829
G01 X27.1107 Y347.1936
G01 X26.3392 Y348.6742
G01 X25.5873 Y347.1840
G01 X25.2745 Y345.4703
G01 X25.0533 Y343.7421
G03 X24.3985 Y335.0559 I168.7930 J-17.0922
G03 X23.5928 Y308.9335 I819.8810 J-38.3615
G01 X23.5625 Y307.1913
G03 X23.1162 Y244.4670 I4473.0641 J-63.1949
G01 X23.1133 Y242.7246
G01 X23.1107 Y240.9822
G01 X23.1084 Y239.2398
G01 X23.1063 Y237.4974
G01 X23.1044 Y235.7550
G01 X23.1027 Y234.0126
G01 X23.1013 Y232.2702
G01 X23.1000 Y230.5278
G01 X23.0989 Y228.7854
G01 X23.0979 Y227.0430
G01 X23.0971 Y225.3006
G01 X23.0965 Y223.5582
G01 X23.0960 Y221.8158
G01 X23.0956 Y220.0733
G01 X23.0954 Y218.3309
G01 X23.0952 Y216.5885
G01 Y214.8461
G01 Y213.1037
G01 X23.0954 Y211.3613
G01 X23.0956 Y209.6189
G01 X23.0958 Y207.8765
G01 X23.0962 Y206.1341
G01 X23.0965 Y204.3917
G01 X23.0970 Y202.6493
G01 X23.0974 Y200.9069
G01 X23.0979 Y199.1645
G01 X23.0984 Y197.4221
G01 X23.0989 Y195.6797
G01 X23.0994 Y193.9373
G01 X23.0999 Y192.1949
G01 X23.1004 Y190.4525
G01 X23.1009 Y188.7101
G01 X23.1013 Y186.9677
G01 X23.1017 Y185.2253
G01 X23.1021 Y183.4829
G01 X23.1024 Y181.7405
G01 X23.1027 Y179.9981
G01 X23.1029 Y178.2557
G01 X23.1030 Y176.5133
G01 Y174.7709
G01 Y173.0282
G01 X23.1029 Y171.2855
G01 X23.1026 Y169.5428
G01 X23.1023 Y167.8001
G01 X23.1018 Y166.0574
G01 X23.1013 Y164.3147
G01 X23.1006 Y162.5720
G01 X23.0998 Y160.8293
G01 X23.0988 Y159.0866
G01 X23.0978 Y157.3438
G01 X23.0966 Y155.6011
G01 X23.0952 Y153.8584
G01 X23.0937 Y152.1157
G01 X23.0920 Y150.3730
G01 X23.0901 Y148.6303
G01 X23.0881 Y146.8876
G01 X23.0859 Y145.1449
G01 X23.0835 Y143.4022
G01 X23.0809 Y141.6595
G01 X23.0781 Y139.9168
G01 X23.0751 Y138.1741
G01 X23.0719 Y136.4314
G01 X23.0685 Y134.6887
G01 X23.0649 Y132.9460
G01 X23.0610 Y131.2033
G01 X23.0568 Y129.4607
G01 X23.0524 Y127.7180
G01 X23.0478 Y125.9753
G01 X23.0429 Y124.2326
G01 X23.0377 Y122.4899
G01 X23.0322 Y120.7472
G02 X22.3836 Y49.3000 I-4852.6365 J8.3255
G02 X21.4170 Y17.9475 I-1031.2618 J16.1017
G02 X20.4996 Y5.7853 I-189.4557 J8.1760
G01 X20.2628 Y4.0588
G01 X19.9328 Y2.3482
G01 X19.1613 Y0.8675
G01 X18.4094 Y2.3578
G01 X18.0965 Y4.0714
G01 X17.8754 Y5.7996
G02 X17.2206 Y14.4859 I168.7930 J17.0922
G02 X16.4149 Y40.6082 I819.8810 J38.3615
G01 X16.3846 Y42.3504
G02 X15.9382 Y105.0748 I4473.0631 J63.1949
G01 X15.9354 Y106.8172
G01 X15.9328 Y108.5596
G01 X15.9305 Y110.3020
G01 X15.9284 Y112.0444
G01 X15.9265 Y113.7868
G01 X15.9248 Y115.5292
G01 X15.9233 Y117.2716
G01 X15.9220 Y119.0140
G01 X15.9209 Y120.7564
G01 X15.9200 Y122.4988
G01 X15.9192 Y124.2412
G01 X15.9186 Y125.9836
G01 X15.9181 Y127.7260
G01 X15.9177 Y129.4684
G01 X15.9174 Y131.2108
G01 X15.9173 Y132.9532
G01 Y134.6956
G01 Y136.4380
G01 X15.9174 Y138.1804
G01 X15.9176 Y139.9228
G01 X15.9179 Y141.6652
G01 X15.9182 Y143.4076
G01 X15.9186 Y145.1500
G01 X15.9190 Y146.8924
G01 X15.9195 Y148.6348
G01 X15.9200 Y150.3772
G01 X15.9205 Y152.1196
G01 X15.9210 Y153.8620
G01 X15.9215 Y155.6044
G01 X15.9220 Y157.3468
G01 X15.9225 Y159.0892
G01 X15.9230 Y160.8316
G01 X15.9234 Y162.5740
G01 X15.9238 Y164.3164
G01 X15.9242 Y166.0589
G01 X15.9245 Y167.8013
G01 X15.9248 Y169.5437
G01 X15.9250 Y171.2861
G01 X15.9251 Y173.0285
G01 Y174.7709
G01 Y176.5136
G01 X15.9249 Y178.2563
G01 X15.9247 Y179.9990
G01 X15.9244 Y181.7417
G01 X15.9239 Y183.4844
G01 X15.9234 Y185.2271
G01 X15.9227 Y186.9698
G01 X15.9219 Y188.7125
G01 X15.9209 Y190.4552
G01 X15.9198 Y192.1979
G01 X15.9186 Y193.9406
G01 X15.9173 Y195.6833
G01 X15.9157 Y197.4260
G01 X15.9140 Y199.1687
G01 X15.9122 Y200.9114
G01 X15.9102 Y202.6541
G01 X15.9080 Y204.3968
G01 X15.9056 Y206.1395
G01 X15.9030 Y207.8822
G01 X15.9002 Y209.6249
G01 X15.8972 Y211.3676
G01 X15.8940 Y213.1103
G01 X15.8906 Y214.8530
G01 X15.8869 Y216.5957
G01 X15.8830 Y218.3384
G01 X15.8789 Y220.0811
G01 X15.8745 Y221.8238
G01 X15.8699 Y223.5665
G01 X15.8649 Y225.3092
G01 X15.8598 Y227.0519
G01 X15.8543 Y228.7946
G03 X15.2057 Y300.2417 I-4852.6723 J-8.3255
G03 X14.2391 Y331.5942 I-1031.2699 J-16.1017
G03 X13.3217 Y343.7564 I-189.4572 J-8.1760
G01 X13.0849 Y345.4829
G01 X12.7549 Y347.1936
G01 X11.9834 Y348.6742
G01 X11.2314 Y347.1840
G01 X10.9186 Y345.4703
G01 X10.6975 Y343.7421
G03 X10.0427 Y335.0559 I168.7921 J-17.0921
G03 X9.2370 Y308.9335 I819.8773 J-38.3614
G01 X9.2067 Y307.1913
G03 X8.7603 Y244.4669 I4473.0635 J-63.1944
G01 X8.7575 Y242.7245
G01 X8.7549 Y240.9821
G01 X8.7526 Y239.2397
G01 X8.7505 Y237.4973
G01 X8.7486 Y235.7549
G01 X8.7469 Y234.0125
G01 X8.7454 Y232.2701
G01 X8.7441 Y230.5276
G01 X8.7430 Y228.7852
G01 X8.7421 Y227.0428
G01 X8.7413 Y225.3004
G01 X8.7407 Y223.5580
G01 X8.7402 Y221.8156
G01 X8.7398 Y220.0732
G01 X8.7395 Y218.3308
G01 X8.7394 Y216.5884
G01 Y214.8460
G01 Y213.1036
G01 X8.7395 Y211.3612
G01 X8.7397 Y209.6188
G01 X8.7400 Y207.8764
G01 X8.7403 Y206.1340
G01 X8.7407 Y204.3916
G01 X8.7411 Y202.6492
G01 X8.7416 Y200.9068
G01 X8.7421 Y199.1644
G01 X8.7426 Y197.4220
G01 X8.7431 Y195.6796
G01 X8.7436 Y193.9371
G01 X8.7441 Y192.1947
G01 X8.7446 Y190.4523
G01 X8.7451 Y188.7099
G01 X8.7455 Y186.9675
G01 X8.7459 Y185.2251
G01 X8.7463 Y183.4827
G01 X8.7466 Y181.7403
G01 X8.7469 Y179.9979
G01 X8.7471 Y178.2555
G01 X8.7472 Y176.5131
G01 Y174.7707
G01 Y173.0280
G01 X8.7470 Y171.2853
G01 X8.7468 Y169.5426
G01 X8.7465 Y167.7999
G01 X8.7460 Y166.0572
G01 X8.7455 Y164.3145
G01 X8.7448 Y162.5718
G01 X8.7440 Y160.8291
G01 X8.7430 Y159.0865
G01 X8.7419 Y157.3438
G01 X8.7407 Y155.6011
G01 X8.7394 Y153.8584
G01 X8.7378 Y152.1157
G01 X8.7361 Y150.3730
G01 X8.7343 Y148.6303
G01 X8.7323 Y146.8876
G01 X8.7301 Y145.1449
G01 X8.7277 Y143.4022
G01 X8.7251 Y141.6595
G01 X8.7223 Y139.9168
G01 X8.7193 Y138.1741
G01 X8.7161 Y136.4315
G01 X8.7127 Y134.6888
G01 X8.7090 Y132.9461
G01 X8.7051 Y131.2034
G01 X8.7010 Y129.4607
G01 X8.6966 Y127.7180
G01 X8.6920 Y125.9753
G01 X8.6870 Y124.2326
G01 X8.6819 Y122.4899
G01 X8.6764 Y120.7473
G02 X8.0278 Y49.3005 I-4852.6386 J8.3260
G02 X7.0612 Y17.9481 I-1031.2673 J16.1018
G02 X6.1438 Y5.7859 I-189.4560 J8.1759
G01 X5.9070 Y4.0595
G01 X5.5770 Y2.3488
G01 X4.8055 Y0.8682
G01 X4.0399 Y2.3531
G01 X3.7103 Y4.0638
G02 X3.1188 Y9.2574 I85.4251 J12.3585
G02 X2.2174 Y24.9144 I376.7508 J29.5450
G02 X1.2190 Y66.7261 I1723.8180 J62.0791
G02 X0.6844 Y153.8587 I7283.2697 J88.2612
G01 X0.6823 Y155.6014
G01 X0.6804 Y157.3441
G01 X0.6788 Y159.0868
G01 X0.6773 Y160.8295
G01 X0.6761 Y162.5722
G01 X0.6750 Y164.3149
G01 X0.6741 Y166.0576
G01 X0.6733 Y167.8003
G01 X0.6728 Y169.5430
G01 X0.6724 Y171.2857
G01 X0.6721 Y173.0283
G01 Y174.7710
G01 Y176.5101
G01 X0.6723 Y178.2491
G01 X0.6727 Y179.9881
G01 X0.6732 Y181.7272
G01 X0.6738 Y183.4662
G01 X0.6746 Y185.2052
G01 X0.6755 Y186.9442
G01 X0.6765 Y188.6833
G01 X0.6777 Y190.4223
G01 X0.6790 Y192.1613
G01 X0.6804 Y193.9004
G01 X0.6820 Y195.6394
G01 X0.6837 Y197.3784
G01 X0.6855 Y199.1174
G01 X0.6874 Y200.8565
G01 X0.6894 Y202.5955
G01 X0.6916 Y204.3345
G01 X0.6939 Y206.0736
G01 X0.6963 Y207.8126
G01 X0.6988 Y209.5516
G01 X0.7015 Y211.2906
G01 X0.7042 Y213.0297
G01 X0.7071 Y214.7687
G01 X0.7100 Y216.5077
G01 X0.7131 Y218.2467
G01 X0.7163 Y219.9858
G01 X0.7196 Y221.7248
G01 X0.7230 Y223.4638
G01 X0.7265 Y225.2028
G01 X0.7301 Y226.9419
G01 X0.7339 Y228.6809
G01 X0.7377 Y230.4199
G01 X0.7416 Y232.1589
G01 X0.7457 Y233.8980
G01 X0.7498 Y235.6370
G01 X0.7540 Y237.3760
G01 X0.7584 Y239.1150
G01 X0.7628 Y240.8541
G01 X0.7673 Y242.5931
G01 X0.7720 Y244.3321
G01 X0.7767 Y246.0711
G01 X0.7815 Y247.8101
G01 X0.7864 Y249.5492
G01 X0.7914 Y251.2882
G01 X0.7965 Y253.0272
G01 X0.8017 Y254.7662
G01 X0.8070 Y256.5053
G01 X0.8124 Y258.2443
G01 X0.8179 Y259.9833
G01 X0.8235 Y261.7223
G01 X0.8291 Y263.4613
G01 X0.8349 Y265.2004
G01 X0.8407 Y266.9394
G01 X0.8466 Y268.6784
G01 X0.8527 Y270.4174
G01 X0.8588 Y272.1564
G01 X0.8650 Y273.8954
G01 X0.8712 Y275.6345
G01 X0.8776 Y277.3735
G01 X0.8841 Y279.1125
G01 X0.8906 Y280.8515
G01 X0.8973 Y282.5905
G01 X0.9040 Y284.3295
G01 X0.9108 Y286.0686
G01 X0.9177 Y287.8076
G01 X0.9247 Y289.5466
G01 X0.9317 Y291.2856
G01 X0.9389 Y293.0246
G01 X0.9461 Y294.7636
G01 X0.9534 Y296.5027
G01 X0.9608 Y298.2417
G01 X0.9683 Y299.9807
G01 X0.9759 Y301.7197
G01 X0.9836 Y303.4587
G01 X0.9913 Y305.1977
G01 X0.9992 Y306.9367
G01 X1.0071 Y308.6757
G01 X1.0151 Y310.4147
G01 X1.0232 Y312.1538
G01 X1.0314 Y313.8928
G01 X1.0397 Y315.6318
G01 X1.0481 Y317.3708
G01 X1.0565 Y319.1098
G01 X1.0651 Y320.8488
G01 X1.0738 Y322.5878
G01 X1.0825 Y324.3268
G01 X1.0913 Y326.0658
G01 X1.1003 Y327.8048
G01 X1.1093 Y329.5438
G01 X1.1184 Y331.2828
G01 X1.1277 Y333.0218
G01 X1.1370 Y334.7608
G01 X1.1465 Y336.4998
G01 X1.1560 Y338.2388
G01 X1.1657 Y339.9779
G01 X1.1755 Y341.7169
G01 X1.1855 Y343.4559
G01 X1.1956 Y345.1949
G01 X1.2059 Y346.9339
G01 X1.2165 Y348.6728
G00 Z5.0000


(No. 2: Engraving 31)
G00 X1.2165 Y348.6728 Z0.5000
G01 Z-0.0100 F1200
G01 X164.7732 Y349.5493
G00 Z5.0000


(No. 3: Engraving 22)
G00 X130.6536 Y275.4695 Z5.0000
G00 Z0.5000
G01 Z-0.0100 F1200
G02 X131.4930 Y244.9411 I-293.5733 J-23.3481
G02 X130.2120 Y229.4381 I-130.3548 J2.9669
G02 X128.2581 Y221.0259 I-48.7504 J6.8899
G02 X126.6473 Y217.4523 I-16.7987 J5.4224
G02 X125.9237 Y216.7138 I-1.6603 J0.9030
G01 X125.5844 Y216.6736
G01 X125.2934 Y216.8570
G02 X124.7148 Y218.1125 I2.6161 J1.9666
G01 X124.6277 Y218.4500
G02 X124.0256 Y222.9373 I32.4490 J6.6380
G01 X123.9990 Y223.2849
G02 X123.5849 Y236.1740 I226.9367 J13.7421
G01 X123.5814 Y236.5226
G02 X123.4892 Y259.9622 I7896.2737 J42.7828
G03 X122.8594 Y282.9649 I-450.6983 J-0.8284
G03 X121.6035 Y295.2050 I-121.1943 J-6.2508
G03 X120.2173 Y300.9189 I-33.1670 J-5.0212
G03 X119.3710 Y302.7650 I-9.9160 J-3.4292
G01 X119.0870 Y303.1536
G01 X118.7049 Y303.4386
G01 X118.2611 Y303.3288
G01 X117.9831 Y302.9383
G03 X117.4407 Y301.0944 I7.0908 J-3.0875
G01 X117.3556 Y300.6201
G03 X116.7295 Y293.9060 I68.9173 J-9.8136
G03 X116.3393 Y276.0821 I411.7331 J-17.9295
G03 X116.3215 Y268.8539 I1475.6701 J-7.2364
G01 Y268.3720
G01 Y267.8901
G03 X116.3383 Y256.4088 I6886.5831 J4.3429
G02 X116.1055 Y221.6847 I-1391.5142 J-8.0329
G02 X115.1675 Y202.6458 I-312.2186 J5.8392
G02 X113.9892 Y193.8776 I-79.7682 J6.2565
G02 X113.0865 Y190.5985 I-21.2114 J4.0755
G01 X112.8244 Y189.9702
G01 X112.5206 Y189.3988
G01 X112.0923 Y188.9197
G01 X111.5053 Y188.9964
G01 X111.1530 Y189.5356
G01 X110.9191 Y190.1391
G01 X110.7379 Y190.7607
G02 X109.9063 Y195.8701 I39.2658 J9.0125
G01 X109.8370 Y196.5140
G02 X108.8767 Y212.0236 I255.0556 J23.5757
G01 X108.8529 Y212.6707
G02 X108.2783 Y248.9290 I1162.9040 J36.5615
G02 X108.2685 Y255.1810 I2300.1412 J6.7501
G01 X108.2684 Y255.9134
G02 X108.9757 Y324.7498 I3814.2608 J-4.7726
G00 Z5.0000


(No. 4: Engraving 23)
G00 X198.9671 Y194.7341 Z5.0000
G00 Z0.5000
G01 Z-0.0100 F1200
G03 X198.5291 Y194.3822 I0.3777 J-0.9186
G03 X198.0497 Y192.7588 I2.8925 J-1.7367
G01 X198.0379 Y192.5688
G01 X198.0311 Y192.3786
G01 X198.0290 Y192.1883
G03 X198.0458 Y191.6175 I10.2761 J0.0174
G03 X199.0375 Y186.5847 I24.3371 J2.1814
G03 X203.3914 Y175.3865 I79.4300 J24.4368
G03 X204.4824 Y173.6268 I8.2908 J3.9227
G01 X204.8700 Y173.2849
G01 X205.3621 Y173.2407
G01 X205.6934 Y173.6299
G03 X206.0997 Y175.1267 I-5.6829 J2.3461
G03 X206.4308 Y179.7815 I-41.6087 J5.2990
G01 X206.4437 Y180.3002
G03 X206.5026 Y193.2708 I-1319.1974 J12.4791
G01 X206.5067 Y193.7896
G01 X206.5115 Y194.3084
G02 X207.1758 Y208.2960 I149.1927 J-0.0757
G02 X208.5713 Y215.9419 I43.8043 J-4.0443
G02 X210.2285 Y219.7311 I13.8312 J-3.7922
G02 X211.1745 Y220.7993 I3.3775 J-2.0384
G02 X212.2136 Y220.7638 I0.5016 J-0.5443
G02 X212.7684 Y219.7695 I-2.0712 J-1.8075
G02 X213.4015 Y216.6835 I-15.6325 J-4.8151
G02 X213.9092 Y208.0948 I-95.7818 J-9.9709
G02 X214.0177 Y188.5233 I-1104.7197 J-15.9130
G03 X214.0337 Y185.7344 I723.7792 J2.7622
G03 X214.5939 Y169.0132 I252.3232 J0.0827
G03 X215.7697 Y160.3349 I60.6871 J3.8039
G03 X217.0780 Y156.5847 I14.0863 J2.8105
G03 X218.0429 Y155.3536 I3.8446 J2.0198
G01 X218.3599 Y155.1497
G03 X219.3676 Y155.4118 I0.3456 J0.7393
G03 X220.0236 Y156.7629 I-3.2968 J2.4356
G03 X220.8203 Y161.2192 I-24.4819 J6.6766
G01 X220.8594 Y161.5950
G03 X221.4281 Y173.2902 I-158.9275 J13.5890
G03 X221.5310 Y198.0275 I-1503.1121 J18.6232
G02 X221.5483 Y203.0140 I1191.1241 J-1.6342
G02 X222.0790 Y223.4492 I395.1024 J-0.0366
G02 X223.2343 Y234.3524 I96.2593 J-4.6864
G02 X224.5335 Y239.1566 I22.4055 J-3.4814
G02 X225.5292 Y240.8302 I5.6829 J-2.2479
G01 X225.8794 Y241.1263
G01 X226.3179 Y241.2310
G01 X226.7111 Y241.0082
G01 X226.9799 Y240.6363
G02 X227.5791 Y238.9018 I-6.4113 J-3.1856
G02 X228.3296 Y233.4358 I-40.9785 J-8.4109
G01 X228.3672 Y232.9772
G02 X228.9355 Y218.2659 I-252.2113 J-17.1093
G01 X228.9426 Y217.8058
G02 X229.0599 Y186.7555 I-2785.1743 J-26.0491
G03 X229.0732 Y183.3074 I1668.4678 J4.7294
G03 X229.5797 Y159.1776 I577.2156 J0.0465
G03 X230.6098 Y147.1575 I132.0644 J5.2628
G03 X231.7158 Y142.1121 I28.6814 J3.6437
G03 X232.7987 Y140.1043 I5.3724 J1.6015
G01 X233.2443 Y139.7870
G01 X233.7759 Y139.8099
G01 X234.1681 Y140.1892
G03 X234.9321 Y142.2432 I-5.8555 J3.3473
G01 X235.0502 Y142.7810
G03 X235.8437 Y149.3369 I-56.1374 J10.1206
G03 X236.4406 Y165.2925 I-299.6416 J19.1977
G03 X236.5666 Y200.3911 I-2373.2529 J26.0669
G01 Y201.2681
G01 X236.5668 Y202.1451
G02 X236.5890 Y213.5464 I2999.6960 J-0.1289
G02 X237.2954 Y250.3723 I972.5184 J-0.2363
G02 X238.8939 Y272.2347 I306.0989 J-11.3908
G02 X240.6493 Y283.0092 I101.0693 J-10.9363
G02 X241.2421 Y285.0762 I16.3887 J-3.5815
G01 X241.5435 Y285.7258
G01 X242.0999 Y285.9511
G01 X242.4163 Y285.3139
G01 X242.5947 Y284.6195
G01 X242.7263 Y283.9145
G02 X243.3260 Y277.4901 I-72.2727 J-9.9863
G01 X243.3660 Y276.7740
G02 X243.9117 Y255.9833 I-560.1472 J-25.1061
G01 X243.9200 Y255.2662
G02 X244.0881 Y204.8011 I-5920.8583 J-44.9642
G03 X244.0987 Y200.0129 I6229.5717 J11.3634
G03 X244.5593 Y157.8803 I1932.5336 J0.0581
G03 X245.5317 Y136.8372 I407.8358 J8.3023
G03 X246.5722 Y128.2857 I81.4178 J5.5673
G03 X247.3362 Y125.5212 I13.4392 J2.2260
G01 X247.8239 Y124.7022
G01 X248.6846 Y124.9025
G01 X249.0794 Y125.9271
G03 X249.8239 Y130.2620 I-30.4483 J7.4612
G01 X249.9433 Y131.3560
G03 X250.8205 Y145.6345 I-250.4277 J22.5511
G03 X251.4766 Y179.7452 I-1229.6857 J40.7126
G01 X251.4852 Y180.8458
G03 X251.5516 Y248.6871 I-8199.5230 J41.9445
G01 X251.5502 Y249.8420
G01 X251.5488 Y250.9969
G01 X251.5475 Y252.1518
G01 X251.5463 Y253.3067
G01 X251.5452 Y254.4615
G01 X251.5442 Y255.6164
G01 X251.5433 Y256.7713
G01 X251.5425 Y257.9262
G02 X251.5405 Y263.7006 I9058.0590 J5.9419
G01 X251.5406 Y264.8555
G02 X251.5555 Y277.5592 I5618.1296 J-0.2404
G02 X252.0057 Y319.1318 I1937.4660 J-0.1913
G02 X252.8914 Y338.7427 I390.0723 J-7.7930
G02 X253.7045 Y345.6212 I65.7238 J-4.2817
G01 X253.9477 Y346.7500
G01 X254.2941 Y347.8507
G01 X255.0206 Y348.6742
G01 X255.7755 Y347.8154
G01 X256.1493 Y346.6758
G02 X256.8246 Y343.1408 I-35.3027 J-8.5763
G02 X257.8841 Y332.3929 I-160.9911 J-21.2971
G01 X257.9666 Y331.1955
G02 X259.1898 Y302.4173 I-776.0541 J-47.4007
G02 X260.0129 Y240.0111 I-2779.6989 J-67.8691
G01 X260.0170 Y238.8108
G02 X259.0841 Y109.7435 I-7065.1997 J-13.4698
G00 Z5.0000


(No. 5: Engraving 24)
G00 X236.2223 Y1.4316 Z5.0000
G00 Z0.5000
G01 Z-0.0100 F1200
G02 X235.3133 Y-0.3330 I-47.4541 J23.3306
G01 X235.2954 Y-0.3177
G02 X241.0973 Y11.9476 I462.2490 J-211.1543
G02 X242.6754 Y14.6360 I16.9622 J-8.1496
G02 X243.1574 Y15.0926 I1.2598 J-0.8472
G01 X243.3728 Y15.1177
G01 X243.5310 Y14.9672
G02 X243.7452 Y13.8809 I-3.1529 J-1.1860
G01 X243.7582 Y13.6583
G02 X243.7965 Y8.9771 I-1005.8512 J-10.5865
G03 X244.3262 Y4.3358 I20.6728 J0.0086
G03 X245.0966 Y2.4921 I6.1681 J1.4942
G03 X249.2821 Y1.7151 I2.4318 J1.4378
G01 X249.6188 Y2.0576
G03 X250.6172 Y4.2243 I-4.7360 J3.4957
G01 X250.7290 Y4.6919
G03 X251.2292 Y9.4687 I-30.3601 J5.5940
G03 X251.3383 Y19.0851 I-404.8991 J9.4016
G02 X252.1154 Y33.0016 I126.2424 J-0.0693
G02 X255.5074 Y48.0048 I67.8433 J-7.4533
G02 X256.8037 Y50.9365 I15.7575 J-5.2148
G02 X257.2786 Y51.5003 I1.7360 J-0.9803
G02 X257.9143 Y51.3940 I0.2758 J-0.3047
G01 X258.0390 Y51.1812
G02 X258.4608 Y49.5101 I-6.4788 J-2.5241
G02 X258.8514 Y43.3510 I-57.4898 J-6.7377
G01 X258.8568 Y43.1041
G02 X258.8868 Y26.2960 I-1025.3034 J-10.2347
G03 X258.9022 Y23.0395 I476.8462 J0.6198
G03 X259.4001 Y10.0261 I171.6497 J0.0518
G03 X260.3680 Y3.9229 I35.9502 J2.5727
G03 X261.2408 Y1.8266 I7.2373 J1.7836
G03 X262.2198 Y1.0083 I1.6229 J0.9468
G01 X262.5412 Y0.9621
G01 X263.3449 Y2.4216
G01 X263.6915 Y4.1286
G03 X264.4520 Y11.0545 I-89.2058 J13.2995
G03 X265.4147 Y30.1947 I-474.7736 J33.4729
G03 X266.2905 Y75.4863 I-2142.1530 J64.0795
G03 X266.6529 Y167.8298 I-9531.2454 J83.5798
G01 X266.6533 Y169.5721
G01 X266.6535 Y171.3145
G01 X266.6536 Y173.0568
G01 X266.6537 Y174.7992
G01 X266.6536 Y176.5416
G01 X266.6535 Y178.2840
G01 X266.6533 Y180.0264
G01 X266.6531 Y181.7688
G01 X266.6527 Y183.5112
G01 X266.6524 Y185.2536
G01 X266.6520 Y186.9960
G01 X266.6515 Y188.7384
G01 X266.6511 Y190.4808
G01 X266.6506 Y192.2232
G01 X266.6501 Y193.9656
G01 X266.6496 Y195.7080
G01 X266.6491 Y197.4504
G01 X266.6487 Y199.1928
G01 X266.6482 Y200.9352
G01 X266.6478 Y202.6776
G01 X266.6474 Y204.4200
G01 X266.6471 Y206.1624
G01 X266.6468 Y207.9048
G01 X266.6466 Y209.6472
G01 X266.6465 Y211.3896
G01 X266.6464 Y213.1320
G01 Y214.8745
G01 X266.6466 Y216.6169
G01 X266.6468 Y218.3593
G01 X266.6472 Y220.1017
G01 X266.6477 Y221.8441
G01 X266.6483 Y223.5865
G01 X266.6490 Y225.3289
G01 X266.6500 Y227.0713
G01 X266.6511 Y228.8137
G01 X266.6523 Y230.5561
G01 X266.6538 Y232.2985
G01 X266.6555 Y234.0409
G01 X266.6573 Y235.7833
G01 X266.6594 Y237.5257
G01 X266.6618 Y239.2681
G01 X266.6644 Y241.0105
G01 X266.6672 Y242.7529
G01 X266.6703 Y244.4953
G02 X267.1148 Y305.4773 I4342.4493 J-1.1606
G02 X267.9332 Y333.3425 I893.6473 J-12.2995
G02 X268.7152 Y343.7659 I157.1991 J-6.5536
G01 X268.9479 Y345.4926
G01 X269.2773 Y347.2031
G01 X270.0610 Y348.6742
G01 X270.8638 Y347.2128
G01 X271.2105 Y345.5054
G02 X271.9711 Y338.5777 I-89.2512 J-13.3055
G02 X272.9342 Y319.4326 I-474.8678 J-33.4834
G02 X273.8104 Y274.1292 I-2142.4086 J-64.0994
G02 X274.1731 Y181.7619 I-9531.8393 J-83.6114
G01 X274.1735 Y180.0191
G01 X274.1737 Y178.2763
G01 X274.1738 Y176.5335
G01 X274.1739 Y174.7907
G01 Y173.0481
G01 X274.1737 Y171.3054
G01 X274.1735 Y169.5628
G01 X274.1733 Y167.8201
G01 X274.1730 Y166.0775
G01 X274.1726 Y164.3348
G01 X274.1722 Y162.5922
G01 X274.1718 Y160.8495
G01 X274.1713 Y159.1069
G01 X274.1708 Y157.3642
G01 X274.1703 Y155.6216
G01 X274.1698 Y153.8789
G01 X274.1694 Y152.1363
G01 X274.1689 Y150.3936
G01 X274.1684 Y148.6510
G01 X274.1680 Y146.9083
G01 X274.1677 Y145.1657
G01 X274.1673 Y143.4230
G01 X274.1670 Y141.6804
G01 X274.1668 Y139.9378
G01 X274.1667 Y138.1951
G01 X274.1666 Y136.4525
G01 X274.1667 Y134.7098
G01 X274.1668 Y132.9672
G01 X274.1671 Y131.2245
G01 X274.1674 Y129.4819
G01 X274.1679 Y127.7392
G01 X274.1685 Y125.9966
G01 X274.1693 Y124.2539
G01 X274.1702 Y122.5113
G01 X274.1713 Y120.7686
G01 X274.1726 Y119.0260
G01 X274.1741 Y117.2833
G01 X274.1757 Y115.5407
G01 X274.1776 Y113.7980
G01 X274.1797 Y112.0554
G01 X274.1820 Y110.3127
G01 X274.1846 Y108.5701
G01 X274.1875 Y106.8274
G01 X274.1906 Y105.0848
G03 X274.6352 Y44.0942 I4342.9861 J1.1651
G03 X275.4537 Y16.2251 I893.7714 J12.3023
G03 X276.2359 Y5.8002 I157.2329 J6.5554
G01 X276.4686 Y4.0733
G01 X276.7980 Y2.3626
G01 X277.5813 Y0.8906
G01 X278.3845 Y2.3514
G01 X278.7312 Y4.0588
G03 X279.4918 Y10.9865 I-89.2539 J13.3046
G03 X280.4546 Y30.1317 I-474.9337 J33.4829
G03 X281.3308 Y75.4353 I-2142.7634 J64.0989
G03 X281.6933 Y167.8029 I-9533.1506 J83.6066
G01 X281.6937 Y169.5457
G01 X281.6939 Y171.2885
G01 X281.6941 Y173.0313
G01 Y174.7741
G01 Y176.5167
G01 X281.6939 Y178.2594
G01 X281.6937 Y180.0021
G01 X281.6935 Y181.7447
G01 X281.6932 Y183.4874
G01 X281.6928 Y185.2300
G01 X281.6924 Y186.9727
G01 X281.6920 Y188.7153
G01 X281.6915 Y190.4580
G01 X281.6910 Y192.2006
G01 X281.6905 Y193.9433
G01 X281.6900 Y195.6859
G01 X281.6896 Y197.4286
G01 X281.6891 Y199.1713
G01 X281.6886 Y200.9139
G01 X281.6882 Y202.6566
G01 X281.6878 Y204.3992
G01 X281.6875 Y206.1419
G01 X281.6872 Y207.8845
G01 X281.6870 Y209.6272
G01 X281.6869 Y211.3698
G01 X281.6868 Y213.1125
G01 X281.6869 Y214.8551
G01 X281.6870 Y216.5978
G01 X281.6872 Y218.3405
G01 X281.6876 Y220.0831
G01 X281.6881 Y221.8258
G01 X281.6887 Y223.5684
G01 X281.6895 Y225.3111
G01 X281.6904 Y227.0537
G01 X281.6915 Y228.7964
G01 X281.6928 Y230.5390
G01 X281.6942 Y232.2817
G01 X281.6959 Y234.0243
G01 X281.6978 Y235.7670
G01 X281.6999 Y237.5096
G01 X281.7022 Y239.2523
G01 X281.7048 Y240.9950
G01 X281.7076 Y242.7376
G01 X281.7108 Y244.4803
G02 X282.1553 Y305.4710 I4343.8528 J-1.1613
G02 X282.9736 Y333.3403 I893.9134 J-12.3010
G02 X283.7556 Y343.7652 I157.2467 J-6.5545
G01 X283.9883 Y345.4921
G01 X284.3177 Y347.2028
G01 X285.1014 Y348.6742
G01 X285.9043 Y347.2126
G01 X286.2509 Y345.5050
G02 X287.0116 Y338.5765 I-89.2720 J-13.3071
G02 X287.9746 Y319.4293 I-474.9777 J-33.4875
G02 X288.8509 Y274.1210 I-2142.8590 J-64.1067
G02 X289.2136 Y181.7436 I-9533.4356 J-83.6184
G01 X289.2139 Y180.0006
G01 X289.2142 Y178.2577
G01 X289.2143 Y176.5147
G01 Y174.7717
G01 Y173.0290
G01 X289.2142 Y171.2863
G01 X289.2140 Y169.5436
G01 X289.2137 Y167.8009
G01 X289.2134 Y166.0582
G01 X289.2130 Y164.3155
G01 X289.2126 Y162.5729
G01 X289.2122 Y160.8302
G01 X289.2117 Y159.0875
G01 X289.2113 Y157.3448
G01 X289.2108 Y155.6021
G01 X289.2103 Y153.8594
G01 X289.2098 Y152.1167
G01 X289.2093 Y150.3740
G01 X289.2089 Y148.6314
G01 X289.2085 Y146.8887
G01 X289.2081 Y145.1460
G01 X289.2077 Y143.4033
G01 X289.2075 Y141.6606
G01 X289.2073 Y139.9179
G01 X289.2071 Y138.1752
G01 Y136.4325
G01 Y134.6898
G01 X289.2072 Y132.9472
G01 X289.2075 Y131.2045
G01 X289.2078 Y129.4618
G01 X289.2083 Y127.7191
G01 X289.2089 Y125.9764
G01 X289.2097 Y124.2337
G01 X289.2106 Y122.4910
G01 X289.2117 Y120.7483
G01 X289.2130 Y119.0057
G01 X289.2145 Y117.2630
G01 X289.2161 Y115.5203
G01 X289.2180 Y113.7776
G01 X289.2201 Y112.0349
G01 X289.2224 Y110.2922
G01 X289.2250 Y108.5495
G01 X289.2279 Y106.8068
G01 X289.2310 Y105.0642
G03 X289.6755 Y44.0722 I4343.9930 J1.1606
G03 X290.4938 Y16.2025 I893.9317 J12.3009
G03 X291.2759 Y5.7773 I157.2501 J6.5546
G01 X291.5086 Y4.0504
G01 X291.8380 Y2.3396
G01 X292.6217 Y0.8681
G01 X293.4245 Y2.3298
G01 X293.7711 Y4.0374
G03 X294.5318 Y10.9658 I-89.2729 J13.3071
G03 X295.4948 Y30.1130 I-474.9849 J33.4875
G03 X296.3711 Y75.4214 I-2142.8951 J64.1067
G03 X296.7338 Y167.7987 I-9533.5845 J83.6184
G01 X296.7341 Y169.5417
G01 X296.7344 Y171.2847
G01 X296.7345 Y173.0277
G01 Y174.7707
G01 Y176.5134
G01 X296.7344 Y178.2561
G01 X296.7342 Y179.9988
G01 X296.7339 Y181.7415
G01 X296.7336 Y183.4841
G01 X296.7332 Y185.2268
G01 X296.7328 Y186.9695
G01 X296.7324 Y188.7122
G01 X296.7319 Y190.4549
G01 X296.7315 Y192.1976
G01 X296.7310 Y193.9403
G01 X296.7305 Y195.6830
G01 X296.7300 Y197.4257
G01 X296.7295 Y199.1683
G01 X296.7291 Y200.9110
G01 X296.7287 Y202.6537
G01 X296.7283 Y204.3964
G01 X296.7280 Y206.1391
G01 X296.7277 Y207.8818
G01 X296.7275 Y209.6245
G01 X296.7273 Y211.3672
G01 Y213.1099
G01 Y214.8525
G01 X296.7274 Y216.5952
G01 X296.7277 Y218.3379
G01 X296.7280 Y220.0806
G01 X296.7285 Y221.8233
G01 X296.7292 Y223.5660
G01 X296.7299 Y225.3087
G01 X296.7308 Y227.0514
G01 X296.7319 Y228.7940
G01 X296.7332 Y230.5367
G01 X296.7347 Y232.2794
G01 X296.7363 Y234.0221
G01 X296.7382 Y235.7648
G01 X296.7403 Y237.5075
G01 X296.7426 Y239.2502
G01 X296.7452 Y240.9929
G01 X296.7481 Y242.7355
G01 X296.7512 Y244.4782
G02 X297.1957 Y305.4702 I4344.0363 J-1.1605
G02 X298.0140 Y333.3400 I893.9391 J-12.3009
G02 X298.7961 Y343.7651 I157.2509 J-6.5546
G01 X299.0288 Y345.4920
G01 X299.3582 Y347.2028
G01 X300.1419 Y348.6742
G01 X300.9447 Y347.2126
G01 X301.2913 Y345.5050
G02 X302.0520 Y338.5765 I-89.2730 J-13.3072
G02 X303.0150 Y319.4292 I-474.9832 J-33.4876
G02 X303.8913 Y274.1206 I-2142.8868 J-64.1067
G02 X304.2540 Y181.7429 I-9533.6826 J-83.6184
G01 X304.2543 Y179.9999
G01 X304.2546 Y178.2569
G01 X304.2547 Y176.5139
G01 Y174.7709
G01 Y173.0282
G01 X304.2546 Y171.2855
G01 X304.2544 Y169.5428
G01 X304.2541 Y167.8001
G01 X304.2538 Y166.0574
G01 X304.2535 Y164.3147
G01 X304.2530 Y162.5721
G01 X304.2526 Y160.8294
G01 X304.2521 Y159.0867
G01 X304.2517 Y157.3440
G01 X304.2512 Y155.6013
G01 X304.2507 Y153.8586
G01 X304.2502 Y152.1159
G01 X304.2497 Y150.3733
G01 X304.2493 Y148.6306
G01 X304.2489 Y146.8879
G01 X304.2485 Y145.1452
G01 X304.2482 Y143.4025
G01 X304.2479 Y141.6598
G01 X304.2477 Y139.9171
G01 X304.2475 Y138.1744
G01 Y136.4318
G01 Y134.6891
G01 X304.2476 Y132.9464
G01 X304.2479 Y131.2037
G01 X304.2482 Y129.4610
G01 X304.2487 Y127.7183
G01 X304.2494 Y125.9756
G01 X304.2501 Y124.2330
G01 X304.2511 Y122.4903
G01 X304.2522 Y120.7476
G01 X304.2534 Y119.0049
G01 X304.2549 Y117.2622
G01 X304.2566 Y115.5195
G01 X304.2584 Y113.7768
G01 X304.2605 Y112.0341
G01 X304.2629 Y110.2915
G01 X304.2654 Y108.5488
G01 X304.2683 Y106.8061
G01 X304.2714 Y105.0634
G03 X304.7159 Y44.0715 I4344.0366 J1.1611
G03 X305.5342 Y16.2018 I893.9430 J12.3011
G03 X306.3163 Y5.7767 I157.2517 J6.5546
G01 X306.5490 Y4.0497
G01 X306.8784 Y2.3390
G01 X307.6621 Y0.8675
G01 X308.4649 Y2.3292
G01 X308.8115 Y4.0368
G03 X309.5722 Y10.9653 I-89.2730 J13.3072
G03 X310.5352 Y30.1126 I-474.9830 J33.4876
G03 X311.4115 Y75.4211 I-2142.8862 J64.1067
G03 X311.7742 Y167.7989 I-9533.6809 J83.6184
G01 X311.7745 Y169.5419
G01 X311.7748 Y171.2849
G01 X311.7749 Y173.0279
G01 X311.7750 Y174.7709
G01 X311.7749 Y176.5136
G01 X311.7748 Y178.2562
G01 X311.7746 Y179.9989
G01 X311.7743 Y181.7416
G01 X311.7740 Y183.4843
G01 X311.7737 Y185.2270
G01 X311.7733 Y186.9697
G01 X311.7728 Y188.7124
G01 X311.7724 Y190.4550
G01 X311.7719 Y192.1977
G01 X311.7714 Y193.9404
G01 X311.7709 Y195.6831
G01 X311.7704 Y197.4258
G01 X311.7699 Y199.1685
G01 X311.7695 Y200.9112
G01 X311.7691 Y202.6539
G01 X311.7687 Y204.3965
G01 X311.7684 Y206.1392
G01 X311.7681 Y207.8819
G01 X311.7679 Y209.6246
G01 X311.7677 Y211.3673
G01 Y213.1100
G01 Y214.8527
G01 X311.7679 Y216.5954
G01 X311.7681 Y218.3380
G01 X311.7685 Y220.0807
G01 X311.7689 Y221.8234
G01 X311.7696 Y223.5661
G01 X311.7703 Y225.3088
G01 X311.7713 Y227.0515
G01 X311.7724 Y228.7942
G01 X311.7736 Y230.5368
G01 X311.7751 Y232.2795
G01 X311.7768 Y234.0222
G01 X311.7786 Y235.7649
G01 X311.7807 Y237.5076
G01 X311.7831 Y239.2503
G01 X311.7856 Y240.9930
G01 X311.7885 Y242.7356
G01 X311.7916 Y244.4783
G02 X312.2361 Y305.4702 I4344.0025 J-1.1611
G02 X313.0544 Y333.3400 I893.9362 J-12.3011
G02 X313.8365 Y343.7651 I157.2505 J-6.5546
G01 X314.0692 Y345.4921
G01 X314.3986 Y347.2028
G01 X315.1823 Y348.6742
G01 X315.9851 Y347.2126
G01 X316.3318 Y345.5049
G02 X317.0924 Y338.5765 I-89.2737 J-13.3072
G02 X318.0555 Y319.4292 I-474.9863 J-33.4877
G02 X318.9317 Y274.1206 I-2142.8950 J-64.1070
G02 X319.2944 Y181.7429 I-9533.5738 J-83.6188
G01 X319.2948 Y179.9999
G01 X319.2950 Y178.2569
G01 X319.2951 Y176.5139
G01 X319.2952 Y174.7709
G01 X319.2951 Y173.0282
G01 X319.2950 Y171.2855
G01 X319.2948 Y169.5428
G01 X319.2946 Y167.8001
G01 X319.2943 Y166.0574
G01 X319.2939 Y164.3147
G01 X319.2935 Y162.5721
G01 X319.2931 Y160.8294
G01 X319.2926 Y159.0867
G01 X319.2921 Y157.3440
G01 X319.2916 Y155.6013
G01 X319.2911 Y153.8586
G01 X319.2906 Y152.1159
G01 X319.2902 Y150.3733
G01 X319.2897 Y148.6306
G01 X319.2893 Y146.8879
G01 X319.2889 Y145.1452
G01 X319.2886 Y143.4025
G01 X319.2883 Y141.6598
G01 X319.2881 Y139.9171
G01 X319.2880 Y138.1744
G01 X319.2879 Y136.4318
G01 X319.2880 Y134.6891
G01 X319.2881 Y132.9464
G01 X319.2883 Y131.2037
G01 X319.2887 Y129.4610
G01 X319.2892 Y127.7183
G01 X319.2898 Y125.9756
G01 X319.2906 Y124.2330
G01 X319.2915 Y122.4903
G01 X319.2926 Y120.7476
G01 X319.2939 Y119.0049
G01 X319.2953 Y117.2622
G01 X319.2970 Y115.5195
G01 X319.2989 Y113.7768
G01 X319.3010 Y112.0341
G01 X319.3033 Y110.2915
G01 X319.3059 Y108.5488
G01 X319.3087 Y106.8061
G01 X319.3118 Y105.0634
G03 X319.7563 Y44.0715 I4344.0309 J1.1605
G03 X320.5746 Y16.2018 I893.9375 J12.3009
G03 X321.3567 Y5.7767 I157.2505 J6.5546
G01 X321.5894 Y4.0497
G01 X321.9188 Y2.3390
G01 X322.7025 Y0.8675
G01 X323.5054 Y2.3292
G01 X323.8520 Y4.0368
G03 X324.6127 Y10.9653 I-89.2730 J13.3072
G03 X325.5757 Y30.1126 I-474.9830 J33.4876
G03 X326.4520 Y75.4211 I-2142.8862 J64.1067
G03 X326.8146 Y167.7989 I-9533.6809 J83.6184
G01 X326.8150 Y169.5419
G01 X326.8152 Y171.2849
G01 X326.8153 Y173.0279
G01 X326.8154 Y174.7709
G01 Y176.5136
G01 X326.8152 Y178.2562
G01 X326.8150 Y179.9989
G01 X326.8148 Y181.7416
G01 X326.8145 Y183.4843
G01 X326.8141 Y185.2270
G01 X326.8137 Y186.9697
G01 X326.8133 Y188.7124
G01 X326.8128 Y190.4550
G01 X326.8123 Y192.1977
G01 X326.8118 Y193.9404
G01 X326.8113 Y195.6831
G01 X326.8109 Y197.4258
G01 X326.8104 Y199.1685
G01 X326.8099 Y200.9112
G01 X326.8095 Y202.6539
G01 X326.8091 Y204.3965
G01 X326.8088 Y206.1392
G01 X326.8085 Y207.8819
G01 X326.8083 Y209.6246
G01 X326.8082 Y211.3673
G01 X326.8081 Y213.1100
G01 X326.8082 Y214.8527
G01 X326.8083 Y216.5953
G01 X326.8085 Y218.3380
G01 X326.8089 Y220.0807
G01 X326.8094 Y221.8234
G01 X326.8100 Y223.5661
G01 X326.8108 Y225.3088
G01 X326.8117 Y227.0515
G01 X326.8128 Y228.7942
G01 X326.8141 Y230.5368
G01 X326.8155 Y232.2795
G01 X326.8172 Y234.0222
G01 X326.8191 Y235.7649
G01 X326.8212 Y237.5076
G01 X326.8235 Y239.2503
G01 X326.8261 Y240.9930
G01 X326.8289 Y242.7356
G01 X326.8320 Y244.4783
G02 X327.2765 Y305.4702 I4344.0366 J-1.1611
G02 X328.0949 Y333.3400 I893.9430 J-12.3011
G02 X328.8769 Y343.7651 I157.2517 J-6.5546
G01 X329.1096 Y345.4920
G01 X329.4390 Y347.2028
G01 X330.2227 Y348.6742
G01 X331.0256 Y347.2126
G01 X331.3722 Y345.5050
G02 X332.1329 Y338.5765 I-89.2730 J-13.3072
G02 X333.0959 Y319.4292 I-474.9831 J-33.4876
G02 X333.9722 Y274.1206 I-2142.8866 J-64.1067
G02 X334.3348 Y181.7429 I-9533.6770 J-83.6184
G01 X334.3352 Y179.9999
G01 X334.3354 Y178.2569
G01 X334.3356 Y176.5139
G01 Y174.7709
G01 Y173.0282
G01 X334.3354 Y171.2855
G01 X334.3352 Y169.5428
G01 X334.3350 Y167.8001
G01 X334.3347 Y166.0574
G01 X334.3343 Y164.3147
G01 X334.3339 Y162.5721
G01 X334.3335 Y160.8294
G01 X334.3330 Y159.0867
G01 X334.3325 Y157.3440
G01 X334.3320 Y155.6013
G01 X334.3315 Y153.8586
G01 X334.3311 Y152.1159
G01 X334.3306 Y150.3733
G01 X334.3301 Y148.6306
G01 X334.3297 Y146.8879
G01 X334.3293 Y145.1452
G01 X334.3290 Y143.4025
G01 X334.3287 Y141.6598
G01 X334.3285 Y139.9171
G01 X334.3284 Y138.1744
G01 X334.3283 Y136.4318
G01 X334.3284 Y134.6891
G01 X334.3285 Y132.9464
G01 X334.3287 Y131.2037
G01 X334.3291 Y129.4610
G01 X334.3296 Y127.7183
G01 X334.3302 Y125.9756
G01 X334.3310 Y124.2330
G01 X334.3319 Y122.4903
G01 X334.3330 Y120.7476
G01 X334.3343 Y119.0049
G01 X334.3357 Y117.2622
G01 X334.3374 Y115.5195
G01 X334.3393 Y113.7768
G01 X334.3414 Y112.0341
G01 X334.3437 Y110.2915
G01 X334.3463 Y108.5488
G01 X334.3491 Y106.8061
G01 X334.3523 Y105.0634
G03 X334.7968 Y44.0715 I4344.0022 J1.1611
G03 X335.6151 Y16.2018 I893.9360 J12.3011
G03 X336.3971 Y5.7767 I157.2504 J6.5546
G01 X336.6298 Y4.0497
G01 X336.9592 Y2.3390
G01 X337.7430 Y0.8675
G01 X338.5596 Y2.3233
G01 X338.9237 Y4.0277
G01 X339.1895 Y5.7505
G01 X339.4056 Y7.4804
G03 X340.3719 Y19.6443 I-245.1180 J25.5918
G03 X341.5828 Y51.0004 I-1071.9836 J57.0984
G03 X342.6282 Y122.4700 I-3895.5606 J92.7263
G03 X342.3954 Y266.9418 I-9958.3291 J56.1870
G01 X342.3813 Y268.6808
G01 X342.3670 Y270.4199
G01 X342.3525 Y272.1589
G01 X342.3378 Y273.8979
G01 X342.3229 Y275.6369
G01 X342.3078 Y277.3760
G01 X342.2924 Y279.1150
G01 X342.2769 Y280.8540
G01 X342.2611 Y282.5931
G01 X342.2452 Y284.3321
G01 X342.2290 Y286.0711
G01 X342.2126 Y287.8101
G01 X342.1961 Y289.5491
G01 X342.1793 Y291.2881
G01 X342.1623 Y293.0272
G01 X342.1451 Y294.7662
G01 X342.1277 Y296.5052
G01 X342.1101 Y298.2442
G01 X342.0923 Y299.9832
G01 X342.0743 Y301.7222
G01 X342.0561 Y303.4612
G01 X342.0377 Y305.2002
G01 X342.0191 Y306.9392
G01 X342.0003 Y308.6782
G01 X341.9812 Y310.4172
G01 X341.9620 Y312.1561
G01 X341.9425 Y313.8951
G01 X341.9229 Y315.6341
G01 X341.9030 Y317.3731
G01 X341.8829 Y319.1121
G01 X341.8626 Y320.8511
G01 X341.8420 Y322.5900
G01 X341.8213 Y324.3290
G01 X341.8003 Y326.0680
G01 X341.7791 Y327.8069
G01 X341.7576 Y329.5459
G01 X341.7360 Y331.2849
G01 X341.7140 Y333.0238
G01 X341.6918 Y334.7628
G01 X341.6694 Y336.5017
G01 X341.6467 Y338.2407
G03 X341.5031 Y348.6742 I-7015.2783 J-91.3442
G00 Z5.0000


(No. 6: Engraving 25)
G00 X341.5031 Y348.6742 Z0.5000
G01 Z-0.0100 F1200
G01 X349.5493 Y349.5493
G01 Y0.0000
G01 X186.4689 Y0.8828
G00 Z5.0000


(No. 7: Engraving 26)
G00 X241.7662 Y18.7030 Z5.0000
G00 Z0.5000
G01 Z-0.0100 F1200
G02 X235.0035 Y7.5269 I-68.6383 J33.8993
G02 X230.7740 Y2.8794 I-22.6014 J16.3204
G02 X227.6527 Y1.0701 I-5.9425 J6.6545
G02 X226.4588 Y0.8924 I-1.2224 J4.1123
G01 X225.8701 Y1.0199
G01 X225.5118 Y1.4916
G01 X225.4740 Y2.0958
G01 X225.5833 Y2.6941
G01 X225.7611 Y3.2762
G02 X227.9374 Y7.6260 I26.3656 J-10.4715
G01 X228.2473 Y8.1501
G01 X228.5613 Y8.6717
G02 X235.5535 Y19.3742 I270.6168 J-169.1656
G03 X246.1780 Y35.7024 I-359.6572 J245.6422
G03 X252.8538 Y48.0023 I-101.4729 J63.0367
G03 X255.2374 Y54.2880 I-40.2079 J18.8423
G03 X255.5373 Y55.8177 I-7.1435 J2.1947
G01 X255.5250 Y56.1292
G01 X255.3886 Y56.4007
G01 X255.0883 Y56.4036
G01 X254.8148 Y56.2544
G03 X253.0648 Y54.4796 I7.1392 J-8.7900
G03 X247.8578 Y47.4567 I90.6607 J-72.6607
G01 X247.6790 Y47.2006
G03 X234.1601 Y27.2334 I1691.0445 J-1159.4866
G02 X222.7016 Y10.8813 I-386.6315 J258.7371
G02 X216.8174 Y3.6244 I-72.1614 J52.4974
G02 X214.2989 Y1.3523 I-11.8864 J10.6437
G01 X213.9338 Y1.1353
G01 X213.5449 Y0.9654
G01 X213.1288 Y0.8892
G01 X212.7317 Y1.0279
G01 X212.5677 Y1.4183
G01 X212.5780 Y1.8489
G02 X212.9152 Y3.0969 I6.5819 J-1.1086
G02 X215.1887 Y7.7473 I34.0241 J-13.7531
G01 X215.4002 Y8.1237
G02 X222.9094 Y20.2301 I217.3349 J-126.4237
G01 X223.1452 Y20.5918
G02 X240.2588 Y46.2333 I2735.7718 J-1807.3622
G03 X253.6983 Y67.0236 I-528.8420 J356.6005
G03 X259.3732 Y77.1231 I-109.7132 J68.2909
G03 X261.1284 Y81.5193 I-22.3705 J11.4801
G03 X261.3139 Y83.0331 I-4.0852 J1.2689
G01 X261.1203 Y83.4555
G01 X260.6610 Y83.4441
G03 X259.1739 Y82.2532 I2.9208 J-5.1708
G03 X255.4894 Y77.8485 I38.6835 J-36.1022
G03 X246.0288 Y64.6025 I281.3935 J-210.9789
G03 X226.1668 Y35.1786 I4389.8573 J-2984.7000
G02 X211.3433 Y13.8283 I-652.3157 J437.0826
G02 X204.0576 Y4.4663 I-118.9679 J85.0669
G02 X201.2790 Y1.6573 I-18.6611 J15.6805
G01 X200.8268 Y1.3187
G01 X200.3398 Y1.0332
G01 X199.7988 Y0.8860
G01 X199.3803 Y1.1853
G01 X199.3676 Y1.7394
G02 X200.0793 Y3.8503 I9.2430 J-1.9409
G02 X203.5080 Y10.2446 I65.1008 J-30.7920
G01 X203.7922 Y10.7253
G02 X214.5717 Y27.6910 I405.4863 J-245.7259
G01 X214.8790 Y28.1572
G02 X237.1457 Y61.4626 I7723.4895 J-5139.5400
G03 X252.2603 Y84.7728 I-701.6131 J471.4885
G03 X258.1249 Y94.9290 I-136.5270 J85.6078
G03 X259.8771 Y98.8753 I-25.9445 J13.8823
G01 X260.0510 Y99.4676
G01 X260.1663 Y100.0736
G01 X260.1438 Y100.6872
G01 X259.7225 Y101.0230
G01 X259.1753 Y100.7995
G03 X257.4079 Y99.2074 I6.2475 J-8.7128
G03 X252.5233 Y93.1957 I62.3142 J-55.6210
G01 X252.1655 Y92.7190
G03 X239.7948 Y75.1862 I443.9604 J-326.3764
G03 X215.9805 Y39.8604 I7798.5771 J-5282.9912
G02 X198.8267 Y15.0911 I-824.0966 J552.3977
G02 X191.2645 Y5.2099 I-151.2967 J107.9548
G02 X188.1350 Y1.8641 I-25.4967 J20.7120
G01 X187.6299 Y1.4473
G01 X187.0853 Y1.0844
G01 X186.4689 Y0.8828
G01 X186.0722 Y1.2910
G01 X186.1373 Y1.9241
G02 X187.0546 Y4.3049 I13.0037 J-3.6434
G02 X191.0757 Y11.5696 I86.5677 J-43.1713
G02 X202.3934 Y29.3582 I476.4989 J-290.6688
G01 X202.7445 Y29.8920
G02 X227.3718 Y66.7417 I5714.9129 J-3792.7184
G03 X245.2576 Y94.0748 I-1042.5127 J701.7032
G03 X252.5509 Y106.3621 I-185.0991 J118.1757
G03 X254.5731 Y110.6713 I-30.7572 J17.0629
G01 X254.7813 Y111.3190
G01 X254.9183 Y111.9849
G01 X254.8308 Y112.6475
G01 X254.2229 Y112.7323
G01 X253.6486 Y112.3819
G03 X251.7141 Y110.5074 I10.0531 J-12.3102
G03 X246.2464 Y103.6585 I80.8827 J-70.1785
G01 X245.8439 Y103.1174
G03 X232.2656 Y83.8136 I540.2090 J-394.4107
G03 X206.0824 Y44.9606 I7639.4334 J-5176.4846
G02 X186.9428 Y17.1878 I-1065.5594 J713.8475
G02 X178.3034 Y5.7288 I-192.8017 J136.3752
G02 X174.9301 Y2.0108 I-30.9589 J24.6990
G01 X174.3890 Y1.5396
G01 X173.8058 Y1.1223
G01 X173.1389 Y0.8796
G01 X172.7675 Y1.3646
G01 X172.8817 Y2.0508
G02 X173.6427 Y3.9981 I14.2471 J-4.4460
G02 X177.6748 Y11.3309 I82.0981 J-40.3687
G01 X178.0333 Y11.9293
G02 X190.4068 Y31.3415 I537.8712 J-329.1938
G01 X190.7903 Y31.9242
G01 X191.1741 Y32.5068
G02 X217.9526 Y72.5666 I6840.1346 J-4543.4000
G03 X237.2512 Y101.9968 I-1235.4825 J831.1986
G03 X245.1740 Y115.1966 I-218.7327 J140.2658
G03 X247.4137 Y119.8109 I-35.8130 J20.2338
G01 X247.6533 Y120.5037
G01 X247.8188 Y121.2172
G01 X247.7167 Y121.9234
G01 X247.0397 Y121.9028
G01 X246.4362 Y121.4896
G03 X244.3728 Y119.4135 I12.8145 J-14.7994
G03 X238.4786 Y111.9371 I96.3776 J-82.0430
G01 X238.0434 Y111.3479
G03 X223.7392 Y90.9605 I623.1900 J-452.4547
G03 X196.3047 Y50.2401 I7523.1752 J-5098.1822
G02 X175.3942 Y19.7549 I-1369.8379 J917.1891
G02 X165.7630 Y6.7641 I-249.1940 J174.6829
G02 X161.7027 Y2.1350 I-41.5562 J32.3550
G01 X161.1316 Y1.6184
G01 X160.5169 Y1.1553
G01 X159.8089 Y0.8764
G01 X159.4633 Y1.4262
G01 X159.6171 Y2.1576
G02 X160.4718 Y4.2336 I16.8324 J-5.7161
G02 X164.8513 Y12.0787 I95.1434 J-47.9679
G01 X165.2384 Y12.7198
G02 X178.5561 Y33.5395 I619.7360 J-381.7554
G01 X178.9682 Y34.1649
G01 X179.3806 Y34.7901
G02 X208.0811 Y77.7185 I7964.3264 J-5293.6187
G03 X228.7031 Y109.1228 I-1417.3992 J953.2271
G03 X237.2098 Y123.1849 I-251.2095 J161.5694
G03 X239.6491 Y128.0876 I-41.0373 J23.4763
G01 X239.9182 Y128.8224
G01 X240.1133 Y129.5797
G01 X240.0202 Y130.3325
G01 X239.2967 Y130.2519
G01 X238.6656 Y129.7888
G03 X237.0076 Y128.1239 I13.6294 J-15.2300
G03 X231.1559 Y120.7644 I86.8255 J-75.0427
G01 X230.6888 Y120.1350
G03 X216.2539 Y99.6261 I601.0628 J-438.3844
G01 X215.8115 Y98.9792
G03 X187.0197 Y56.2552 I6332.6690 J-4298.6650
G02 X163.9009 Y22.4139 I-1722.7375 J1152.0747
G02 X153.2544 Y7.8608 I-314.2272 J218.7065
G02 X148.4678 Y2.2530 I-50.4381 J38.2047
G01 X147.8687 Y1.6937
G01 X147.2247 Y1.1874
G01 X146.4789 Y0.8731
G01 X146.1607 Y1.4833
G01 X146.3503 Y2.2571
G02 X147.2932 Y4.4559 I19.4857 J-7.0538
G02 X152.0037 Y12.7903 I108.4763 J-55.8112
G01 X152.4183 Y13.4722
G02 X166.6377 Y35.6367 I703.2902 J-435.5451
G01 X167.0771 Y36.3029
G02 X196.6328 Y80.5150 I7868.5931 J-5228.1619
G03 X219.3602 Y115.0258 I-1701.6995 J1145.4063
G03 X228.8311 Y130.5438 I-289.1061 J187.0960
G03 X231.4494 Y135.6994 I-46.0018 J26.6048
G01 X231.7446 Y136.4712
G01 X231.9650 Y137.2670
G01 X231.8607 Y138.0524
G01 X231.0925 Y137.8903
G03 X229.2546 Y136.2074 I7.7867 J-10.3484
G01 X228.6958 Y135.5904
G03 X222.5143 Y127.7459 I98.5420 J-84.0097
G01 X222.0198 Y127.0761
G03 X206.7131 Y105.2737 I673.1952 J-488.8996
G01 X206.2435 Y104.5863
G03 X175.7348 Y59.2986 I7108.3735 J-4821.5793
G02 X151.4037 Y23.6464 I-1915.6277 J1281.2022
G02 X140.2250 Y8.2946 I-350.1159 J243.1998
G02 X135.2207 Y2.3567 I-56.2865 J42.3584
G01 X134.5970 Y1.7600
G01 X133.9274 Y1.2158
G01 X133.1490 Y0.8699
G01 X132.8555 Y1.5318
G01 X133.0755 Y2.3430
G02 X134.0954 Y4.6509 I21.9566 J-8.3243
G02 X139.0996 Y13.4201 I120.9177 J-63.1904
G02 X153.6328 Y36.0916 I717.1176 J-443.7019
G02 X184.2842 Y81.9700 I6710.9156 J-4450.3835
G03 X209.3684 Y119.9489 I-2137.4104 J1438.9859
G03 X219.9423 Y137.0781 I-366.3944 J238.0053
G03 X223.1825 Y143.2819 I-59.5476 J35.0484
G01 X223.5060 Y144.0951
G01 X223.7576 Y144.9328
G01 X223.7035 Y145.7779
G01 X222.8670 Y145.5469
G03 X220.8711 Y143.5888 I11.0060 J-13.2153
G01 X220.2583 Y142.8846
G03 X213.4118 Y134.0211 I131.0078 J-108.2732
G03 X196.2746 Y109.5550 I814.7244 J-588.9053
G01 X195.7482 Y108.7841
G03 X163.4309 Y60.8204 I7317.1490 J-4965.0448
G02 X141.2552 Y28.2144 I-2041.1284 J1364.3496
G02 X133.3967 Y17.3718 I-231.9146 J159.8198
G02 X130.9580 Y14.5684 I-18.4844 J13.6170
G01 X130.3835 Y14.4590
G01 X130.5220 Y15.1859
G01 X130.7736 Y15.8859
G02 X133.4938 Y21.6223 I69.5702 J-29.4767
G02 X143.2566 Y38.8560 I270.3528 J-141.7704
G01 X143.7448 Y39.6633
G02 X162.9966 Y69.9004 I872.1447 J-534.0443
G02 X189.2773 Y109.3024 I5616.2835 J-3717.5211
G03 X206.8098 Y136.0539 I-1049.4273 J706.8997
G03 X213.6763 Y147.5976 I-175.3198 J112.0995
G03 X215.8218 Y152.2377 I-29.3968 J16.4082
G01 X215.9973 Y152.8527
G01 X216.0920 Y153.4843
G01 X215.9369 Y154.0892
G01 X215.3615 Y154.1473
G01 X214.8249 Y153.8451
G03 X213.0181 Y152.1677 I8.1498 J-10.5906
G03 X207.9568 Y145.9436 I66.2147 J-59.0145
G01 X207.5857 Y145.4503
G03 X195.1150 Y127.8077 I439.9169 J-324.1843
G03 X172.3105 Y93.9381 I5312.2758 J-3601.3731
G02 X156.5418 Y71.0380 I-813.4399 J543.2452
G02 X149.9980 Y62.4728 I-117.4374 J82.9396
G02 X148.0461 Y60.4166 I-15.9609 J13.1974
G01 X147.6033 Y60.0622
G01 X147.1058 Y59.7939
G01 X146.6422 Y59.9885
G01 X146.5917 Y60.5496
G01 X146.6826 Y61.1710
G02 X147.7325 Y64.1273 I16.8610 J-4.3232
G01 X147.9919 Y64.6997
G02 X152.7956 Y73.5292 I97.7405 J-47.4541
G02 X164.8892 Y92.6486 I457.1266 J-275.7614
G01 X165.2341 Y93.1740
G02 X186.7729 Y125.4739 I5912.8043 J-3919.5494
G03 X201.0474 Y147.4756 I-682.6613 J458.5367
G03 X206.7401 Y157.3529 I-125.7028 J79.0263
G03 X208.3099 Y161.0171 I-20.7783 J11.0702
G01 X208.4472 Y161.5703
G01 X208.5069 Y162.1363
G01 X208.3510 Y162.6732
G01 X207.8485 Y162.7954
G01 X207.3515 Y162.5715
G03 X205.6967 Y161.1464 I5.5797 J-8.1521
G01 X205.3188 Y160.7507
G03 X200.4796 Y154.8156 I62.8334 J-56.1714
G01 X200.1505 Y154.3784
G03 X188.4756 Y137.8385 I397.1510 J-292.7244
G03 X167.6796 Y106.9291 I7846.0428 J-5301.3244
G02 X154.0998 Y87.3666 I-579.7293 J387.9405
G02 X148.2386 Y79.8607 I-92.4533 J66.1531
G02 X145.9814 Y77.6345 I-11.9198 J9.8283
G01 X145.5363 Y77.3492
G01 X145.0325 Y77.2100
G01 X144.6677 Y77.5450
G01 X144.6173 Y78.0993
G01 X144.6972 Y78.6528
G02 X145.6358 Y81.2843 I14.9070 J-3.8340
G02 X149.3062 Y88.2038 I74.4319 J-35.0492
G01 X149.5886 Y88.6871
G02 X160.3277 Y105.7346 I378.1124 J-226.2844
G02 X180.3875 Y135.8414 I4776.6705 J-3160.9143
G03 X194.1619 Y157.1075 I-632.8202 J424.9790
G03 X199.6508 Y166.6563 I-124.6797 J78.0222
G03 X201.3786 Y170.7037 I-22.7631 J12.1100
G01 X201.5078 Y171.2390
G01 X201.5708 Y171.7856
G01 X201.4761 Y172.3231
G01 X201.0561 Y172.5735
G01 X200.5649 Y172.4083
G03 X198.9617 Y171.0790 I4.3724 J-6.9047
G01 X198.5987 Y170.7036
G03 X194.2847 Y165.4647 I53.3583 J-48.3328
G03 X183.3952 Y150.1402 I326.7082 J-243.6907
G01 X183.1004 Y149.7091
G03 X162.9882 Y119.8147 I5686.5805 J-3847.4960
G02 X149.3070 Y100.0805 I-580.9850 J388.1728
G02 X143.1998 Y92.2689 I-93.9340 J67.1454
G02 X140.9652 Y90.0809 I-11.8476 J9.8653
G01 X140.5275 Y89.7973
G01 X140.0358 Y89.6346
G01 X139.6197 Y89.8908
G01 X139.5290 Y90.4309
G01 X139.5946 Y90.9789
G02 X140.5101 Y93.5803 I13.9703 J-3.4544
G02 X144.1366 Y100.4101 I72.9963 J-34.3822
G01 X144.4156 Y100.8871
G02 X154.7201 Y117.2523 I373.0387 J-223.4597
G02 X174.7938 Y147.3954 I4452.7290 J-2943.5219
G03 X189.2503 Y169.7298 I-652.1526 J437.9662
G03 X194.8808 Y179.5489 I-128.3446 J80.1207
G03 X196.6675 Y183.7045 I-24.8893 J13.1628
G01 X196.8106 Y184.2520
G01 X196.8990 Y184.8108
G01 X196.8720 Y185.3739
G01 X196.5591 Y185.7616
G01 X196.0529 Y185.6572
G03 X194.4322 Y184.3247 I3.8532 J-6.3386
G01 X194.0678 Y183.9446
G03 X189.7385 Y178.6451 I55.1761 J-49.4929
G03 X179.3774 Y164.0449 I336.7438 J-249.9484
G03 X158.9126 Y133.6235 I4395.2048 J-2978.7911
G02 X144.4775 Y112.6984 I-688.9891 J459.8581
G02 X137.8883 Y104.1223 I-117.6300 J83.5575
G02 X135.2377 Y101.4264 I-15.7679 J12.8522
G01 X134.7911 Y101.1218
G01 X134.2903 Y100.9264
G01 X133.8377 Y101.1468
G01 X133.8436 Y102.7058
G01 X134.3431 Y104.2139
G01 X134.9787 Y105.6710
G02 X138.7969 Y112.6401 I82.0502 J-40.4221
G02 X148.1690 Y127.4044 I381.0072 J-231.5000
G02 X169.3303 Y159.1567 I7607.2774 J-5046.9431
G01 X170.2107 Y160.4806
G03 X200.3325 Y207.2665 I-1329.0989 J888.7931
G03 X221.2131 Y242.9591 I-684.6158 J424.4628
G03 X223.7640 Y247.9184 I-83.3420 J46.0047
G01 X224.0818 Y248.6490
G01 X224.3102 Y249.4094
G01 X223.7427 Y249.1500
G03 X221.2657 Y246.0321 I33.2678 J-28.9716
G03 X211.6859 Y232.3135 I431.7840 J-311.7240
G01 X211.2377 Y231.6548
G03 X180.7705 Y186.2130 I7272.7079 J-4909.0430
G01 X180.1922 Y185.3487
G01 X179.6139 Y184.4844
G01 X179.0355 Y183.6202
G02 X148.6970 Y138.8579 I-2911.5476 J1940.7011
G02 X135.3946 Y120.2462 I-522.2302 J359.1941
G02 X130.1913 Y113.7581 I-84.3815 J62.3412
G01 X129.4769 Y113.0025
G01 X128.7094 Y112.3017
G01 X127.8131 Y112.0452
G01 X127.8703 Y113.0315
G02 X129.4883 Y116.7173 I22.5538 J-7.7029
G02 X135.0152 Y126.3241 I158.8355 J-84.9871
G02 X150.7334 Y150.9603 I840.5287 J-518.9346
G01 X151.2855 Y151.8033
G02 X185.6447 Y203.4812 I6728.6330 J-4436.4135
G01 X186.2507 Y204.3889
G01 X186.8566 Y205.2967
G01 X187.4625 Y206.2045
G01 X188.0683 Y207.1123
G01 X188.6740 Y208.0202
G01 X189.2797 Y208.9282
G01 X189.8852 Y209.8362
G01 X190.4907 Y210.7442
G03 X220.4868 Y256.3306 I-2763.8770 J1851.3072
G03 X233.7189 Y277.6604 I-544.0746 J352.2911
G03 X238.4018 Y286.2917 I-100.9713 J60.3674
G01 X238.8500 Y287.2867
G01 X239.2551 Y288.3000
G01 X239.5716 Y289.3437
G01 X239.3959 Y290.1884
G01 X238.5718 Y289.6541
G01 X237.8687 Y288.9520
G01 X237.2050 Y288.2124
G03 X231.7235 Y281.1469 I100.4617 J-83.5982
G01 X231.1371 Y280.3444
G03 X215.2265 Y257.5152 I788.6911 J-566.6307
G01 X214.6675 Y256.6935
G03 X178.9549 Y203.4423 I7300.5900 J-4934.7005
G01 X178.3622 Y202.5552
G01 X177.7695 Y201.6680
G01 X177.1767 Y200.7809
G01 X176.5838 Y199.8939
G01 X175.9909 Y199.0068
G01 X175.3979 Y198.1199
G01 X174.8048 Y197.2329
G01 X174.2117 Y196.3460
G01 X173.6185 Y195.4592
G01 X173.0252 Y194.5724
G01 X172.4318 Y193.6857
G02 X141.9041 Y148.6423 I-2876.8150 J1916.8628
G02 X128.8567 Y130.4290 I-486.8749 J335.0007
G02 X124.1707 Y124.6160 I-74.5977 J55.3409
G01 X123.4385 Y123.8400
G01 X122.6514 Y123.1207
G01 X121.7325 Y122.8640
G01 X121.8421 Y123.9504
G02 X123.7042 Y127.9917 I27.5978 J-10.2661
G02 X129.3009 Y137.6180 I187.5367 J-102.5950
G02 X146.0848 Y163.8967 I939.1429 J-581.3197
G01 X146.6949 Y164.8284
G02 X183.8086 Y220.6924 I7203.9678 J-4745.7524
G01 X184.4614 Y221.6706
G01 X185.1141 Y222.6489
G01 X185.7669 Y223.6271
G01 X186.4195 Y224.6054
G01 X187.0721 Y225.5838
G01 X187.7247 Y226.5621
G01 X188.3772 Y227.5406
G01 X189.0296 Y228.5190
G01 X189.6819 Y229.4975
G01 X190.3342 Y230.4761
G01 X190.9863 Y231.4547
G01 X191.6384 Y232.4334
G01 X192.2904 Y233.4122
G01 X192.9423 Y234.3910
G03 X224.6003 Y282.5406 I-3070.9642 J2053.6179
G03 X238.2580 Y304.5129 I-578.0856 J374.5614
G03 X242.7772 Y312.7619 I-108.3955 J64.7477
G01 X243.2689 Y313.8302
G01 X243.7090 Y314.9205
G01 X244.0198 Y316.0527
G01 X243.4479 Y316.4648
G01 X242.6221 Y315.7497
G01 X241.8742 Y314.9514
G01 X241.1588 Y314.1237
G03 X235.1770 Y306.3048 I127.5140 J-103.7516
G01 X234.5346 Y305.4192
G03 X217.6767 Y281.1638 I922.9973 J-659.4857
G03 X180.4521 Y225.6480 I7226.3608 J-4885.6649
G01 X179.8159 Y224.6947
G01 X179.1797 Y223.7415
G01 X178.5435 Y222.7883
G01 X177.9072 Y221.8351
G01 X177.2708 Y220.8820
G01 X176.6345 Y219.9288
G01 X175.9981 Y218.9757
G01 X175.3616 Y218.0227
G01 X174.7250 Y217.0697
G01 X174.0884 Y216.1167
G01 X173.4518 Y215.1638
G01 X172.8151 Y214.2109
G01 X172.1783 Y213.2581
G01 X171.5414 Y212.3053
G01 X170.9044 Y211.3525
G01 X170.2674 Y210.3999
G01 X169.6302 Y209.4473
G01 X168.9930 Y208.4947
G01 X168.3556 Y207.5422
G02 X136.8603 Y161.0505 I-3101.1765 J2066.9474
G02 X123.5505 Y142.3915 I-553.8974 J381.0290
G02 X118.5605 Y136.1124 I-86.9791 J63.9998
G01 X117.7849 Y135.2688
G01 X116.9537 Y134.4805
G01 X115.9905 Y134.1927
G01 X116.1626 Y135.3607
G02 X118.2179 Y139.6889 I32.2336 J-12.6548
G02 X124.2862 Y150.0281 I216.9140 J-120.3598
G02 X142.3890 Y178.2995 I1084.5605 J-674.5358
G01 X143.0462 Y179.3024
G02 X182.2633 Y238.3507 I8269.2226 J-5449.4929
G01 X182.9554 Y239.3883
G01 X183.6475 Y240.4260
G01 X184.3395 Y241.4638
G01 X185.0315 Y242.5015
G01 X185.7234 Y243.5393
G01 X186.4153 Y244.5771
G01 X187.1071 Y245.6150
G01 X187.7988 Y246.6529
G01 X188.4905 Y247.6909
G01 X189.1820 Y248.7289
G01 X189.8735 Y249.7670
G01 X190.5650 Y250.8051
G01 X191.2563 Y251.8433
G01 X191.9475 Y252.8816
G01 X192.6386 Y253.9199
G01 X193.3297 Y254.9583
G01 X194.0206 Y255.9967
G01 X194.7114 Y257.0353
G03 X226.8982 Y306.0314 I-3271.4957 J2184.2031
G03 X240.7557 Y328.2574 I-647.0286 J418.8431
G03 X245.5957 Y336.9808 I-120.9292 J72.7985
G01 X246.1260 Y338.1097
G01 X246.6015 Y339.2626
G01 X246.9244 Y340.4642
G01 X246.1986 Y340.6623
G01 X245.3420 Y339.8649
G01 X244.5543 Y338.9981
G01 X243.7972 Y338.1044
G03 X237.4300 Y329.7046 I148.6366 J-119.2813
G01 X236.7446 Y328.7547
G03 X218.7321 Y302.7608 I1049.7599 J-746.6747
G03 X178.9216 Y243.3314 I8243.6024 J-5565.2590
G01 X178.2493 Y242.3234
G01 X177.5769 Y241.3154
G01 X176.9045 Y240.3074
G01 X176.2321 Y239.2994
G01 X175.5596 Y238.2915
G01 X174.8870 Y237.2836
G01 X174.2145 Y236.2757
G01 X173.5418 Y235.2679
G01 X172.8691 Y234.2601
G01 X172.1964 Y233.2524
G01 X171.5236 Y232.2447
G01 X170.8507 Y231.2370
G01 X170.1777 Y230.2294
G01 X169.5046 Y229.2218
G01 X168.8315 Y228.2143
G01 X168.1583 Y227.2069
G01 X167.4850 Y226.1995
G01 X166.8116 Y225.1922
G01 X166.1381 Y224.1850
G01 X165.4645 Y223.1778
G01 X164.7907 Y222.1707
G02 X132.1811 Y174.0127 I-3307.3625 J2204.4255
G02 X118.1130 Y154.2824 I-568.0313 J390.1376
G02 X113.5975 Y148.5864 I-83.0365 J61.1884
G01 X112.7860 Y147.6868
G01 X111.9185 Y146.8416
G01 X110.9233 Y146.5344
G01 X111.1301 Y147.7285
G02 X113.2502 Y152.1499 I34.2484 J-13.7034
G02 X119.4690 Y162.7246 I227.7097 J-126.7959
G02 X137.9928 Y191.6551 I1130.4977 J-703.4450
G02 X177.3054 Y250.9009 I7883.7728 J-5188.6160
G01 X177.9534 Y251.8729
G01 X178.6015 Y252.8449
G01 X179.2495 Y253.8170
G01 X179.8974 Y254.7890
G01 X180.5454 Y255.7611
G01 X181.1932 Y256.7332
G01 X181.8411 Y257.7053
G01 X182.4889 Y258.6775
G01 X183.1366 Y259.6497
G01 X183.7843 Y260.6219
G01 X184.4320 Y261.5942
G01 X185.0795 Y262.5665
G01 X185.7270 Y263.5389
G01 X186.3744 Y264.5113
G01 X187.0218 Y265.4838
G01 X187.6691 Y266.4563
G01 X188.3162 Y267.4289
G01 X188.9633 Y268.4015
G01 X189.6103 Y269.3742
G01 X190.2572 Y270.3470
G01 X190.9040 Y271.3198
G03 X221.6891 Y318.1878 I-3199.7393 J2135.2798
G03 X234.0492 Y338.0138 I-582.1090 J376.6692
G03 X238.0126 Y345.1646 I-95.2028 J57.4417
G01 X238.5048 Y346.2240
G01 X238.9242 Y347.3137
G01 X238.8292 Y348.3378
G01 X237.8297 Y347.7447
G03 X234.6659 Y344.2437 I23.4149 J-24.3399
G03 X227.5526 Y334.8203 I189.3873 J-150.3562
G03 X208.6851 Y307.6708 I1007.0609 J-719.9866
G01 X208.0217 Y306.6940
G03 X168.7628 Y248.0835 I7814.2831 J-5276.6821
G01 X168.1499 Y247.1645
G01 X167.5369 Y246.2455
G01 X166.9240 Y245.3266
G01 X166.3110 Y244.4077
G01 X165.6979 Y243.4888
G01 X165.0848 Y242.5699
G01 X164.4717 Y241.6511
G01 X163.8585 Y240.7323
G01 X163.2452 Y239.8135
G01 X162.6319 Y238.8948
G01 X162.0185 Y237.9761
G01 X161.4050 Y237.0575
G01 X160.7915 Y236.1390
G01 X160.1778 Y235.2204
G01 X159.5641 Y234.3020
G01 X158.9503 Y233.3836
G01 X158.3364 Y232.4653
G02 X127.3759 Y186.7281 I-2949.4808 J1963.2207
G02 X114.5225 Y168.7612 I-482.6729 J331.7205
G02 X110.3731 Y163.5950 I-67.3939 J49.8805
G01 X109.6203 Y162.7868
G01 X108.8044 Y162.0435
G01 X107.9922 Y162.0749
G01 X108.2271 Y163.1905
G02 X110.1604 Y167.3411 I31.5198 J-12.1557
G02 X117.0993 Y179.2076 I210.1284 J-114.9116
G02 X135.0127 Y207.1893 I1103.9506 J-687.0008
G02 X172.7506 Y264.0622 I7729.9078 J-5088.2220
G01 X173.3409 Y264.9480
G01 X173.9310 Y265.8339
G01 X174.5211 Y266.7198
G01 X175.1112 Y267.6057
G01 X175.7012 Y268.4916
G01 X176.2912 Y269.3776
G01 X176.8811 Y270.2637
G01 X177.4709 Y271.1497
G01 X178.0607 Y272.0358
G01 X178.6504 Y272.9220
G01 X179.2400 Y273.8082
G01 X179.8296 Y274.6945
G01 X180.4190 Y275.5808
G03 X209.6355 Y320.0658 I-2856.4524 J1907.8727
G03 X221.4202 Y339.0585 I-493.3943 J319.2989
G03 X224.9780 Y345.6029 I-78.3171 J46.8150
G01 X225.4104 Y346.5754
G01 X225.7665 Y347.5778
G01 X225.6026 Y348.4901
G01 X224.6761 Y347.9698
G03 X221.7454 Y344.8069 I19.5735 J-21.0755
G03 X213.9279 Y334.4852 I171.9034 J-138.3190
G03 X194.8603 Y306.9980 I1023.8962 J-730.6233
G01 X194.2548 Y306.1047
G03 X158.5050 Y252.6892 I8261.7391 J-5568.0534
G01 X158.0390 Y251.9906
G01 X157.5730 Y251.2920
G01 X157.1069 Y250.5935
G01 X156.6407 Y249.8950
G01 X156.1746 Y249.1966
G01 X155.7083 Y248.4981
G02 X131.2710 Y212.3102 I-2463.4473 J1637.1935
G02 X122.4728 Y200.0208 I-286.7467 J195.9927
G02 X119.7638 Y196.8183 I-23.1397 J16.8272
G01 X119.1342 Y196.6672
G01 X119.3171 Y197.4828
G01 X119.6156 Y198.2676
G02 X122.3414 Y203.9265 I79.7226 J-34.9149
G02 X132.1131 Y221.1430 I291.3637 J-153.9903
G02 X152.1437 Y252.8604 I937.0788 J-569.6124
G01 X152.7127 Y253.7334
G01 X153.2822 Y254.6061
G02 X182.5870 Y298.8447 I5759.4996 J-3783.4131
G03 X202.2124 Y328.8366 I-1480.8722 J990.4367
G03 X210.0458 Y341.8186 I-226.2114 J145.3506
G03 X212.1972 Y346.1349 I-39.2274 J22.2465
G01 X212.4442 Y346.7783
G01 X212.6455 Y347.4372
G01 X212.7341 Y348.1185
G01 X212.3336 Y348.5786
G01 X211.6958 Y348.3582
G01 X211.1364 Y347.9687
G03 X208.7273 Y345.5595 I14.7335 J-17.1422
G03 X202.8126 Y338.0641 I96.7978 J-82.4665
G03 X189.4985 Y319.0731 I511.9800 J-373.0983
G03 X165.7534 Y283.5768 I5125.9050 J-3454.6282
G02 X148.8516 Y258.7693 I-993.7492 J658.9009
G02 X141.6707 Y249.1483 I-154.7794 J108.0336
G02 X139.2543 Y246.4800 I-20.9302 J16.5263
G01 X138.7992 Y246.0887
G01 X138.2971 Y245.7616
G01 X137.7436 Y245.7781
G01 X137.6224 Y246.3547
G01 X137.7028 Y246.9942
G02 X138.7812 Y250.0288 I16.6971 J-4.2250
G01 X139.0489 Y250.6159
G02 X143.6585 Y259.1228 I100.8877 J-49.1644
G02 X155.6607 Y278.2516 I463.8446 J-277.7069
G01 X156.0129 Y278.7923
G02 X177.7397 Y311.5985 I4891.2410 J-3215.7574
G03 X192.2568 Y334.0323 I-769.3862 J513.7906
G03 X197.8351 Y343.6652 I-129.6720 J81.5228
G03 X199.3693 Y347.2412 I-18.5163 J10.0615
G01 X199.4840 Y347.7855
G01 X199.4633 Y348.3376
G01 X199.0424 Y348.6336
G01 X198.5013 Y348.4873
G01 X198.0149 Y348.2011
G03 X195.9313 Y346.3011 I9.2891 J-12.2794
G01 X195.5476 Y345.8865
G03 X190.2353 Y339.2881 I73.6804 J-64.7580
G03 X178.2115 Y322.1920 I395.1217 J-290.6666
G03 X158.3618 Y292.5049 I6243.3982 J-4196.0122
G02 X145.2045 Y273.3950 I-571.8397 J379.6329
G02 X139.3255 Y265.8306 I-88.8875 J63.0155
G02 X137.5514 Y264.0412 I-13.1168 J11.2305
G01 X137.1512 Y263.7345
G01 X136.7131 Y263.4863
G01 X136.2240 Y263.4445
G01 X135.9590 Y263.8515
G01 X135.9316 Y264.3773
G01 X136.0039 Y264.9002
G02 X136.8475 Y267.3983 I14.1167 J-3.3761
G02 X140.2312 Y273.9694 I66.2365 J-29.9500
G01 X140.4934 Y274.4279
G02 X150.5283 Y290.5772 I326.4567 J-191.6617
G01 X150.8161 Y291.0202
G02 X168.9345 Y318.4012 I4061.9347 J-2668.1587
G03 X180.7578 Y336.8190 I-503.7517 J336.3863
G03 X185.0781 Y344.5371 I-84.7519 J52.5098
G03 X186.2258 Y347.5793 I-11.9078 J6.2299
G01 X186.2671 Y348.0424
G01 X186.1450 Y348.4845
G01 X185.7348 Y348.6641
G01 X185.2711 Y348.5658
G01 X184.8439 Y348.3557
G03 X183.0092 Y346.8434 I6.0733 J-9.2374
G01 X182.6737 Y346.5049
G03 X177.7940 Y340.6497 I51.1466 J-47.5867
G03 X167.5906 Y326.2682 I284.9551 J-212.9795
G01 X167.3226 Y325.8741
G03 X150.6601 Y300.9629 I5813.6016 J-3906.6202
G02 X139.7830 Y285.3157 I-373.7702 J248.2207
G02 X134.9962 Y279.3880 I-56.3429 J40.6024
G02 X133.4359 Y277.9610 I-8.2800 J7.4863
G01 X133.0777 Y277.7354
G01 X132.6851 Y277.5802
G01 X132.2751 Y277.6276
G01 X132.0361 Y277.9669
G01 X131.9771 Y278.7852
G02 X132.6444 Y281.1652 I10.5599 J-1.6770
G02 X135.5754 Y287.0849 I48.9972 J-20.5744
G02 X143.3328 Y299.7722 I228.1250 J-130.7676
G02 X158.3572 Y322.5267 I1976.1975 J-1288.5150
G03 X168.5992 Y338.5335 I-371.4353 J248.9426
G03 X172.1492 Y345.0639 I-59.7264 J36.6983
G03 X172.9801 Y347.3942 I-9.6974 J4.7711
G01 X173.0100 Y348.2143
G01 X172.4134 Y348.6738
G01 X172.0217 Y348.6111
G01 X171.6518 Y348.4650
G03 X169.7519 Y347.0310 I4.6354 J-8.1171
G03 X165.8003 Y342.5597 I32.5301 J-32.7308
G03 X157.3948 Y330.9541 I176.2155 J-136.4720
G03 X143.6446 Y310.4370 I2203.7996 J-1491.8219
G02 X134.2663 Y296.9820 I-283.4777 J187.5901
G02 X130.0388 Y291.8797 I-42.6236 J31.0134
G02 X128.4219 Y290.5600 I-5.2462 J4.7773
G01 X128.1019 Y290.4218
G02 X127.2524 Y290.7963 I-0.2630 J0.5543
G01 X127.1403 Y291.4571
G02 X127.5372 Y293.4320 I7.2882 J-0.4376
G02 X129.7669 Y298.3364 I32.5087 J-11.8202
G02 X135.9884 Y308.7519 I149.6546 J-82.3262
G02 X148.2250 Y327.3317 I1231.0537 J-797.4495
G03 X156.5299 Y340.4238 I-246.2541 J165.3901
G03 X159.3023 Y345.8153 I-37.6123 J22.7492
G03 X159.8187 Y347.7617 I-5.3938 J2.4729
G01 X159.6743 Y348.4087
G01 X159.0816 Y348.6678
G01 X158.4926 Y348.5545
G03 X156.9580 Y347.6139 I2.3863 J-5.6151
G03 X153.6073 Y344.1562 I17.8818 J-20.6812
G01 X153.2218 Y343.6929
G03 X146.7625 Y334.9805 I114.0158 J-91.2805
G03 X135.6664 Y318.4749 I1089.6143 J-744.4990
G02 X128.0460 Y307.6267 I-185.4462 J122.1652
G02 X124.4922 Y303.5368 I-27.0861 J19.9473
G01 X124.0349 Y303.1444
G01 X123.5454 Y302.7934
G01 X123.0052 Y302.5296
G01 X122.4148 Y302.5171
G01 X122.0116 Y302.9448
G01 X121.8735 Y303.4551
G01 X121.8576 Y303.9849
G01 X121.9157 Y304.5121
G01 X122.0213 Y305.0321
G02 X123.5717 Y308.9760 I20.0930 J-5.6223
G01 X123.8084 Y309.4510
G02 X128.6126 Y317.7037 I97.9352 J-51.4870
G02 X138.2265 Y332.3415 I798.7382 J-514.1291
G03 X144.4124 Y342.2407 I-142.0999 J95.6782
G03 X146.4284 Y346.5617 I-20.8558 J12.3615
G01 X146.5604 Y347.0756
G01 X146.6303 Y347.6011
G01 X146.5723 Y348.1257
G01 X146.2513 Y348.5321
G01 X145.7387 Y348.6450
G03 X144.0207 Y347.9999 I0.2945 J-3.3943
G03 X141.2647 Y345.5165 I9.2708 J-13.0597
G01 X140.9526 Y345.1721
G03 X135.5628 Y338.1811 I62.8934 J-54.0621
G01 X135.2955 Y337.8008
G03 X126.7260 Y325.0782 I779.2225 J-534.1049
G02 X121.3064 Y317.5275 I-100.9037 J66.7049
G02 X118.7745 Y314.8114 I-16.1702 J12.5357
G02 X117.5895 Y314.0926 I-2.3514 J2.5401
G01 X117.1308 Y314.0418
G01 X116.7141 Y314.2308
G02 X116.2372 Y315.3606 I1.4277 J1.2682
G01 X116.2208 Y315.7539
G01 X116.2436 Y316.1471
G01 X116.2965 Y316.5373
G02 X117.4349 Y319.8849 I14.5513 J-3.0812
G02 X121.0721 Y326.4206 I56.5127 J-27.1703
G02 X128.1895 Y337.2977 I505.6927 J-323.1302
G03 X132.2731 Y344.0314 I-70.6994 J47.4808
G03 X133.4384 Y346.9496 I-11.0461 J6.1024
G01 X133.4940 Y347.3393
G01 X133.4901 Y347.7325
G03 X132.7670 Y348.5548 I-0.8677 J-0.0340
G03 X131.0964 Y348.2852 I-0.3831 J-2.9366
G03 X128.6895 Y346.5500 I4.2384 J-8.4162
G03 X124.8333 Y342.0126 I26.1872 J-26.1633
G03 X118.8523 Y333.2641 I192.2239 J-137.8342
G02 X114.7847 Y327.6258 I-59.7786 J38.8393
G02 X112.6361 Y325.5764 I-7.8422 J6.0705
G01 X112.3446 Y325.4196
G02 X111.0984 Y325.4864 I-0.5740 J0.9491
G01 X110.8739 Y325.7288
G02 X110.3854 Y327.2721 I2.5001 J1.6402
G01 X110.3805 Y327.5340
G02 X110.7549 Y329.5885 I7.2615 J-0.2622
G02 X112.7486 Y333.8522 I22.2436 J-7.8029
G02 X117.2704 Y340.9093 I123.4871 J-74.1464
G03 X119.8262 Y345.1768 I-34.7147 J23.6895
G03 X120.4850 Y347.1549 I-5.5176 J2.9365
G01 X120.4898 Y347.4166
G03 X119.4919 Y348.4401 I-1.0678 J-0.0429
G03 X116.8408 Y347.8981 I-0.4699 J-4.4568
G03 X113.9179 Y345.4316 I5.4458 J-9.4189
G03 X110.4648 Y340.6906 I35.1657 J-29.2404
G02 X107.9774 Y337.2481 I-28.1425 J17.7143
G02 X106.5487 Y336.1500 I-2.8555 J2.2368
G02 X105.2787 Y336.5483 I-0.3486 J1.1122
G02 X104.2729 Y339.3369 I3.4265 J2.8116
G01 X104.2736 Y339.4754
G02 X104.5182 Y340.9735 I5.7284 J-0.1664
G02 X106.2754 Y344.4119 I12.6810 J-4.3123
G03 X107.6447 Y346.6536 I-14.8084 J10.5844
G03 X107.7748 Y347.0473 I-1.9051 J0.8479
G03 X107.1978 Y347.9923 I-0.7041 J0.2188
G03 X106.5190 Y348.1185 I-0.9152 J-3.0345
G03 X101.8586 Y347.6149 I-0.6697 J-15.6204
G03 X100.3220 Y346.7269 I0.7288 J-3.0345
G03 X100.0651 Y346.0877 I0.8678 J-0.7200
G01 X100.0634 Y345.9877
G03 X100.2527 Y345.3786 I1.2174 J0.0444
G00 Z5.0000


(No. 8: Engraving 27)
G00 X96.1503 Y350.2916 Z5.0000
G00 Z0.5000
G01 Z-0.0100 F1200
G02 X120.0928 Y304.9760 I-453.3084 J-268.4878
G02 X130.5178 Y279.7849 I-268.6869 J-125.9449
G02 X135.7086 Y261.9941 I-135.6819 J-49.2404
G02 X136.6810 Y256.6279 I-80.0869 J-17.2840
G02 X135.2644 Y234.2398 I-52.1079 J-7.9418
G02 X129.7729 Y220.1817 I-77.9212 J22.3367
G02 X122.5428 Y206.9120 I-201.3203 J101.0868
G03 X115.1802 Y193.7137 I276.1730 J-162.7133
G03 X109.8742 Y181.6115 I81.8888 J-43.1171
G03 X106.6825 Y165.9284 I52.6366 J-18.8785
G01 X106.6432 Y164.9846
G01 X106.6217 Y164.0402
G01 X106.6180 Y163.0956
G03 X108.5780 Y149.5459 I52.7917 J0.7199
G01 X108.8644 Y148.5198
G01 X109.1663 Y147.4980
G03 X114.6583 Y133.6447 I97.4215 J30.6062
G03 X123.1883 Y117.6721 I213.2139 J103.6010
G03 X126.9393 Y111.2260 I850.0042 J490.3042
G02 X135.9054 Y95.4900 I-399.7882 J-238.2139
G02 X141.8665 Y82.9952 I-113.9380 J-62.0279
G02 X145.5354 Y70.7720 I-56.8182 J-23.7164
G02 X146.1307 Y63.0167 I-37.1403 J-6.7514
G02 X144.1116 Y48.4948 I-68.5176 J2.1250
G02 X137.7744 Y29.9863 I-112.5356 J28.1924
G02 X121.1454 Y0.0732 I-166.0368 J72.7233
G00 Z5.0000


(No. 9: Engraving 29)
G00 X234.8406 Y1.6848 Z5.0000
G00 Z0.5000
G01 Z-0.0100 F1200
G03 X253.2585 Y43.2829 I-294.3707 J155.2113
G03 X260.1858 Y66.5410 I-191.3031 J69.6390
G03 X262.8175 Y83.5213 I-108.7735 J25.5526
G03 X262.7811 Y93.6287 I-63.9228 J4.8234
G03 X258.7502 Y108.2282 I-40.0205 J-3.1934
G03 X254.8409 Y115.0077 I-51.3508 J-25.0936
G03 X245.7488 Y126.3422 I-77.8575 J-53.1402
G03 X233.0132 Y138.9174 I-174.1674 J-163.6532
G03 X229.7302 Y141.9591 I-756.6610 J-813.3851
G02 X216.7375 Y154.2726 I289.7761 J318.7720
G02 X207.0683 Y165.1255 I79.3368 J80.4167
G02 X201.1098 Y174.5733 I42.9105 J33.6655
G01 X200.6351 Y175.5864
G01 X200.1888 Y176.6124
G02 X197.6133 Y188.8568 I29.3150 J12.5592
G01 X197.5988 Y189.6973
G01 X197.6001 Y190.5379
G02 X201.6817 Y208.4359 I43.7568 J-0.5644
G02 X208.5133 Y219.9983 I63.5317 J-29.7378
G02 X216.7511 Y230.6283 I177.3065 J-128.8984
G03 X225.0150 Y241.2384 I-186.5677 J153.8361
G03 X229.6279 Y248.2626 I-71.1034 J51.7214
G03 X235.6309 Y262.3071 I-48.8544 J29.1869
G03 X238.0686 Y271.9330 I-155.4739 J44.4930
G03 X242.5718 Y296.8034 I-360.7944 J78.1712
G01 X242.7053 Y297.6964
G01 X242.8375 Y298.5895
G03 X248.5485 Y348.8181 I-849.0205 J121.9736
G00 Z5.0000


(No. 10: Engraving 30)
G00 X0.0000 Y349.5493 Z5.0000
G00 Z0.5000
G01 Z-0.0100 F1200
G01 X349.5493
G01 Y0.0000
G01 X0.0000
G01 Y349.5493
G1 Y0
