(Project SpiralsTight)
(Created by Estlcam version 10 build 10.041)
(Machining time about 00:20:22 hours)

(Required tools:)
(Pen)
G21
G90
G94
M03 S24000
G00 Z5.0000


(No. 1: Engraving 24)
G00 X10.8301 Y2.2332
G00 Z0.5000
G01 Z-0.0100 F1200 S24000
G02 X5.0716 Y6.2016 I6.1145 J15.0346
G02 X4.8172 Y6.4994 I8.2397 J7.2983
G02 X2.8515 Y11.5044 I6.0093 J5.2486
G01 X2.8502 Y11.6350
G01 X2.8523 Y11.7368
G02 X2.9158 Y12.3324 I2.9387 J-0.0120
G01 X2.9404 Y12.4293
G02 X3.9828 Y13.1280 I0.8459 J-0.1351
G02 X4.2762 Y13.0666 I-0.3027 J-2.1776
G02 X6.3897 Y11.9486 I-2.8771 J-7.9953
G02 X11.5920 Y8.0130 I-74.6409 J-104.0703
G03 X17.6191 Y3.9375 I29.7451 J37.4951
G03 X22.0098 Y2.3154 I6.9342 J12.0165
G03 X24.0096 Y2.3431 I0.9319 J4.9300
G01 X24.1373 Y2.3894
G03 X24.5387 Y3.0231 I-0.1564 J0.5430
G03 X23.9744 Y4.0938 I-2.5593 J-0.6647
G03 X21.4517 Y6.5625 I-15.9258 J-13.7514
G03 X13.6286 Y12.7766 I-171.1906 J-207.4832
G02 X6.4858 Y18.8293 I57.5073 J75.1059
G02 X3.6265 Y22.1565 I13.4294 J14.4329
G02 X2.8587 Y24.0936 I3.7147 J2.5930
G01 X2.8502 Y24.2845
G01 X2.8599 Y24.4727
G01 X2.8932 Y24.6581
G02 X3.5791 Y25.1958 I0.6721 J-0.1510
G01 X3.7675 Y25.1944
G01 X3.9547 Y25.1725
G02 X5.7095 Y24.5031 I-1.5808 J-6.7792
G02 X10.3027 Y21.5459 I-20.5219 J-36.9205
G01 X10.4558 Y21.4358
G02 X21.3216 Y13.1381 I-281.2517 J-379.5662
G03 X31.1585 Y5.9719 I103.9185 J132.3105
G03 X36.4570 Y2.9913 I20.6279 J30.4694
G03 X39.1313 Y2.2419 I3.6276 J7.7992
G03 X40.0642 Y2.3401 I0.2423 J2.1773
G01 X40.2556 Y2.4664
G01 X40.3686 Y2.6647
G03 X40.1289 Y3.5342 I-1.3095 J0.1068
G03 X38.6654 Y5.3121 I-9.3588 J-6.2122
G03 X33.3075 Y10.0484 I-50.9261 J-52.2114
G03 X19.6137 Y20.7946 I-536.8246 J-669.9695
G02 X8.7135 Y29.7089 I142.8802 J185.8342
G02 X4.1673 Y34.2816 I26.8578 J31.2483
G02 X2.9537 Y36.2776 I5.4868 J4.7027
G01 X2.8795 Y36.5613
G01 X2.8502 Y36.8528
G01 X2.8907 Y37.1372
G01 X3.0491 Y37.3736
G01 X3.3107 Y37.4880
G02 X4.4382 Y37.3047 I0.1789 J-2.4580
G02 X7.5087 Y35.7168 I-7.0143 J-17.3257
G02 X15.3296 Y30.2913 I-64.8250 J-101.7953
G01 X15.5614 Y30.1194
G02 X32.8111 Y16.8959 I-867.1392 J-1149.0165
G03 X45.9759 Y7.2045 I184.7450 J237.1719
G03 X52.3473 Y3.3270 I33.6480 J48.1159
G03 X55.3472 Y2.2560 I4.8916 J8.9647
G01 X55.7016 Y2.2332
G01 X56.0288 Y2.2616
G03 X56.4022 Y3.0035 I-0.0636 J0.4969
G03 X55.9095 Y3.8545 I-3.5800 J-1.5045
G03 X53.6762 Y6.2641 I-17.6023 J-14.0746
G03 X45.6812 Y13.1045 I-95.5468 J-103.5817
G01 X45.4252 Y13.3109
G03 X25.9037 Y28.5413 I-933.5723 J-1176.4749
G02 X11.0706 Y40.4235 I276.9559 J360.9369
G02 X4.9716 Y46.0699 I49.9747 J60.0976
G02 X3.2502 Y48.2363 I9.8004 J9.5544
G02 X2.8501 Y49.3412 I1.7933 J1.2742
G01 X2.9686 Y49.7029
G01 X3.3221 Y49.8446
G02 X4.8159 Y49.4393 I-0.2526 J-3.8870
G02 X8.8805 Y47.1275 I-14.4737 J-30.1758
G02 X19.3896 Y39.7007 I-117.0810 J-176.8220
G01 X19.7026 Y39.4679
G02 X42.9174 Y21.7050 I-1231.0330 J-1632.9293
G03 X59.7626 Y9.1337 I336.9051 J433.8702
G03 X67.8027 Y3.9019 I58.8055 J81.5774
G03 X71.1198 Y2.3827 I8.9175 J15.0899
G01 X71.5644 Y2.2781
G01 X72.0186 Y2.2332
G01 X72.4362 Y2.3089
G01 X72.6309 Y2.6598
G01 X72.5102 Y3.0679
G03 X71.7862 Y4.1251 I-5.4246 J-2.9385
G03 X68.4619 Y7.4558 I-28.8182 J-25.4383
G03 X57.9533 Y16.2419 I-159.5314 J-180.1303
G01 X57.6187 Y16.5090
G03 X32.0488 Y36.3691 I-1341.8731 J-1701.2737
G02 X13.2729 Y51.2153 I455.8900 J595.8556
G02 X5.7991 Y57.8158 I80.4351 J98.6097
G02 X3.4710 Y60.4119 I14.9742 J15.7704
G01 X3.1953 Y60.8273
G01 X2.9659 Y61.2696
G01 X2.8501 Y61.7514
G02 X2.8653 Y62.0637 I3.2047 J-0.0001
G01 X2.8774 Y62.1630
G01 X2.8935 Y62.2616
G02 X3.9740 Y63.2460 I1.0728 J-0.0924
G02 X5.7092 Y62.8244 I-0.1490 J-4.3946
G02 X9.6392 Y60.4500 I-9.9817 J-20.9610
G02 X18.4955 Y52.9625 I-56.0645 J-75.2957
G00 Z5.0000


(No. 2: Engraving 25)
G00 X3.2673 Y73.0332 Z5.0000
G00 Z0.5000
G01 Z-0.0100 F1200
G02 X3.1259 Y72.4738 I-2.0793 J0.2282
G01 X3.0520 Y72.4430
G02 X2.9216 Y73.2268 I2.6132 J0.8377
G02 X2.8506 Y75.7254 I44.9753 J2.5273
G02 X2.8480 Y76.5254 I162.0455 J0.9314
G01 X2.8486 Y76.6044
G02 X2.8509 Y76.9044 I73.1908 J-0.4139
G02 X2.9358 Y78.2007 I10.2500 J-0.0209
G02 X3.2197 Y78.9309 I1.2580 J-0.0688
G02 X3.6846 Y78.8723 I0.1853 J-0.4037
G01 X3.7681 Y78.8172
G01 X3.8489 Y78.7583
G03 X5.2556 Y77.6385 I8.5599 J9.3102
G01 X5.3417 Y77.5877
G03 X7.6635 Y77.7675 I1.0454 J1.5819
G03 X8.4300 Y78.5881 I-2.5768 J3.1752
G03 X8.4218 Y80.7872 I-1.3684 J1.0945
G03 X7.2546 Y82.0335 I-6.2646 J-4.6977
G02 X4.5861 Y84.5710 I16.7053 J20.2396
G02 X2.8494 Y88.8747 I4.9193 J4.4874
G01 X2.8480 Y89.0063
G01 X2.8500 Y89.1561
G01 X2.8553 Y89.3058
G02 X3.0215 Y90.1846 I2.5100 J-0.0196
G02 X4.0030 Y90.6123 I0.6838 J-0.2293
G01 X4.1452 Y90.5655
G01 X4.2839 Y90.5090
G02 X6.2448 Y89.1428 I-4.6633 J-8.7834
G03 X10.0327 Y85.9686 I54.2200 J60.8568
G03 X12.5226 Y84.6248 I4.8776 J6.0585
G01 X12.6686 Y84.5914
G03 X14.8907 Y86.2659 I0.4675 J1.6912
G03 X14.2879 Y87.8208 I-3.1316 J-0.3198
G03 X11.8638 Y90.4563 I-13.4395 J-9.9287
G01 X11.7083 Y90.5989
G01 X11.5521 Y90.7409
G02 X6.6804 Y95.1090 I110.3920 J128.0201
G02 X3.7185 Y98.6683 I11.9434 J12.9509
G02 X2.8495 Y101.5596 I4.5720 J2.9503
G02 X2.9138 Y102.0704 I2.2811 J-0.0277
G02 X3.8245 Y102.7004 I0.7423 J-0.0997
G02 X4.6066 Y102.4466 I-0.4557 J-2.7364
G02 X7.1689 Y100.7209 I-7.2881 J-13.5861
G02 X13.0523 Y95.7013 I-198.6362 J-238.7748
G03 X17.2770 Y92.5384 I22.8849 J26.1648
G03 X19.4226 Y91.6549 I3.4288 J5.2798
G01 X19.5446 Y91.6405
G01 X19.6671 Y91.6325
G03 X21.0850 Y93.1423 I0.1405 J1.2886
G03 X20.3713 Y94.7282 I-4.3090 J-0.9854
G01 X20.2036 Y94.9675
G03 X17.0136 Y98.3769 I-20.9298 J-16.3865
G01 X16.7995 Y98.5757
G03 X9.7914 Y104.7666 I-603.8751 J-676.5232
G02 X5.0466 Y109.5193 I32.2931 J36.9850
G02 X3.1556 Y112.4563 I8.8455 J7.7724
G02 X2.8480 Y113.8757 I3.4849 J1.4982
G01 X2.8521 Y114.0173
G01 X2.8653 Y114.1582
G01 X2.8901 Y114.2975
G02 X3.7219 Y114.8788 I0.6841 J-0.0932
G02 X5.0424 Y114.3919 I-0.7473 J-4.0610
G02 X8.7314 Y111.7711 I-14.3023 J-24.0383
G02 X16.8922 Y104.7902 I-292.2498 J-349.9095
G03 X22.8098 Y100.1626 I43.7706 J49.8742
G03 X25.5662 Y98.7594 I6.1600 J8.6918
G03 X26.8421 Y98.7951 I0.5917 J1.6754
G03 X27.3136 Y100.0508 I-0.5344 J0.9170
G01 X27.2054 Y100.4084
G03 X25.7855 Y102.5945 I-8.1631 J-3.7482
G03 X21.2992 Y107.0925 I-38.7206 J-34.1333
G01 X21.0222 Y107.3438
G03 X11.7458 Y115.4825 I-1932.5984 J-2193.4073
G02 X5.5862 Y121.4790 I50.2416 J57.7704
G02 X3.3847 Y124.4917 I11.6707 J10.8389
G02 X2.8480 Y126.2646 I3.3250 J1.9742
G01 X2.8568 Y126.4454
G01 X2.8881 Y126.6235
G02 X3.5569 Y127.1078 I0.5989 J-0.1232
G01 X3.7371 Y127.0920
G01 X3.9146 Y127.0570
G02 X5.7074 Y126.2070 I-2.2140 J-6.9851
G02 X10.4935 Y122.6393 I-27.4139 J-41.7703
G01 X10.6335 Y122.5244
G02 X21.1398 Y113.5171 I-565.7098 J-670.4862
G03 X28.3209 Y107.7922 I68.7840 J78.9133
G03 X31.4867 Y105.9400 I10.2837 J13.9460
G03 X32.8741 Y105.6659 I1.2303 J2.5793
G03 X33.4110 Y105.9330 I-0.0826 J0.8393
G01 X33.6085 Y106.3373
G01 X33.5990 Y106.7907
G01 X33.4699 Y107.2272
G01 X33.2788 Y107.6409
G03 X31.3693 Y110.1890 I-12.7026 J-7.5297
G03 X25.8112 Y115.5863 I-59.1813 J-55.3834
G03 X14.4796 Y125.4841 I-1144.5542 J-1298.9245
G02 X6.8273 Y132.6497 I85.8485 J99.3471
G02 X3.6460 Y136.5163 I18.2710 J18.2746
G02 X2.9001 Y138.1712 I4.6622 J3.0971
G01 X2.8480 Y138.6233
G01 X2.8651 Y138.8434
G02 X3.4813 Y139.3475 I0.5504 J-0.0442
G02 X4.1278 Y139.2133 I-0.1346 J-2.2734
G02 X6.4485 Y137.9429 I-4.5186 J-11.0091
G02 X12.7413 Y133.0807 I-47.8361 J-68.4135
G01 X12.9110 Y132.9392
G02 X25.8850 Y121.8043 I-1361.8343 J-1599.8789
G03 X34.1025 Y115.2171 I90.7671 J104.8132
G03 X37.8668 Y112.9359 I12.9038 J17.0461
G03 X39.0457 Y112.6285 I1.4201 J3.0327
G01 X39.2897 Y112.6454
G03 X39.8734 Y113.5866 I-0.1206 J0.7263
G03 X39.4992 Y114.5284 I-3.1047 J-0.6881
G03 X37.4876 Y117.1473 I-14.1927 J-8.8194
G01 X37.3164 Y117.3356
G03 X30.7198 Y123.6891 I-75.5627 J-71.8541
G01 X30.5305 Y123.8592
G03 X16.5051 Y136.1056 I-1319.1346 J-1496.5991
G02 X7.3676 Y144.5763 I118.0130 J136.4654
G02 X3.8554 Y148.6458 I23.6628 J23.9735
G02 X2.9375 Y150.3945 I5.1986 J3.8440
G01 X2.8732 Y150.6701
G01 X2.8480 Y150.9519
G01 X2.8784 Y151.2107
G01 X3.0004 Y151.4385
G01 X3.2255 Y151.5643
G02 X4.2403 Y151.3868 I0.1920 J-1.8927
G02 X7.1611 Y149.6659 I-7.3753 J-15.8566
G02 X14.7553 Y143.6892 I-72.5152 J-99.9526
G02 X30.0071 Y130.6061 I-1765.9636 J-2074.1378
G03 X39.5518 Y122.8672 I127.1121 J147.0154
G03 X43.8684 Y120.0799 I18.6435 J24.1371
G03 X45.2121 Y119.6090 I2.2236 J4.1919
G01 X45.4970 Y119.5918
G03 X46.1603 Y120.3531 I0.0453 J0.6301
G03 X45.5721 Y121.6945 I-3.6999 J-0.8225
G03 X42.9301 Y124.8670 I-20.8245 J-14.6568
G03 X34.9897 Y132.3674 I-105.4586 J-103.6911
G03 X18.5406 Y146.6860 I-1771.3305 J-2018.2685
G02 X8.0256 Y156.3323 I154.3657 J178.8242
G02 X3.9306 Y160.9296 I28.5167 J29.5227
G02 X2.8847 Y162.9291 I4.6632 J3.7127
G01 X2.8480 Y163.2508
G01 X2.8984 Y163.5462
G01 X3.0995 Y163.7616
G01 X3.3937 Y163.8146
G02 X4.2636 Y163.5825 I-0.2945 J-2.8506
G02 X7.3628 Y161.7226 I-8.4845 J-17.6499
G01 X7.6094 Y161.5488
G02 X16.1262 Y154.8129 I-90.8397 J-123.6099
G01 X16.3576 Y154.6193
G02 X33.8776 Y139.6074 I-1883.5799 J-2216.0047
G03 X44.9992 Y130.5115 I173.8948 J201.2753
G03 X49.8690 Y127.2282 I25.4230 J32.4548
G03 X51.3724 Y126.6017 I3.2215 J5.6135
G01 X51.6945 Y126.5502
G01 X52.0190 Y126.5724
G01 X52.2979 Y126.7328
G01 X52.4288 Y127.0363
G01 X52.4044 Y127.3699
G03 X51.8197 Y128.5727 I-3.9138 J-1.1591
G03 X49.0046 Y131.9060 I-22.4202 J-16.0792
G01 X48.7714 Y132.1480
G03 X39.9470 Y140.4187 I-127.2012 J-126.8733
G01 X39.6958 Y140.6419
G03 X21.0602 Y156.8219 I-1898.4386 J-2167.7298
G02 X8.8815 Y167.8652 I204.2226 J237.4576
G02 X4.1702 Y172.9568 I36.5459 J38.5412
G02 X3.0148 Y174.8130 I6.3291 J5.2276
G01 X2.8984 Y175.1591
G01 X2.8480 Y175.5200
G01 X2.9285 Y175.8486
G01 X3.2099 Y176.0277
G01 X3.5513 Y176.0310
G01 X3.8864 Y175.9589
G02 X5.7507 Y175.0979 I-3.4405 J-9.8979
G02 X11.1420 Y171.4432 I-31.1715 J-51.7878
G02 X25.0304 Y160.2571 I-188.2156 J-247.8978
G02 X56.9976 Y131.9385 I-717.3249 J-841.9490
G00 Z5.0000


(No. 3: Engraving 26)
G00 X2.8725 Y193.9223 Z5.0000
G00 Z0.5000
G01 Z-0.0100 F1200
G03 X3.4669 Y192.8975 I1.7224 J0.3143
G03 X4.3964 Y193.0061 I0.3850 J0.7371
G01 X4.4773 Y193.0649
G03 X6.0111 Y195.2946 I-3.9428 J4.3549
G03 X5.5660 Y196.7213 I-1.1562 J0.4221
G03 X4.6106 Y197.4467 I-13.2970 J-16.5218
G02 X2.8867 Y200.6807 I2.3034 J3.3043
G02 X2.8744 Y201.0805 I6.6913 J0.4050
G01 X2.8753 Y201.1377
G01 X2.8769 Y201.2377
G02 X2.9734 Y202.0299 I3.4165 J-0.0143
G01 X3.0030 Y202.1254
G02 X3.8611 Y202.5618 I0.5989 J-0.1157
G02 X4.5759 Y202.2075 I-1.0579 J-3.0322
G03 X6.8884 Y200.6304 I38.8730 J54.5171
G03 X7.8876 Y200.1770 I2.3788 J3.9144
G03 X9.8069 Y200.8416 I0.5668 J1.4669
G03 X9.7689 Y202.8766 I-1.3012 J0.9936
G03 X8.0861 Y204.4588 I-6.4179 J-5.1400
G02 X4.9162 Y206.8851 I24.8857 J35.7966
G02 X3.0988 Y209.3483 I4.0885 J4.9186
G02 X2.8760 Y210.6106 I3.4899 J1.2668
G01 X2.8798 Y210.7498
G02 X2.9327 Y211.1635 I2.0237 J-0.0490
G02 X3.8621 Y211.7682 I0.7205 J-0.0907
G01 X3.9985 Y211.7404
G02 X5.8543 Y210.8007 I-2.3150 J-6.8747
G01 X5.9708 Y210.7243
G03 X10.0820 Y207.8565 I165.7021 J233.1594
G03 X12.5732 Y206.6363 I5.3392 J7.7480
G03 X12.9839 Y206.5619 I0.7343 J2.8800
G03 X14.4310 Y208.4954 I0.2444 J1.3255
G03 X14.0653 Y209.1234 I-2.9491 J-1.2970
G03 X11.8293 Y211.2502 I-9.6842 J-7.9426
G01 X11.6857 Y211.3621
G02 X6.8538 Y214.9320 I454.9395 J620.8135
G02 X3.8224 Y217.8046 I10.0772 J13.6703
G02 X2.8845 Y219.9422 I3.1507 J2.6569
G01 X2.8777 Y220.1241
G01 X2.8859 Y220.3119
G01 X2.9140 Y220.4978
G02 X3.7442 Y221.0750 I0.6983 J-0.1188
G02 X4.4711 Y220.8905 I-0.3144 J-2.7633
G02 X7.2451 Y219.3125 I-6.6373 J-14.8947
G03 X12.9357 Y215.3073 I1103.7266 J1562.1258
G03 X16.3653 Y213.3626 I11.3649 J16.0465
G03 X17.6413 Y213.0691 I1.4303 J3.2981
G03 X18.7305 Y214.4477 I0.0685 J1.0654
G03 X17.7663 Y216.0194 I-3.8206 J-1.2621
G03 X14.6117 Y218.7672 I-18.0491 J-17.5359
G01 X14.4263 Y218.9079
G02 X8.0431 Y223.5839 I495.9852 J683.7561
G02 X4.2167 Y226.9744 I16.0332 J21.9492
G02 X2.9918 Y228.9346 I4.0665 J3.9039
G02 X2.8793 Y229.6209 I2.1493 J0.7049
G01 X2.8828 Y229.7305
G01 X2.8937 Y229.8396
G02 X3.6548 Y230.4507 I0.6552 J-0.0366
G02 X4.5047 Y230.2471 I-0.2463 J-2.9036
G02 X7.5656 Y228.5427 I-7.2700 J-16.6573
G02 X14.6414 Y223.5547 I-192.6533 J-280.8000
G03 X19.5366 Y220.4884 I24.7519 J34.0756
G03 X21.6682 Y219.7689 I3.0567 J5.5387
G01 X21.7937 Y219.7628
G01 X21.9194 Y219.7648
G03 X22.8546 Y220.9147 I0.0547 J0.9108
G01 X22.7675 Y221.1831
G03 X21.7945 Y222.5611 I-5.0189 J-2.5112
G03 X18.1623 Y225.6948 I-22.3421 J-22.2242
G01 X17.9375 Y225.8659
G03 X9.9464 Y231.6887 I-975.6043 J-1330.5241
G02 X4.9401 Y235.8229 I28.8525 J40.0373
G02 X3.1868 Y238.0242 I6.2162 J6.7501
G02 X2.8809 Y239.1012 I2.1273 J1.1861
G01 X2.8881 Y239.2385
G01 X2.9122 Y239.3739
G02 X3.5329 Y239.8083 I0.5739 J-0.1593
G02 X5.1028 Y239.3367 I-0.4164 J-4.2353
G02 X9.3377 Y236.7761 I-16.2942 J-31.7298
G01 X9.4515 Y236.6987
G02 X18.6444 Y230.1898 I-986.4569 J-1402.9712
G03 X24.0794 Y226.7865 I30.3142 J42.3694
G03 X26.2162 Y225.9812 I3.8614 J7.0088
G03 X27.2343 Y226.1633 I0.3216 J1.1389
G03 X27.4474 Y226.9248 I-0.5520 J0.5651
G01 X27.3455 Y227.2465
G01 X27.1939 Y227.5484
G03 X25.9080 Y229.1102 I-7.5445 J-4.9016
G03 X21.4967 Y232.7880 I-32.4680 J-34.4591
G01 X21.2267 Y232.9915
G03 X11.3757 Y240.1387 I-1094.0909 J-1497.6214
G02 X5.3272 Y245.0183 I40.1807 J55.9947
G02 X3.3322 Y247.3055 I8.2791 J9.2349
G02 X2.8840 Y248.5640 I2.1162 J1.4628
G01 X2.8966 Y248.7271
G02 X3.4798 Y249.1844 I0.5300 J-0.0754
G01 X3.6434 Y249.1777
G02 X5.4835 Y248.5139 I-1.1574 J-6.0908
G02 X10.4943 Y245.4119 I-23.9771 J-44.3289
G02 X21.2862 Y237.7667 I-795.1316 J-1133.8333
G03 X27.6889 Y233.6250 I46.7966 J65.3244
G03 X30.2794 Y232.4819 I6.2284 J10.6076
G03 X31.1568 Y232.4217 I0.5667 J1.8358
G03 X31.5817 Y232.7155 I-0.1062 J0.6077
G01 X31.6735 Y233.0884
G01 X31.5992 Y233.4686
G01 X31.4394 Y233.8228
G03 X29.9600 Y235.6184 I-8.1312 J-5.1919
G01 X29.6804 Y235.8888
G03 X24.5599 Y240.0683 I-42.8529 J-47.2734
G03 X13.2122 Y248.2744 I-738.3674 J-1009.1048
G02 X6.1652 Y253.7822 I59.7598 J83.7209
G02 X3.4831 Y256.5886 I10.9751 J13.1740
G02 X2.8944 Y258.0051 I2.1792 J1.7364
G01 X2.9144 Y258.1918
G02 X3.4916 Y258.5638 I0.4906 J-0.1274
G01 X3.6791 Y258.5494
G02 X5.6073 Y257.8194 I-1.6200 J-7.1910
G01 X5.7746 Y257.7332
G02 X11.5105 Y254.1345 I-31.5104 J-56.5944
G01 X11.6657 Y254.0282
G02 X24.0867 Y245.2275 I-1041.8871 J-1483.6468
G03 X31.6239 Y240.3040 I61.4024 J85.7689
G03 X34.5905 Y238.9338 I7.8346 J13.0654
G03 X35.5996 Y238.8503 I0.6638 J1.8842
G01 X35.7875 Y238.9296
G01 X35.9369 Y239.0676
G01 X36.0434 Y239.4863
G01 X35.9246 Y239.9097
G01 X35.7130 Y240.2971
G03 X33.9471 Y242.2659 I-10.4696 J-7.6144
G03 X28.1086 Y246.9854 I-51.3163 J-57.5125
G03 X15.2090 Y256.2896 I-752.8114 J-1030.1210
G02 X6.8022 Y262.7475 I83.5849 J117.5111
G02 X3.6656 Y265.8492 I14.2019 J17.4978
G02 X2.9977 Y266.9876 I3.0173 J2.5356
G01 X2.9185 Y267.4202
G01 X2.9504 Y267.6319
G02 X3.4741 Y267.9218 I0.4675 J-0.2266
G01 X3.6882 Y267.9035
G01 X3.8992 Y267.8623
G02 X6.2562 Y266.8276 I-3.3078 J-10.7366
G02 X12.9581 Y262.5439 I-44.6921 J-77.3053
G01 X13.1352 Y262.4219
G02 X27.4304 Y252.2939 I-1687.1703 J-2396.5255
G03 X35.7002 Y246.8583 I74.4735 J104.2961
G03 X38.7980 Y245.3445 I9.7347 J15.9942
G03 X39.9255 Y245.1710 I0.9280 J2.2807
G03 X40.3702 Y245.8605 I-0.0525 J0.5220
G03 X40.0787 Y246.5087 I-2.1622 J-0.5827
G03 X38.1663 Y248.6224 I-10.2366 J-7.3398
G01 X37.9911 Y248.7837
G03 X31.2992 Y254.1360 I-63.0083 J-71.9200
G01 X31.1082 Y254.2781
G03 X16.1971 Y265.0347 I-1095.4480 J-1502.8350
G02 X6.8715 Y272.1982 I94.0910 J132.1420
G02 X3.7636 Y275.2293 I16.2184 J19.7374
G02 X3.0004 Y276.5476 I2.5809 J2.3743
G01 X2.9685 Y276.8006
G01 X3.0156 Y277.0334
G01 X3.1809 Y277.2001
G02 X4.1176 Y277.1443 I0.3841 J-1.4409
G02 X6.7121 Y275.9230 I-5.0221 J-14.0348
G02 X14.1497 Y271.1183 I-57.0620 J-96.4924
G01 X14.3467 Y270.9823
G02 X30.2543 Y259.7180 I-2012.5340 J-2858.9823
G03 X39.4290 Y253.6411 I92.6750 J129.9538
G03 X42.8432 Y251.8939 I12.5387 J20.2931
G03 X44.0858 Y251.6237 I1.2927 J2.9521
G03 X44.5862 Y252.3340 I0.0427 J0.5013
G03 X44.2233 Y253.0292 I-2.5402 J-0.8837
G03 X42.0538 Y255.3058 I-12.4596 J-9.7012
G01 X41.8580 Y255.4808
G03 X34.4393 Y261.3332 I-77.4500 J-90.5504
G03 X18.0170 Y273.1544 I-1166.7297 J-1603.5290
G02 X7.7088 Y280.9711 I122.1718 J171.8193
G02 X4.0142 Y284.4250 I20.1091 J25.2127
G02 X3.2187 Y285.5798 I3.8551 J3.5070
G01 X3.1206 Y285.8431
G01 X3.0811 Y286.1206
G01 X3.2055 Y286.3855
G01 X3.4976 Y286.4551
G01 X3.7998 Y286.4189
G01 X4.0947 Y286.3423
G02 X6.8447 Y285.0384 I-6.2540 J-16.7408
G01 X7.1100 Y284.8882
G02 X15.8235 Y279.2811 I-75.3924 J-126.7347
G02 X33.6064 Y266.7316 I-798.8734 J-1150.8966
G03 X39.7738 Y262.5313 I82.5468 J114.5763
G03 X40.8768 Y261.9633 I2.9869 J4.4457
G01 X40.9878 Y262.0894
G01 X40.8551 Y262.2992
G03 X38.5964 Y264.6102 I-21.7570 J-19.0062
G01 X38.4153 Y264.7807
G03 X16.4362 Y283.8356 I-345.6760 J-376.5195
G03 X7.0492 Y290.9093 I-88.8563 J-108.1499
G03 X3.6680 Y292.8814 I-13.1310 J-18.6290
G01 X3.2973 Y293.0066
G00 Z5.0000


(No. 4: Engraving 27)
G00 X2.8469 Y346.1274 Z5.0000
G00 Z0.5000
G01 Z-0.0100 F1200
G03 X2.4513 Y324.9130 I570.5672 J-21.2508
G03 X2.4606 Y322.5288 I424.1161 J0.4659
G03 X3.0583 Y306.4368 I217.8526 J0.0343
G03 X4.0948 Y298.9978 I56.4303 J4.0712
G03 X5.1727 Y295.8463 I12.6471 J2.5653
G03 X6.0447 Y294.8119 I2.4658 J1.1940
G03 X6.9406 Y294.9660 I0.3751 J0.5006
G03 X7.3066 Y295.6269 I-2.0821 J1.5850
G03 X7.9413 Y298.5873 I-12.9701 J4.3290
G01 X7.9720 Y298.8383
G03 X8.4279 Y307.4212 I-96.4985 J9.4291
G03 X8.4139 Y326.0763 I-983.5066 J8.5907
G02 X8.4125 Y327.1956 I561.1246 J1.2624
G01 Y327.4754
G01 X8.4127 Y327.7552
G02 X8.4280 Y330.8333 I351.0723 J-0.2024
G02 X8.8369 Y340.6158 I117.6517 J-0.0186
G02 X9.5057 Y344.4699 I20.6688 J-1.6013
G02 X10.0980 Y345.7291 I3.6899 J-0.9668
G01 X10.2923 Y345.9298
G02 X11.5400 Y345.7111 I0.5277 J-0.6578
G02 X12.0813 Y344.6813 I-3.0298 J-2.2499
G02 X12.8836 Y340.9770 I-18.4232 J-5.9289
G02 X13.5553 Y331.3653 I-104.5139 J-12.1327
G01 X13.5648 Y331.0734
G01 X13.5740 Y330.7814
G02 X13.8056 Y310.5207 I-929.4546 J-20.7581
G03 X14.2224 Y295.6441 I267.2395 J0.0428
G03 X15.0418 Y288.9041 I49.8161 J2.6366
G03 X16.0010 Y286.1686 I8.7668 J1.5380
G03 X16.6558 Y285.5019 I1.5097 J0.8279
G01 X16.9427 Y285.4338
G01 X17.2202 Y285.5310
G03 X17.8291 Y286.5355 I-1.4649 J1.5748
G03 X18.5004 Y290.0410 I-17.4190 J5.1529
G01 X18.5331 Y290.3372
G03 X19.0351 Y300.4531 I-128.6508 J11.4548
G03 X19.0503 Y322.3010 I-1107.8539 J11.6964
G02 X19.0478 Y324.2549 I821.5881 J2.0401
G01 X19.0479 Y324.5806
G02 X19.0635 Y328.4883 I498.2368 J-0.0357
G01 X19.0663 Y328.8140
G02 X19.5038 Y340.2004 I148.9478 J-0.0210
G02 X20.2641 Y344.6875 I22.2602 J-1.4642
G02 X20.8487 Y345.8417 I3.2335 J-0.9124
G02 X21.9978 Y345.8325 I0.5712 J-0.4266
G02 X22.6262 Y344.6457 I-2.7824 J-2.2331
G01 X22.7314 Y344.3245
G02 X23.5184 Y340.0083 I-26.1801 J-7.0033
G02 X24.1897 Y328.8806 I-142.1424 J-14.1601
G01 X24.1994 Y328.5428
G02 X24.4249 Y304.8726 I-1072.2142 J-22.0514
G03 X24.4330 Y303.3948 I1225.2818 J5.9933
G03 X24.8062 Y287.5144 I338.4612 J0.0103
G03 X25.6218 Y279.8044 I61.6162 J2.6198
G03 X26.5023 Y276.9945 I10.2725 J1.6759
G01 X26.7018 Y276.6838
G01 X26.9495 Y276.4106
G01 X27.2396 Y276.2312
G01 X27.5749 Y276.2380
G01 X27.8429 Y276.4473
G03 X28.4005 Y277.6920 I-2.9933 J2.0882
G03 X29.0631 Y281.7525 I-25.4063 J6.2300
G03 X29.6170 Y293.0631 I-157.3315 J13.3743
G01 X29.6239 Y293.4063
G03 X29.6823 Y318.4513 I-1215.9929 J15.3590
G02 X29.6793 Y321.0511 I1238.0219 J2.7295
G01 X29.6794 Y321.4224
G02 X29.6939 Y325.8791 I691.7802 J-0.0302
G01 X29.6966 Y326.2505
G02 X30.0874 Y338.8696 I205.3658 J-0.0446
G02 X30.7577 Y344.0208 I34.9775 J-1.9323
G02 X31.4167 Y345.7457 I4.9314 J-0.8958
G01 X31.6743 Y346.0110
G01 X32.0204 Y346.1279
G01 X32.3785 Y346.0083
G01 X32.6487 Y345.7384
G02 X33.2676 Y344.3427 I-3.9595 J-2.5906
G01 X33.3708 Y343.9733
G02 X34.1488 Y339.0530 I-35.1012 J-8.0719
G01 X34.1864 Y338.6713
G02 X34.8578 Y324.8832 I-203.8034 J-16.8344
G02 X35.0371 Y297.6121 I-1486.5306 J-23.4130
G03 X35.0519 Y294.2951 I1184.4826 J3.6313
G03 X35.4574 Y277.7169 I339.7269 J0.0142
G03 X36.2604 Y270.3023 I58.0624 J2.5376
G03 X36.9778 Y267.9272 I9.1979 J1.4825
G01 X37.1861 Y267.5691
G01 X37.4575 Y267.2571
G01 X37.7980 Y267.0815
G01 X38.1576 Y267.1943
G03 X38.7188 Y268.2002 I-1.9917 J1.7708
G01 X38.8335 Y268.5711
G03 X39.5624 Y273.1684 I-29.0444 J6.9612
G01 X39.5989 Y273.5550
G03 X40.1940 Y286.3537 I-200.2669 J15.7250
G01 X40.2020 Y286.7419
G03 X40.3081 Y315.4039 I-1387.0623 J19.4662
G02 X40.3068 Y317.4861 I1775.7906 J2.2039
G01 Y317.9026
G01 X40.3070 Y318.3190
G02 X40.3244 Y323.7328 I900.8176 J-0.1878
G02 X40.7025 Y337.8851 I266.2518 J-0.0320
G02 X41.3535 Y343.6748 I45.4006 J-2.1740
G02 X41.9946 Y345.6469 I6.4765 J-1.0151
G01 X42.2531 Y345.9713
G01 X42.6290 Y346.1279
G01 X43.0203 Y345.9635
G01 X43.2928 Y345.6276
G02 X43.8997 Y344.0072 I-5.5682 J-3.0095
G01 X44.0011 Y343.5852
G02 X44.8107 Y337.5667 I-49.9527 J-9.7831
G01 X44.8465 Y337.1341
G02 X45.5029 Y321.0894 I-279.4853 J-19.4695
G01 X45.5105 Y320.6554
G02 X45.6290 Y289.9219 I-1923.0694 J-22.7780
G03 X45.6457 Y284.7458 I1121.8176 J1.0412
G03 X46.0056 Y269.6548 I317.7131 J0.0268
G03 X46.6778 Y263.2241 I52.6537 J2.2533
G03 X47.3195 Y261.1741 I6.8602 J1.0221
G01 X47.5837 Y260.8354
G01 X47.9751 Y260.6832
G01 X48.3604 Y260.8633
G01 X48.6289 Y261.2022
G03 X49.3350 Y263.2446 I-7.1725 J3.6229
G03 X50.1435 Y269.2603 I-49.7072 J9.7430
G01 X50.1792 Y269.6927
G03 X50.8240 Y285.7301 I-277.1490 J19.1761
G03 X50.9203 Y316.0204 I-1787.2296 J20.8258
G01 Y316.4515
G01 Y316.8826
G01 X50.9205 Y317.3137
G02 X50.9399 Y323.3494 I971.8694 J-0.1138
G02 X51.3342 Y338.0005 I272.8328 J-0.0104
G02 X52.0408 Y343.9894 I42.1728 J-1.9399
G02 X52.5920 Y345.6173 I6.2430 J-1.2066
G01 X52.8520 Y345.9592
G01 X53.2375 Y346.1279
G01 X53.6080 Y345.9886
G01 X53.8767 Y345.6898
G01 X54.0762 Y345.3397
G02 X54.6768 Y343.4187 I-8.9851 J-3.8635
G02 X55.4672 Y337.4237 I-50.0587 J-9.6492
G02 X56.1109 Y322.1109 I-259.7599 J-18.5899
G02 X56.2538 Y294.6107 I-1868.9216 J-23.4624
G03 X56.2678 Y291.7577 I909.4744 J3.0383
G03 X56.6030 Y278.5684 I260.2828 J0.0160
G03 X57.1715 Y273.6124 I35.3663 J1.5458
G03 X57.6411 Y272.2724 I4.4696 J0.8144
G01 X57.8880 Y272.0197
G01 X58.2309 Y272.0060
G01 X58.5140 Y272.2189
G01 X58.7359 Y272.4977
G01 X58.9453 Y272.8391
G03 X59.8633 Y275.4806 I-10.3680 J5.0835
G03 X60.8322 Y282.2165 I-50.3717 J10.6833
G03 X61.4722 Y297.0228 I-217.6548 J16.8252
G01 X61.4783 Y297.4234
G03 X61.4914 Y321.8986 I-1557.2537 J13.0751
G02 X61.4901 Y323.2775 I941.8157 J1.6042
G01 Y323.6223
G01 X61.4902 Y323.9670
G02 X61.5045 Y327.7590 I557.1652 J-0.1946
G02 X61.8634 Y339.1274 I181.7118 J-0.0475
G02 X62.5753 Y344.2426 I30.9461 J-1.6997
G02 X63.2588 Y345.8113 I4.0021 J-0.8106
G02 X64.4149 Y345.8491 I0.5916 J-0.3942
G01 X64.6162 Y345.5935
G02 X65.3178 Y343.7775 I-6.1771 J-3.4298
G02 X66.1295 Y338.3034 I-38.0047 J-8.4327
G02 X66.7199 Y324.9601 I-202.2027 J-15.6316
G02 X66.8853 Y303.5110 I-3101.6233 J-34.6499
G03 X67.2705 Y292.5409 I169.9094 J0.4745
G03 X67.8610 Y288.6502 I21.1716 J1.2228
G03 X68.3615 Y287.6548 I2.3252 J0.5457
G01 X68.6083 Y287.5281
G01 X68.8810 Y287.5772
G03 X69.4681 Y288.1724 I-1.0845 J1.6571
G03 X70.5694 Y290.8443 I-8.1405 J4.9184
G03 X71.5791 Y297.2077 I-39.0070 J9.4509
G03 X72.1051 Y310.4167 I-168.7341 J13.3345
G03 X72.0536 Y329.1805 I-2809.5690 J1.6638
G02 X72.0741 Y332.3882 I299.5122 J-0.3151
G02 X72.5233 Y341.4618 I92.3390 J-0.0233
G02 X73.2359 Y344.8548 I15.0890 J-1.3975
G02 X73.7587 Y345.7810 I2.8688 J-1.0088
G02 X75.1175 Y345.8309 I0.7003 J-0.5433
G02 X75.8454 Y344.5436 I-2.9080 J-2.4938
G02 X76.6228 Y340.9053 I-18.4235 J-5.8387
G02 X77.2388 Y331.7365 I-97.5641 J-11.1604
G02 X77.4415 Y315.8046 I-1048.6776 J-21.3043
G03 X77.8127 Y306.8659 I115.1286 J0.3044
G03 X78.3850 Y303.8045 I13.7192 J0.9806
G03 X78.6716 Y303.2522 I1.9502 J0.6614
G03 X79.5696 Y303.1785 I0.4767 J0.3009
G01 X79.7227 Y303.3192
G03 X80.9811 Y305.5533 I-5.3882 J4.5066
G03 X82.0973 Y310.5530 I-22.6226 J7.6747
G01 X82.1281 Y310.7955
G03 X82.6608 Y320.7984 I-92.3161 J9.9318
G01 X82.6630 Y321.0428
G01 X82.6650 Y321.2873
G03 X82.6077 Y334.3786 I-7953.9178 J-28.2561
G02 X82.6224 Y335.9060 I151.2506 J-0.6950
G02 X83.0263 Y342.3807 I52.3880 J-0.0183
G02 X83.7748 Y345.1330 I9.3269 J-1.0585
G02 X84.0839 Y345.6140 I2.3794 J-1.1888
G02 X85.9773 Y345.7106 I0.9842 J-0.6855
G02 X86.3817 Y345.1552 I-1.9263 J-1.8271
G02 X87.2088 Y342.5379 I-8.2330 J-4.0411
G01 X87.2400 Y342.3685
G02 X87.8248 Y335.5086 I-51.3638 J-7.8338
G02 X88.0008 Y324.9908 I-1908.1751 J-37.1958
G03 X88.3752 Y320.0356 I38.2595 J0.3984
G03 X88.8956 Y318.4744 I4.2341 J0.5442
G03 X89.7371 Y318.3027 I0.4953 J0.2799
G01 X89.8517 Y318.3797
G01 X89.9589 Y318.4668
G03 X91.4912 Y320.7977 I-5.3090 J5.1593
G01 X91.6051 Y321.0574
G03 X92.9041 Y326.5577 I-18.6766 J7.3145
G01 X92.9345 Y326.8396
G03 X93.1738 Y335.0545 I-74.4831 J6.2811
G02 X93.1490 Y338.4569 I264.6108 J3.6305
G02 X93.1610 Y339.5910 I69.7314 J-0.1663
G02 X93.4507 Y343.2621 I24.0819 J-0.0537
G02 X94.0660 Y345.1389 I5.6765 J-0.8217
G02 X97.2666 Y345.2555 I1.6338 J-0.8592
G02 X97.4758 Y344.9149 I-2.6315 J-1.8507
G02 X98.2241 Y342.1289 I-7.7105 J-3.5645
G01 X98.2363 Y342.0297
G01 X98.2479 Y341.9304
G02 X98.4666 Y336.3351 I-62.1690 J-5.2318
G03 X98.6330 Y333.9430 I17.9263 J0.0445
G03 X98.9789 Y333.0174 I1.8498 J0.1641
G03 X99.4346 Y332.8966 I0.3177 J0.2784
G03 X100.2893 Y333.5692 I-0.9783 J2.1224
G03 X103.7959 Y339.9207 I-16.1854 J13.0796
G03 X104.2140 Y344.5221 I-9.0257 J3.1399
G03 X103.6281 Y346.1279 I-4.5606 J-0.7541
G00 Z5.0000


(No. 5: Engraving 28)
G00 X111.9297 Y346.0551 Z5.0000
G00 Z0.5000
G01 Z-0.0100 F1200
G02 X111.0599 Y346.7852 I860.0509 J1025.5660
G02 X113.1289 Y345.0505 I-6400.4165 J-7636.3737
G01 X113.2055 Y344.9863
G01 X113.2822 Y344.9220
G01 X113.3588 Y344.8578
G01 X113.4354 Y344.7935
G01 X113.5120 Y344.7293
G01 X113.5887 Y344.6650
G01 X113.6653 Y344.6008
G01 X113.7419 Y344.5365
G01 X113.8185 Y344.4722
G01 X113.8952 Y344.4080
G01 X113.9718 Y344.3437
G01 X114.0484 Y344.2795
G01 X114.1250 Y344.2152
G01 X114.2017 Y344.1510
G01 X114.2783 Y344.0867
G01 X114.3549 Y344.0225
G01 X114.4315 Y343.9582
G01 X114.5082 Y343.8940
G01 X114.5848 Y343.8297
G01 X114.6614 Y343.7654
G01 X114.7380 Y343.7012
G01 X114.8147 Y343.6369
G01 X114.8913 Y343.5727
G01 X114.9679 Y343.5084
G01 X115.0445 Y343.4442
G01 X115.1212 Y343.3799
G01 X115.1978 Y343.3157
G01 X115.2744 Y343.2514
G01 X115.3510 Y343.1871
G03 X117.9418 Y341.2395 I13.5927 J15.3842
G03 X118.6833 Y341.0044 I0.7647 J1.1250
G03 X119.0042 Y341.4177 I-0.1291 J0.4314
G01 X119.0200 Y341.5293
G02 X119.0464 Y343.3328 I161.5340 J-1.4562
G02 X119.0993 Y343.7806 I4.6950 J-0.3280
G02 X121.0208 Y345.8925 I2.4105 J-0.2631
G02 X124.1033 Y345.8359 I1.4311 J-6.0340
G02 X125.7841 Y344.0380 I-0.7580 J-2.3932
G02 X126.0383 Y342.4086 I-7.3584 J-1.9827
G03 X126.1726 Y338.5553 I153.7847 J3.4322
G03 X126.3451 Y337.0970 I16.2334 J1.1803
G03 X130.9125 Y330.1426 I9.6614 J1.3682
G03 X131.3716 Y329.9462 I1.2855 J2.3701
G03 X132.7071 Y330.4993 I0.3955 J0.9339
G03 X132.8283 Y330.7734 I-2.1207 J1.1021
G03 X133.1882 Y333.2378 I-8.5392 J2.5055
G03 X133.1769 Y338.9886 I-320.5661 J2.2430
G02 X133.1886 Y339.5617 I40.1886 J-0.5332
G02 X133.6931 Y343.5311 I15.9830 J-0.0147
G02 X134.1253 Y344.5906 I5.1822 J-1.4964
G02 X136.9243 Y346.0440 I2.3672 J-1.1370
G02 X138.9738 Y344.5683 I-0.3577 J-2.6577
G02 X139.3982 Y343.6084 I-5.0268 J-2.7965
G02 X140.0828 Y339.6042 I-16.1127 J-4.8154
G01 X140.0921 Y339.4731
G02 X140.2938 Y331.7877 I-190.9991 J-8.8575
G03 X140.9082 Y324.8374 I42.5977 J0.2634
G03 X142.4842 Y320.4830 I12.6738 J2.1247
G03 X144.6219 Y318.3819 I5.0852 J3.0357
G01 X144.7536 Y318.3219
G01 X144.8891 Y318.2709
G03 X146.1899 Y318.6273 I0.4204 J1.0174
G03 X146.8969 Y320.3541 I-3.6199 J2.4903
G03 X147.3191 Y324.8163 I-25.8620 J4.6984
G03 X147.2968 Y334.4197 I-405.0640 J3.8593
G02 X147.3117 Y336.1288 I106.8169 J-0.0805
G02 X147.7780 Y342.0864 I38.5136 J-0.0173
G02 X148.7709 Y344.9786 I7.9983 J-1.1294
G01 X148.8676 Y345.1195
G02 X152.2145 Y345.2795 I1.7293 J-1.0868
G01 X152.3322 Y345.1340
G01 X152.4418 Y344.9824
G02 X153.4644 Y342.3841 I-6.9899 J-4.2512
G02 X154.1830 Y336.4460 I-35.2448 J-7.2777
G02 X154.4133 Y325.1612 I-301.3609 J-11.7946
G03 X154.9072 Y315.4630 I99.8109 J0.2218
G03 X156.0743 Y309.9492 I24.9568 J2.4021
G03 X157.7932 Y307.0619 I7.1705 J2.3136
G03 X158.6194 Y306.4669 I2.1328 J2.0900
G03 X160.0110 Y306.8697 I0.4874 J0.9217
G01 X160.1220 Y307.0351
G03 X160.8603 Y309.2970 I-6.4603 J3.3601
G01 X160.8962 Y309.4930
G03 X161.3924 Y315.4455 I-45.6850 J6.8058
G03 X161.4122 Y328.5831 I-401.1979 J7.1727
G02 X161.4092 Y329.9634 I342.8401 J1.4425
G01 Y330.1935
G02 X161.4252 Y332.7239 I206.2587 J-0.0331
G02 X161.8866 Y340.7577 I70.6410 J-0.0275
G02 X162.7316 Y344.3303 I15.1116 J-1.6878
G02 X163.4376 Y345.5083 I3.5849 J-1.3479
G02 X165.7600 Y345.6290 I1.2164 J-1.0015
G02 X166.5916 Y344.4201 I-2.8627 J-2.8596
G02 X167.5354 Y341.1155 I-13.4711 J-5.6343
G02 X168.2761 Y333.2800 I-61.9667 J-9.8105
G01 X168.2867 Y333.0341
G02 X168.5118 Y317.8749 I-469.1005 J-14.5494
G03 X168.5194 Y317.0235 I569.4214 J4.6297
G03 X168.9606 Y305.1153 I161.5713 J0.0239
G03 X169.9808 Y298.6770 I37.4154 J2.6285
G03 X171.1846 Y295.8107 I9.6612 J2.3716
G03 X172.3546 Y294.6755 I2.7324 J1.6458
G03 X173.6958 Y295.0394 I0.4762 J0.8985
G03 X174.0731 Y295.7059 I-2.7880 J2.0184
G03 X174.8631 Y298.9277 I-13.1837 J4.9403
G01 X174.8992 Y299.1810
G03 X175.4577 Y307.6019 I-82.4458 J9.6968
G03 X175.5077 Y324.9578 I-674.4902 J10.6243
G01 X175.5075 Y325.2452
G01 X175.5074 Y325.5326
G01 Y325.8201
G01 X175.5076 Y326.1075
G02 X175.5235 Y329.2690 I351.7508 J-0.1929
G02 X175.9634 Y339.3156 I115.3612 J-0.0173
G02 X176.7846 Y343.8327 I23.9588 J-2.0225
G02 X177.6983 Y345.6080 I4.5382 J-1.2130
G02 X179.5444 Y345.7831 I1.0086 J-0.8151
G01 X179.7679 Y345.5779
G02 X180.6587 Y344.0016 I-4.0212 J-3.3125
G02 X181.6135 Y339.8668 I-20.8624 J-6.9949
G01 X181.6566 Y339.5662
G02 X182.3876 Y329.5766 I-101.9674 J-12.4836
G01 X182.3976 Y329.2731
G02 X182.5798 Y309.9911 I-694.7798 J-16.2079
G03 X182.5994 Y306.5743 I645.4788 J1.9916
G03 X183.0808 Y293.2601 I184.8295 J0.0172
G03 X184.0381 Y286.8459 I41.3589 J2.8942
G03 X185.1544 Y283.9937 I9.6919 J2.1487
G03 X186.0695 Y283.0339 I2.5843 J1.5476
G03 X187.2113 Y283.1408 I0.5107 J0.6969
G03 X187.8521 Y284.2026 I-2.2869 J2.1044
G03 X188.6948 Y287.8461 I-16.5298 J5.7424
G01 X188.7381 Y288.1553
G03 X189.4314 Y298.1206 I-104.8251 J12.2991
G01 X189.4411 Y298.4328
G01 X189.4504 Y298.7449
G03 X189.5932 Y319.7312 I-739.7442 J15.5273
G01 Y320.0763
G01 Y320.4213
G01 X189.5934 Y320.7664
G02 X189.6092 Y325.2524 I652.0776 J-0.0661
G01 X189.6119 Y325.5975
G02 X190.0533 Y338.0096 I174.9503 J-0.0067
G02 X190.8782 Y343.4622 I33.7026 J-2.3106
G02 X191.6567 Y345.3714 I6.0621 J-1.3583
G01 X191.8674 Y345.6443
G02 X193.6415 Y345.7146 I0.9171 J-0.7226
G01 X193.8630 Y345.4739
G02 X194.7284 Y343.7211 I-5.2201 J-3.6672
G02 X195.7505 Y338.5919 I-27.2039 J-8.0878
G02 X196.4814 Y327.1608 I-129.8570 J-14.0417
G02 X196.6328 Y307.2942 I-788.7501 J-15.9441
G03 X196.6524 Y303.6023 I529.5803 J0.9646
G03 X197.0353 Y293.3883 I136.4833 J0.0024
G03 X197.6787 Y289.4708 I21.0930 J1.4524
G03 X198.2875 Y288.1989 I3.3278 J0.8114
G03 X199.3060 Y287.9893 I0.6244 J0.4545
G01 X199.5464 Y288.1399
G01 X199.7636 Y288.3226
G03 X201.2743 Y290.7363 I-5.1807 J4.9220
G01 X201.3928 Y291.0368
G01 X201.5043 Y291.3400
G03 X202.7647 Y297.0067 I-29.1873 J9.4652
G01 X202.8081 Y297.3268
G03 X203.5737 Y308.9254 I-111.8742 J13.2088
G01 X203.5811 Y309.2484
G03 X203.6110 Y326.4281 I-738.0424 J9.8746
G02 X203.6097 Y327.5059 I511.9636 J1.1497
G01 X203.6098 Y327.7753
G01 X203.6100 Y328.0448
G02 X203.6303 Y331.2779 I285.3403 J-0.1806
G02 X204.1110 Y340.4218 I87.3833 J-0.0087
G02 X204.9875 Y344.3567 I16.6180 J-1.6365
G02 X205.6554 Y345.5196 I3.7615 J-1.3872
G02 X207.9382 Y345.6075 I1.1777 J-0.8998
G02 X208.9385 Y343.8826 I-3.6080 J-3.2448
G01 X209.0233 Y343.6462
G02 X209.9763 Y338.9791 I-23.6353 J-7.2569
G02 X210.5806 Y328.7045 I-109.3383 J-11.5861
G02 X210.7326 Y314.3404 I-8327.0481 J-95.2692
G03 X211.1708 Y306.9449 I71.4822 J0.5252
G03 X211.8763 Y304.0763 I10.1411 J0.9729
G03 X212.2199 Y303.5446 I1.9213 J0.8649
G03 X213.3698 Y303.3696 I0.6752 J0.5715
G03 X213.8812 Y303.7437 I-1.3156 J2.3349
G03 X215.6979 Y306.5550 I-5.8288 J5.7594
G03 X217.0545 Y312.0274 I-21.9602 J8.3483
G03 X217.6524 Y321.5869 I-77.5322 J9.6473
G03 X217.6065 Y333.4167 I-1348.9320 J0.6813
G02 X217.6229 Y335.3596 I136.7802 J-0.1809
G02 X218.0638 Y341.7511 I47.1318 J-0.0406
G02 X218.9320 Y344.7229 I10.0976 J-1.3374
G02 X219.2399 Y345.2172 I3.3547 J-1.7465
G02 X222.4260 Y345.3880 I1.6558 J-1.0854
G02 X222.7498 Y344.9710 I-2.5816 J-2.3391
G02 X223.8057 Y342.1857 I-7.5810 J-4.4670
G02 X224.5038 Y336.0676 I-37.5294 J-7.3809
G01 X224.5122 Y335.8916
G02 X224.7042 Y326.1878 I-429.9022 J-13.3608
G03 X225.0909 Y320.7732 I40.1747 J0.1475
G03 X225.6948 Y318.8768 I5.4115 J0.6791
G01 X225.7756 Y318.7589
G03 X227.0367 Y318.4568 I0.7868 J0.5015
G03 X227.8450 Y319.0402 I-1.5726 J3.0307
G03 X230.5839 Y323.7242 I-7.6946 J7.6420
G03 X230.7727 Y324.3750 I-16.0325 J5.0032
G03 X231.6058 Y331.0848 I-28.7265 J6.9732
G03 X231.6237 Y331.9317 I-62.6112 J1.7497
G03 X231.5852 Y338.9353 I-3745.6315 J-17.0900
G02 X231.5982 Y339.6634 I46.3713 J-0.4672
G02 X232.0409 Y343.5128 I17.1524 J-0.0220
G02 X232.4209 Y344.5350 I5.3853 J-1.4202
G02 X234.6945 Y346.1107 I2.3888 J-1.0186
G02 X237.5994 Y344.4725 I0.3101 J-2.8448
G02 X238.3832 Y341.6998 I-7.6026 J-3.6461
G02 X238.6237 Y336.6879 I-46.1198 J-4.7251
G03 X238.7876 Y334.2955 I18.2044 J0.0454
G03 X239.2638 Y333.1080 I2.1737 J0.1824
G03 X239.9156 Y332.9536 I0.4636 J0.5045
G03 X241.1019 Y333.6733 I-1.0988 J3.1486
G03 X245.3567 Y339.2024 I-14.4143 J15.4939
G03 X246.4149 Y343.3832 I-7.6914 J4.1712
G03 X245.4805 Y346.1243 I-4.5767 J-0.0303
G00 Z5.0000


(No. 6: Engraving 29)
G00 X258.0878 Y345.5170 Z5.0000
G00 Z0.5000
G01 Z-0.0100 F1200
G03 X257.5590 Y345.9268 I-7.4077 J-9.0130
G03 X261.2614 Y342.9282 I88.2732 J105.2072
G03 X262.2282 Y342.4233 I1.6950 J2.0672
G03 X262.5438 Y342.7313 I0.0163 J0.2990
G03 X262.5714 Y344.0300 I-136.9055 J3.5510
G01 X262.5800 Y344.1296
G01 X262.5914 Y344.2289
G02 X264.0361 Y345.7912 I1.6643 J-0.0900
G02 X265.9748 Y345.6594 I0.7476 J-3.3291
G02 X266.8953 Y344.2744 I-0.8191 J-1.5428
G02 X266.9671 Y343.7009 I-5.6448 J-0.9975
G03 X267.0887 Y340.8131 I70.7106 J1.5316
G03 X267.1454 Y340.3540 I9.9181 J0.9922
G03 X269.9705 Y335.9616 I5.8184 J0.6375
G03 X270.2439 Y335.8388 I0.9254 J1.6944
G03 X271.1755 Y336.1696 I0.3098 J0.6048
G03 X271.4797 Y337.7289 I-3.8572 J1.5618
G01 X271.4844 Y337.8288
G03 X271.4850 Y341.9344 I-1058.7959 J2.1961
G02 X271.4957 Y342.2342 I20.6695 J-0.5868
G02 X271.9785 Y344.8751 I7.5309 J-0.0124
G01 X272.0217 Y344.9653
G02 X275.2033 Y344.9795 I1.5939 J-0.6846
G02 X275.4747 Y344.2963 I-3.5643 J-1.8110
G02 X275.8823 Y341.2020 I-13.3578 J-3.3340
G01 X275.8898 Y341.0181
G03 X276.0564 Y335.3159 I152.6513 J1.6066
G03 X276.8122 Y331.3530 I13.8115 J0.5807
G01 X276.8813 Y331.1824
G03 X278.5812 Y329.0746 I3.9304 J1.4304
G01 X278.6694 Y329.0274
G01 X278.7603 Y328.9859
G03 X279.8535 Y329.3745 I0.3717 J0.6861
G03 X280.1052 Y330.0256 I-2.5654 J1.3658
G03 X280.4143 Y333.0034 I-14.2589 J2.9850
G03 X280.3890 Y339.8769 I-1091.0259 J-0.5736
G02 X280.3947 Y340.1927 I46.8513 J-0.6881
G02 X280.7532 Y343.9593 I20.1181 J-0.0145
G02 X281.3253 Y345.4215 I4.2547 J-0.8216
G02 X283.6182 Y345.4226 I1.1468 J-0.6716
G02 X284.1450 Y344.2698 I-3.4743 J-2.2844
G02 X284.7028 Y340.5005 I-17.5647 J-4.5255
G01 X284.7101 Y340.3850
G02 X284.9111 Y332.1919 I-257.0473 J-10.4033
G03 X285.4556 Y325.7800 I41.6783 J0.3100
G03 X286.4933 Y322.7483 I9.1951 J1.4540
G03 X287.7326 Y321.5755 I2.3823 J1.2762
G03 X288.4082 Y321.7511 I0.2065 J0.5928
G03 X288.9441 Y322.9820 I-2.3296 J1.7462
G03 X289.3200 Y326.9060 I-22.0764 J4.0947
G03 X289.2897 Y336.4297 I-356.5744 J3.6292
G01 X289.2896 Y336.5723
G01 X289.2897 Y336.7149
G02 X289.3044 Y338.4256 I101.9369 J-0.0197
G02 X289.6973 Y343.5377 I33.6633 J-0.0164
G02 X290.3920 Y345.5455 I5.4802 J-0.7721
G01 X290.4770 Y345.6599
G02 X292.2253 Y345.6244 I0.8624 J-0.5956
G01 X292.3155 Y345.5024
G02 X293.0496 Y343.5217 I-5.3937 J-3.1257
G02 X293.6074 Y338.3981 I-34.0019 J-6.2934
G02 X293.8296 Y327.3964 I-417.3541 J-13.9347
G03 X294.3395 Y319.4544 I68.2637 J0.3951
G03 X295.1955 Y316.1105 I13.1728 J1.5907
G03 X296.2362 Y314.7790 I2.6389 J0.9901
G03 X297.2012 Y314.9610 I0.3999 J0.5292
G01 X297.2898 Y315.0905
G03 X297.8418 Y316.8815 I-5.0148 J2.5262
G03 X298.2274 Y322.2014 I-40.5257 J5.6118
G03 X298.1874 Y334.3432 I-582.8107 J4.1490
G01 X298.1872 Y334.5183
G01 Y334.6933
G01 X298.1873 Y334.8684
G02 X298.2031 Y336.9691 I148.3538 J-0.0676
G02 X298.5954 Y343.0794 I48.0864 J-0.0195
G02 X299.2611 Y345.4266 I7.4237 J-0.8376
G01 X299.3512 Y345.5767
G01 X299.4533 Y345.7188
G02 X300.8512 Y345.8229 I0.7372 J-0.4615
G02 X301.1786 Y345.3711 I-1.6048 J-1.5076
G02 X301.8945 Y343.0643 I-7.6543 J-3.6401
G01 X301.9281 Y342.8808
G02 X302.5137 Y336.1961 I-53.4176 J-8.0472
G02 X302.7384 Y322.5016 I-662.2993 J-17.7143
G03 X303.2243 Y313.0576 I102.7695 J0.5536
G03 X304.0126 Y309.1496 I19.0412 J1.8073
G03 X304.9765 Y307.5475 I3.4396 J0.9783
G01 X305.1335 Y307.4379
G03 X305.9695 Y307.6254 I0.3302 J0.4854
G01 X306.0754 Y307.7850
G01 X306.1646 Y307.9547
G03 X306.7159 Y310.1800 I-8.0876 J3.1845
G03 X307.1186 Y316.6813 I-60.6961 J7.0231
G03 X307.0864 Y331.6480 I-711.7020 J5.9533
G02 X307.0854 Y332.2841 I341.8950 J0.8508
G01 Y332.4962
G01 X307.0855 Y332.7083
G02 X307.1015 Y335.2529 I214.9719 J-0.0808
G02 X307.4799 Y342.4495 I69.0171 J-0.0203
G02 X308.1573 Y345.3291 I10.2537 J-0.8926
G02 X308.5014 Y345.8611 I1.7759 J-0.7715
G02 X309.6416 Y345.8493 I0.5652 J-0.4794
G02 X310.1029 Y345.0983 I-1.9135 J-1.6926
G02 X310.7940 Y342.3101 I-12.0387 J-4.4640
G02 X311.3938 Y334.5850 I-73.1914 J-9.5686
G02 X311.6254 Y318.2279 I-714.9106 J-18.2997
G03 X312.0674 Y306.9306 I152.3655 J0.3050
G03 X312.8128 Y302.3258 I26.7226 J1.9625
G03 X313.6428 Y300.5592 I4.6920 J1.1263
G01 X313.8191 Y300.3882
G03 X314.7683 Y300.5423 I0.4242 J0.3871
G01 X314.8818 Y300.7378
G01 X314.9760 Y300.9434
G03 X315.5236 Y303.3647 I-10.6603 J3.6835
G03 X315.9819 Y310.8124 I-74.9143 J8.3480
G01 X315.9869 Y311.0385
G03 X315.9820 Y328.5804 I-746.8348 J8.5621
G02 X315.9787 Y330.3133 I494.4856 J1.8000
G01 X315.9788 Y330.5608
G02 X315.9968 Y333.7789 I288.5553 J-0.0043
G01 X315.9998 Y334.0265
G02 X316.4288 Y342.4284 I82.6127 J-0.0061
G02 X316.9875 Y345.0881 I12.6958 J-1.2784
G02 X317.4817 Y345.9365 I2.1739 J-0.6982
G02 X318.3874 Y345.9301 I0.4498 J-0.4327
G02 X318.9204 Y345.0591 I-1.7770 J-1.6860
G02 X319.6523 Y341.8026 I-14.9496 J-5.0706
G02 X320.2698 Y333.0793 I-94.3887 J-11.0648
G02 X320.5007 Y314.2517 I-750.6330 J-18.6214
G03 X320.8347 Y301.6278 I242.0098 J0.0865
G03 X321.5288 Y295.7801 I42.0752 J2.0289
G03 X322.2700 Y293.6714 I7.0524 J1.2943
G03 X322.8601 Y293.1189 I1.0676 J0.5491
G01 X323.1171 Y293.1079
G01 X323.3396 Y293.2400
G03 X323.7352 Y293.9098 I-1.5481 J1.3662
G03 X324.3578 Y296.9762 I-13.8271 J4.4035
G03 X324.8474 Y305.8448 I-103.8956 J10.1839
G03 X324.8719 Y326.0080 I-862.2456 J11.1278
G02 X324.8683 Y327.9835 I710.3001 J2.2739
G01 Y328.2657
G01 X324.8684 Y328.5480
G02 X324.8815 Y331.6524 I400.0551 J-0.1333
G02 X325.2142 Y340.9576 I130.9535 J-0.0244
G02 X325.8307 Y344.8539 I20.3116 J-1.2170
G02 X326.3120 Y345.8673 I2.9426 J-0.7765
G02 X327.2891 Y345.8688 I0.4890 J-0.3283
G02 X327.7164 Y345.1192 I-2.1911 J-1.7456
G02 X328.4658 Y341.7405 I-15.2255 J-5.1497
G01 X328.5037 Y341.4540
G02 X329.1394 Y331.9406 I-110.5836 J-12.1675
G01 X329.1487 Y331.6517
G02 X329.3716 Y310.1576 I-832.2834 J-19.3774
G03 X329.3889 Y307.2992 I872.1021 J3.8562
G03 X329.7843 Y293.9674 I225.3026 J0.0112
G03 X330.5315 Y288.3056 I36.2015 J1.8972
G03 X331.2196 Y286.5387 I5.1200 J0.9764
G01 X331.4238 Y286.2961
G03 X332.1808 Y286.3017 I0.3766 J0.2586
G03 X332.5658 Y287.0896 I-2.2654 J1.5949
G03 X333.1494 Y290.2649 I-17.8968 J4.9310
G03 X333.6817 Y299.9475 I-122.5190 J11.5902
G03 X333.7602 Y322.9451 I-905.6590 J14.5925
G02 X333.7564 Y325.4994 I1067.0569 J2.8814
G01 Y325.8186
G01 X333.7565 Y326.1379
G02 X333.7713 Y329.9693 I536.3432 J-0.1529
G02 X334.1118 Y340.4982 I163.8714 J-0.0300
G02 X334.7680 Y344.9124 I23.0360 J-1.1687
G02 X335.3633 Y346.0220 I2.3108 J-0.5250
G01 X335.6585 Y346.1279
G01 X335.9629 Y346.0227
G02 X336.6118 Y344.9052 I-1.7233 J-1.7480
G01 X336.7106 Y344.5930
G02 X337.4261 Y340.4007 I-26.4475 J-6.6710
G02 X338.0553 Y328.9574 I-156.4823 J-14.3433
G02 X338.2327 Y304.3752 I-1050.4438 J-19.8700
G03 X338.2488 Y300.1453 I961.1605 J1.5564
G03 X338.5804 Y287.1089 I258.1347 J0.0432
G03 X339.2522 Y281.1592 I44.3675 J1.9969
G03 X339.7733 Y279.4798 I7.2548 J1.3304
G01 X339.9483 Y279.1741
G01 X340.1798 Y278.9098
G01 X340.4761 Y278.7720
G01 X340.7805 Y278.8819
G01 X340.9950 Y279.1337
G01 X341.1539 Y279.4249
G03 X341.7166 Y281.3318 I-9.6224 J3.8759
G03 X342.5563 Y288.2495 I-60.9567 J10.9089
G03 X343.1992 Y306.8290 I-295.4664 J19.5256
G01 X343.2017 Y307.1610
G03 X342.3084 Y346.1279 I-753.9180 J2.2091
G00 Z5.0000


(No. 7: Engraving 30)
G00 X342.3912 Y344.3800 Z5.0000
G00 Z0.5000
G01 Z-0.0100 F1200
G01 X349.2231 Y348.7449
G01 X347.9726 Y271.8858
G00 Z5.0000


(No. 8: Engraving 31)
G00 X345.0429 Y269.5501 Z5.0000
G00 Z0.5000
G01 Z-0.0100 F1200
G02 X345.9434 Y201.3931 I-2246.5224 J-63.7660
G02 X345.2718 Y167.5476 I-932.2830 J1.5688
G02 X344.3806 Y154.5139 I-202.2573 J7.2830
G02 X343.7019 Y150.4156 I-30.0759 J2.8755
G01 X343.5233 Y149.8493
G01 X343.2557 Y149.3214
G01 X342.7526 Y149.2262
G01 X342.4285 Y149.7270
G02 X341.8651 Y152.0598 I10.3766 J3.7404
G02 X341.2050 Y159.8460 I85.1770 J11.1427
G01 X341.1768 Y160.4467
G02 X340.7735 Y182.0895 I586.1919 J21.7476
G02 X340.7530 Y191.7107 I2266.4850 J9.6542
G01 X340.7528 Y192.3120
G01 Y192.9134
G01 Y193.5147
G02 X340.7566 Y200.1293 I9467.6032 J-2.1816
G01 X340.7571 Y200.7307
G01 X340.7576 Y201.3320
G01 X340.7581 Y201.9333
G01 X340.7586 Y202.5347
G01 X340.7591 Y203.1360
G01 X340.7595 Y203.7373
G03 X340.5223 Y240.6735 I-1812.9817 J6.8243
G03 X339.8564 Y256.4201 I-288.9758 J-4.3321
G03 X339.2382 Y261.2697 I-40.5529 J-2.7054
G01 X339.1085 Y261.7974
G01 X338.9371 Y262.3129
G01 X338.6610 Y262.7770
G01 X338.1855 Y262.7439
G01 X337.8864 Y262.2711
G01 X337.6918 Y261.7439
G03 X337.1563 Y258.9867 I18.7148 J-5.0656
G03 X336.5297 Y250.5774 I106.7049 J-12.1786
G03 X336.1563 Y229.2130 I614.5418 J-21.4259
G03 X336.1395 Y220.2156 I2421.7962 J-9.0190
G01 X336.1394 Y219.6533
G01 X336.1393 Y219.0909
G01 Y218.5286
G03 X336.1402 Y215.1546 I9705.4830 J0.8501
G01 X336.1404 Y214.5922
G01 X336.1407 Y214.0299
G01 X336.1410 Y213.4675
G01 X336.1412 Y212.9052
G01 X336.1415 Y212.3429
G01 X336.1417 Y211.7805
G01 X336.1419 Y211.2182
G02 X335.8974 Y176.9751 I-1568.0608 J-5.9260
G02 X335.2487 Y162.8754 I-243.2988 J4.1285
G02 X334.6273 Y158.3841 I-34.2771 J2.4540
G01 X334.4962 Y157.8974
G01 X334.3228 Y157.4243
G01 X334.0466 Y157.0071
G01 X333.5928 Y157.0271
G01 X333.2928 Y157.4444
G01 X333.0960 Y157.9222
G02 X332.5550 Y160.4474 I15.4482 J4.6303
G02 X331.9213 Y168.1764 I89.5499 J11.2325
G02 X331.5377 Y187.8238 I514.1022 J19.8651
G02 X331.5192 Y196.0985 I1941.0774 J8.4591
G01 X331.5191 Y196.6157
G01 X331.5190 Y197.1329
G01 Y197.6501
G02 X331.5214 Y203.3390 I9735.2025 J-1.3586
G01 X331.5217 Y203.8561
G01 X331.5220 Y204.3733
G01 X331.5223 Y204.8905
G03 X331.3051 Y235.6478 I-1360.3190 J5.7720
G03 X330.6834 Y248.5097 I-205.2436 J-3.4751
G03 X330.0661 Y252.5991 I-27.4777 J-2.0564
G01 X329.9314 Y253.0387
G01 X329.7480 Y253.4600
G01 X329.4399 Y253.7906
G01 X329.0293 Y253.6567
G01 X328.7570 Y253.2658
G01 X328.5662 Y252.8277
G03 X328.0188 Y250.5039 I13.5274 J-4.4131
G03 X327.3313 Y242.8879 I77.0408 J-10.7937
G03 X326.9263 Y223.7679 I453.5534 J-19.1713
G03 X326.9050 Y214.6832 I1978.1165 J-9.1915
G03 X326.9044 Y212.2924 I6098.6226 J-2.6094
G01 Y211.8143
G01 Y211.3361
G01 Y210.8580
G01 Y210.3798
G01 X326.9045 Y209.9017
G01 Y209.4235
G01 Y208.9454
G02 X326.6733 Y180.8437 I-1130.4441 J-4.7530
G02 X326.0622 Y169.5071 I-163.3795 J3.1220
G02 X325.4367 Y165.7788 I-22.3186 J1.8280
G01 X325.2991 Y165.3815
G01 X325.1120 Y165.0055
G01 X324.8076 Y164.7266
G01 X324.4221 Y164.8374
G01 X324.1524 Y165.1737
G01 X323.9605 Y165.5614
G02 X323.4078 Y167.6504 I10.7593 J3.9640
G02 X322.7140 Y174.5390 I62.4479 J9.7693
G02 X322.3037 Y191.8503 I367.5596 J17.3729
G02 X322.2833 Y199.6434 I1504.2920 J7.8279
G01 X322.2831 Y200.0763
G01 Y200.5092
G01 X322.2830 Y200.9422
G02 X322.2843 Y204.8387 I8499.3901 J-0.8811
G01 X322.2845 Y205.2717
G01 X322.2847 Y205.7046
G03 X322.0730 Y230.8411 I-923.7245 J4.7898
G03 X321.4978 Y240.6136 I-126.7607 J-2.5587
G03 X320.8671 Y243.9376 I-16.6104 J-1.4296
G01 X320.7205 Y244.2842
G01 X320.5116 Y244.5960
G01 X320.1789 Y244.7392
G01 X319.8582 Y244.5547
G01 X319.6190 Y244.2429
G01 X319.4371 Y243.8938
G03 X318.8067 Y241.6213 I10.9999 J-4.2754
G03 X318.1041 Y234.9659 I59.8891 J-9.6866
G01 X318.0809 Y234.5727
G03 X317.6871 Y218.0355 I350.4315 J-16.6179
G03 X317.6673 Y210.1576 I1584.3723 J-7.9059
G03 X317.6665 Y207.7942 I9894.7006 J-4.9253
G01 X317.6663 Y207.4003
G02 X317.4579 Y185.1990 I-781.4397 J-3.7639
G02 X316.8652 Y176.1163 I-103.6638 J2.2038
G02 X316.2171 Y173.1592 I-12.6134 J1.2149
G01 X316.0646 Y172.8588
G01 X315.8497 Y172.6011
G01 X315.5367 Y172.5055
G01 X315.2404 Y172.6571
G01 X315.0085 Y172.9164
G01 X314.8278 Y173.2142
G02 X314.1924 Y175.2014 I8.3293 J3.7584
G02 X313.4825 Y181.0820 I46.1551 J8.5547
G01 X313.4590 Y181.4299
G02 X313.0628 Y196.0674 I270.2412 J14.6400
G02 X313.0462 Y201.9950 I1074.2062 J5.9679
G02 X313.0460 Y203.0411 I2440.8647 J1.0745
G01 Y203.3898
G02 X313.0468 Y205.8306 I8054.9088 J-1.3908
G03 X312.8581 Y225.1377 I-599.9892 J3.7924
G03 X312.2958 Y232.7490 I-74.7694 J-1.6972
G03 X311.7487 Y235.0279 I-10.2575 J-1.2575
G01 X311.6166 Y235.2900
G01 X311.4398 Y235.5234
G01 X311.1883 Y235.6665
G01 X310.9048 Y235.6153
G01 X310.6722 Y235.4379
G01 X310.4732 Y235.2012
G03 X309.6784 Y233.1971 I5.7016 J-3.4205
G01 X309.6065 Y232.8959
G03 X308.8779 Y227.3753 I41.1900 J-8.2441
G03 X308.4516 Y214.0709 I210.9661 J-13.4193
G03 X308.4289 Y207.5690 I961.6826 J-6.6145
G03 X308.4277 Y205.7113 I7235.1953 J-5.5705
G02 X308.2387 Y189.5208 I-458.6619 J-2.7446
G02 X307.6942 Y182.9328 I-58.3349 J1.5057
G02 X307.0722 Y180.7396 I-7.3140 J0.8894
G01 X306.9298 Y180.5292
G02 X306.2580 Y180.3442 I-0.4328 J0.2596
G01 X306.0477 Y180.4862
G01 X305.8617 Y180.6738
G02 X305.0005 Y182.5894 I4.3362 J3.1007
G02 X304.2592 Y187.2856 I29.2396 J7.0219
G02 X303.8274 Y198.6454 I149.9024 J11.3861
G02 X303.8085 Y203.4053 I603.9487 J4.7775
G02 X303.8083 Y204.1986 I1437.2439 J0.8735
G01 Y204.4631
G02 X303.8087 Y205.7853 I3988.3082 J-0.5274
G03 X303.6461 Y219.2734 I-333.0933 J2.7305
G03 X303.1072 Y224.7438 I-38.2471 J-1.0065
G03 X302.5392 Y226.3269 I-4.5277 J-0.7310
G03 X301.6297 Y226.4461 I-0.4990 J-0.2781
G03 X300.6641 Y224.9629 I2.4451 J-2.6478
G01 X300.5839 Y224.7522
G03 X299.6905 Y220.3436 I19.8063 J-6.3087
G03 X299.2147 Y210.4420 I104.5754 J-9.9878
G03 X299.1899 Y205.7090 I462.0300 J-4.7797
G03 X299.1889 Y204.5820 I2678.4742 J-3.0050
G02 X299.0139 Y193.7714 I-213.5358 J-1.9489
G02 X298.4822 Y189.4927 I-24.4602 J0.8671
G02 X297.9138 Y188.2479 I-2.9898 J0.6129
G02 X297.1275 Y188.1288 I-0.4632 J0.4027
G02 X296.0934 Y189.3299 I1.5809 J2.4067
G01 X296.0136 Y189.4916
G02 X295.0930 Y192.9665 I12.2030 J5.0925
G01 X295.0668 Y193.1449
G02 X294.5903 Y201.0602 I65.6742 J7.9257
G02 X294.5707 Y204.1258 I250.6558 J3.1349
G02 X294.5703 Y204.6668 I605.0816 J0.7106
G01 Y204.8471
G01 Y205.0274
G02 X294.5705 Y205.5684 I1793.5916 J-0.3312
G03 X294.4111 Y213.8255 I-124.4769 J1.7264
G03 X293.9558 Y216.6795 I-12.9475 J-0.6021
G03 X293.4062 Y217.5552 I-1.6151 J-0.4033
G03 X292.7778 Y217.5548 I-0.3138 J-0.5562
G03 X291.5482 Y216.2210 I1.8761 J-2.9632
G03 X290.4564 Y212.8763 I9.6372 J-4.9964
G03 X289.9680 Y206.5385 I41.1113 J-6.3554
G03 X289.9525 Y204.8889 I138.2607 J-2.1266
G02 X289.8543 Y198.7632 I-105.2872 J-1.3759
G02 X289.4597 Y196.4473 I-8.4938 J0.2556
G01 X289.3657 Y196.2313
G01 X289.2466 Y196.0281
G02 X288.2133 Y195.7784 I-0.6416 J0.3922
G01 X288.0068 Y195.8916
G01 X287.8128 Y196.0252
G02 X285.9934 Y198.7777 I3.5389 J4.3168
G01 X285.9459 Y198.9261
G02 X285.3482 Y203.3891 I16.4145 J4.4698
G02 X285.3325 Y204.6351 I53.7344 J1.2975
G01 X285.3322 Y204.7908
G01 X285.3321 Y204.9466
G03 X285.2402 Y207.9024 I-25.5452 J0.6851
G03 X284.9569 Y208.7836 I-1.8358 J-0.1042
G03 X284.5605 Y208.9958 I-0.3976 J-0.2664
G03 X283.7228 Y208.6169 I0.2801 J-1.7344
G03 X280.6599 Y205.0389 I8.8911 J-10.7113
G03 X280.1362 Y203.2350 I3.1450 J-1.8910
G01 X280.1422 Y203.1352
G03 X280.7104 Y202.0646 I1.4087 J0.0615
G00 Z5.0000


(No. 9: Engraving 32)
G00 X254.4479 Y345.8924 Z5.0000
G00 Z0.5000
G01 Z-0.0100 F1200
G02 X308.7735 Y302.5907 I-1661.3222 J-2139.9971
G02 X331.6555 Y283.2008 I-534.6890 J-654.1812
G02 X340.6635 Y274.7552 I-118.8363 J-135.7761
G02 X343.3634 Y271.6521 I-20.1954 J-20.2978
G01 X343.6835 Y271.1589
G01 X343.9348 Y270.6283
G01 X343.8919 Y270.0714
G01 X343.3261 Y269.9778
G01 X342.7550 Y270.1398
G02 X340.6369 Y271.2149 I5.5693 J13.5969
G02 X334.2440 Y275.5539 I48.0741 J77.7082
G02 X317.3225 Y288.6572 I320.6126 J431.5148
G02 X285.4550 Y314.4553 I5720.4482 J7098.8641
G03 X263.0984 Y332.1191 I-621.8894 J-764.1299
G03 X253.9291 Y338.6827 I-100.2663 J-130.3838
G03 X250.8445 Y340.4582 I-14.1655 J-21.0427
G01 X250.2968 Y340.6868
G01 X249.7256 Y340.8450
G01 X249.1672 Y340.7339
G01 X249.1582 Y340.1702
G01 X249.4292 Y339.6459
G03 X250.9077 Y337.8042 I11.9807 J8.1041
G03 X256.4354 Y332.4688 I66.4041 J63.2662
G03 X271.7205 Y319.4187 I350.4048 J394.9398
G03 X303.2540 Y293.6765 I4527.1723 J5513.4522
G02 X325.3501 Y275.2368 I-646.1971 J-796.7943
G02 X334.0030 Y267.2956 I-110.6518 J-129.2531
G02 X336.3419 Y264.6631 I-17.0982 J-17.5462
G01 X336.6710 Y264.1768
G01 X336.9319 Y263.6518
G01 X336.8951 Y263.0963
G01 X336.3328 Y263.0010
G01 X335.7646 Y263.1605
G02 X333.6574 Y264.2269 I5.4711 J13.4253
G02 X327.3005 Y268.5397 I47.4173 J76.7327
G02 X310.4795 Y281.5717 I316.6541 J426.0937
G02 X278.7856 Y307.2497 I5645.0543 J6999.9809
G03 X256.5230 Y324.8501 I-614.8490 J-754.8395
G03 X247.3897 Y331.3871 I-99.1605 J-128.8954
G03 X244.3162 Y333.1535 I-14.0399 J-20.8724
G01 X243.7704 Y333.3806
G01 X243.2014 Y333.5379
G01 X242.6425 Y333.4329
G01 X242.6227 Y332.8743
G01 X242.8895 Y332.3516
G03 X244.3565 Y330.5178 I11.8063 J7.9408
G03 X249.8489 Y325.2085 I65.7480 J62.5203
G03 X265.0414 Y312.2248 I347.4430 J391.1711
G03 X296.4043 Y286.6005 I4490.8912 J5464.6137
G02 X318.4072 Y268.2217 I-641.1687 J-789.9585
G02 X327.0215 Y260.3052 I-109.7911 J-128.1148
G02 X329.3483 Y257.6801 I-16.9577 J-17.3745
G01 X329.6753 Y257.1951
G01 X329.9338 Y256.6714
G01 X329.8952 Y256.1181
G01 X329.3346 Y256.0220
G01 X328.7678 Y256.1804
G02 X326.6662 Y257.2429 I5.4232 J13.3364
G02 X320.3276 Y261.5440 I47.1003 J76.2336
G02 X303.5581 Y274.5444 I314.7366 J423.3016
G02 X271.9633 Y300.1626 I5603.4344 J6942.9700
G03 X249.7689 Y317.7218 I-611.3771 J-749.9574
G03 X240.6623 Y324.2423 I-98.5680 J-128.0426
G03 X237.5970 Y326.0032 I-13.9470 J-20.7305
G01 X237.0526 Y326.2293
G01 X236.4850 Y326.3855
G01 X235.9278 Y326.2799
G01 X235.9062 Y325.7228
G01 X236.1712 Y325.2011
G03 X237.6318 Y323.3707 I11.7339 J7.8651
G03 X243.1050 Y318.0725 I65.3672 J62.0498
G03 X258.2482 Y305.1181 I345.4594 J388.5034
G03 X289.5128 Y279.5529 I4460.1608 J5422.5712
G02 X311.4467 Y261.2153 I-637.6073 J-784.9408
G02 X320.0324 Y253.3156 I-109.1595 J-127.2545
G02 X322.3501 Y250.6955 I-16.8557 J-17.2457
G01 X322.6755 Y250.2114
G01 X322.9321 Y249.6886
G01 X322.8921 Y249.1368
G01 X322.3347 Y249.0393
G01 X321.7704 Y249.1955
G02 X319.6786 Y250.2504 I5.3361 J13.1822
G02 X313.3721 Y254.5285 I46.5330 J75.3850
G02 X297.1500 Y267.0995 I307.2541 J413.2422
G01 X296.6922 Y267.4660
G02 X265.2786 Y292.9577 I5521.4275 J6836.2016
G03 X243.2217 Y310.4204 I-605.0394 J-741.5538
G03 X234.1696 Y316.9029 I-97.4335 J-126.4944
G03 X231.1214 Y318.6515 I-13.7519 J-20.4424
G01 X230.5798 Y318.8752
G01 X230.0151 Y319.0287
G01 X229.4626 Y318.9185
G01 X229.4421 Y318.3634
G01 X229.7042 Y317.8437
G03 X231.1536 Y316.0201 I11.6202 J7.7478
G03 X236.5926 Y310.7438 I64.6393 J61.1907
G03 X251.6489 Y297.8481 I341.3405 J383.2927
G03 X282.7317 Y272.4094 I4390.2910 J5332.6600
G02 X304.5257 Y254.1710 I-630.0832 J-775.0577
G02 X313.0537 Y246.3116 I-107.8097 J-125.5391
G02 X315.3534 Y243.7036 I-16.6352 J-16.9865
G01 X315.6755 Y243.2215
G01 X315.9286 Y242.7008
G01 X315.8859 Y242.1523
G01 X315.3300 Y242.0541
G01 X314.7670 Y242.2094
G02 X312.6800 Y243.2610 I5.2957 J13.1062
G02 X306.3895 Y247.5292 I46.2596 J74.9476
G02 X290.2113 Y260.0745 I305.6414 J410.8525
G01 X289.7548 Y260.4402
G02 X258.4266 Y285.8831 I5487.4209 J6788.7772
G03 X236.4261 Y303.3140 I-602.0555 J-737.2878
G03 X227.3959 Y309.7835 I-96.9366 J-125.7671
G03 X224.3544 Y311.5277 I-13.6785 J-20.3288
G01 X223.8140 Y311.7507
G01 X223.2504 Y311.9032
G01 X222.6990 Y311.7932
G01 X222.6763 Y311.2397
G01 X222.9367 Y310.7207
G03 X224.3805 Y308.8999 I11.5576 J7.6819
G03 X229.8027 Y303.6330 I64.3265 J60.7982
G03 X244.8162 Y290.7617 I339.7333 J381.0841
G03 X275.8144 Y265.3712 I4366.6322 J5299.4294
G02 X297.5508 Y247.1649 I-627.2271 J-770.9239
G02 X306.0549 Y239.3187 I-107.3025 J-124.8305
G02 X308.3471 Y236.7145 I-16.5520 J-16.8796
G01 X308.6678 Y236.2331
G01 X308.9193 Y235.7131
G01 X308.8753 Y235.1659
G01 X308.3220 Y235.0666
G01 X307.7612 Y235.2200
G02 X305.6827 Y236.2652 I5.2235 J12.9776
G02 X299.4200 Y240.5137 I45.7709 J74.2107
G02 X283.3177 Y253.0070 I302.6721 J406.7299
G01 X282.8633 Y253.3713
G02 X251.6859 Y278.7119 I5421.7644 J6702.4251
G03 X229.7909 Y296.0713 I-596.6280 J-730.0254
G03 X220.8021 Y302.5123 I-96.0040 J-124.4865
G03 X217.7736 Y304.2470 I-13.5343 J-20.1174
G01 X217.2353 Y304.4683
G01 X216.6740 Y304.6190
G01 X216.1253 Y304.5077
G01 X216.1005 Y303.9567
G01 X216.3581 Y303.4393
G03 X217.7922 Y301.6244 I11.4445 J7.5694
G03 X223.1850 Y296.3767 I63.7345 J60.1009
G03 X238.5683 Y283.1857 I340.8982 J381.9905
G03 X269.4142 Y257.9033 I4834.5100 J5866.9072
G02 X290.5965 Y240.1364 I-615.4990 J-755.3320
G02 X299.0557 Y232.3204 I-106.2839 J-123.5148
G02 X301.3338 Y229.7252 I-16.3876 J-16.6828
G01 X301.6519 Y229.2453
G01 X301.9007 Y228.7270
G01 X301.8542 Y228.1824
G01 X301.3034 Y228.0822
G01 X300.7446 Y228.2339
G02 X298.6742 Y229.2729 I5.1534 J12.8522
G02 X292.4378 Y233.5028 I45.3028 J73.5035
G02 X276.4072 Y245.9474 I299.8760 J402.8352
G01 X275.9549 Y246.3103
G02 X244.9165 Y271.5582 I5362.4533 J6624.0182
G03 X223.1136 Y288.8564 I-591.5118 J-723.1570
G03 X214.1608 Y295.2727 I-95.1511 J-123.3131
G03 X211.1435 Y296.9992 I-13.4092 J-19.9356
G01 X210.6071 Y297.2190
G01 X210.0477 Y297.3682
G01 X209.5009 Y297.2574
G01 X209.4722 Y296.7092
G01 X209.7271 Y296.1932
G03 X211.1520 Y294.3839 I11.3357 J7.4621
G03 X216.5171 Y289.1545 I63.1949 J59.4674
G03 X231.8271 Y276.0127 I338.0997 J378.3912
G03 X262.5322 Y250.8245 I4787.4729 J5804.7462
G02 X283.6212 Y233.1194 I-610.6378 J-748.7615
G02 X292.0410 Y225.3291 I-105.4170 J-122.3807
G02 X294.3068 Y222.7416 I-16.2429 J-16.5090
G01 X294.6227 Y222.2630
G01 X294.8689 Y221.7460
G01 X294.8202 Y221.2038
G01 X294.2715 Y221.1029
G01 X293.7147 Y221.2530
G02 X291.6515 Y222.2865 I5.0926 J12.7431
G02 X285.4389 Y226.5000 I44.8840 J72.8659
G02 X269.4734 Y238.9012 I297.3439 J399.2843
G01 X269.0230 Y239.2628
G02 X238.1124 Y264.4269 I5307.7905 J6551.4537
G03 X216.3966 Y281.6682 I-586.8734 J-716.8851
G03 X207.4777 Y288.0615 I-94.3607 J-122.2177
G03 X204.4710 Y289.7803 I-13.2892 J-19.7581
G01 X203.9363 Y289.9987
G01 X203.3788 Y290.1466
G01 X202.8339 Y290.0357
G01 X202.8023 Y289.4898
G01 X203.0546 Y288.9751
G03 X204.4712 Y287.1709 I11.2375 J7.3645
G03 X209.8108 Y281.9578 I62.6985 J58.8796
G03 X225.0534 Y268.8602 I335.5005 J375.0266
G03 X255.6274 Y243.7584 I4742.4843 J5745.1786
G02 X276.6269 Y226.1123 I-606.0634 J-742.5531
G02 X285.0090 Y218.3465 I-104.5962 J-121.3041
G02 X287.2629 Y215.7664 I-16.1057 J-16.3438
G01 X287.5766 Y215.2890
G01 X287.8203 Y214.7733
G01 X287.7692 Y214.2334
G01 X287.2226 Y214.1321
G01 X286.6675 Y214.2808
G02 X284.6110 Y215.3093 I5.0364 J12.6410
G02 X278.4207 Y219.5075 I44.4940 J72.2705
G02 X262.5159 Y231.8686 I294.9650 J395.9375
G01 X262.0672 Y232.2291
G02 X231.2832 Y257.3103 I5252.7579 J6478.5552
G03 X209.6631 Y274.4879 I-582.4624 J-710.9008
G03 X200.7820 Y280.8561 I-93.5868 J-121.1393
G03 X197.7870 Y282.5667 I-13.1591 J-19.5630
G01 X197.2544 Y282.7836
G01 X196.6988 Y282.9295
G01 X196.1570 Y282.8160
G01 X196.1254 Y282.2717
G01 X196.3756 Y281.7584
G03 X197.7839 Y279.9588 I11.1570 J7.2808
G03 X203.0987 Y274.7609 I62.1996 J58.2813
G03 X218.2762 Y261.7048 I332.6768 J371.3831
G03 X248.7146 Y236.6931 I4687.6857 J5673.7322
G02 X269.6074 Y219.1205 I-600.9865 J-735.7404
G02 X277.9448 Y211.3855 I-103.6464 J-120.0808
G02 X280.1847 Y208.8147 I-15.9379 J-16.1477
G01 X280.4959 Y208.3388
G01 X280.7365 Y207.8247
G01 X280.6809 Y207.2881
G01 X280.3367 Y207.1297
G01 X279.9530 Y207.1259
G01 X279.5746 Y207.1947
G02 X277.1072 Y208.2608 I3.6167 J11.7591
G02 X270.6424 Y212.4327 I35.3198 J61.8259
G02 X255.6672 Y223.8940 I199.4695 J276.1371
G02 X220.9747 Y253.0316 I778.2504 J961.8408
G01 X220.6913 Y253.2788
G00 Z5.0000


(No. 10: Engraving 33)
G00 X221.8258 Y252.2913 Z5.0000
G00 Z0.5000
G01 Z-0.0100 F1200
G01 X227.4054 Y216.9974
G00 Z5.0000


(No. 11: Engraving 34)
G00 X275.2515 Y205.4090 Z5.0000
G00 Z0.5000
G01 Z-0.0100 F1200
G02 X276.0233 Y204.1252 I-0.4999 J-1.1745
G02 X275.3323 Y202.1653 I-4.3565 J0.4343
G01 X275.2807 Y202.0797
G02 X271.5598 Y197.8787 I-16.5562 J10.9159
G02 X270.5256 Y197.3605 I-1.4156 J1.5341
G02 X269.7857 Y197.8783 I-0.0325 J0.7411
G01 X269.7150 Y198.0600
G01 X269.6592 Y198.2469
G02 X269.4118 Y200.7659 I13.2571 J2.5737
G03 X269.1141 Y206.4122 I-56.1835 J-0.1307
G03 X267.8006 Y211.0822 I-13.7829 J-1.3570
G03 X265.6738 Y213.5925 I-6.2348 J-3.1262
G01 X265.4212 Y213.7456
G01 X265.1519 Y213.8667
G03 X263.9314 Y213.3440 I-0.3550 J-0.8574
G03 X263.6355 Y212.5107 I3.3961 J-1.6750
G03 X263.3279 Y209.2798 I17.1162 J-3.2596
G03 X263.3171 Y208.3932 I51.8344 J-1.0741
G01 X263.3166 Y208.0977
G03 X263.3256 Y206.9155 I91.4828 J0.1046
G02 X263.4244 Y197.7548 I-226.5124 J-7.0236
G02 X262.7667 Y191.2960 I-33.9997 J0.1993
G02 X261.3526 Y187.7491 I-9.8244 J1.8616
G02 X260.1409 Y186.5729 I-3.1481 J2.0310
G02 X258.9854 Y186.8259 I-0.4507 J0.7068
G02 X258.3612 Y188.3225 I3.7679 J2.4499
G02 X257.7851 Y192.8516 I27.6683 J5.8205
G02 X257.4289 Y204.0647 I344.4662 J16.5554
G03 X256.7590 Y214.8502 I-118.6728 J-1.9573
G03 X255.5854 Y220.4688 I-28.1135 J-2.9403
G03 X254.1547 Y223.0703 I-6.9759 J-2.1423
G03 X253.2623 Y223.6809 I-1.4953 J-1.2280
G03 X252.3718 Y223.2162 I-0.1319 J-0.8329
G03 X251.7783 Y221.3730 I5.2384 J-2.7039
G01 X251.7413 Y221.1599
G03 X251.3498 Y215.3369 I44.0229 J-5.8841
G03 X251.3350 Y213.3901 I128.7110 J-1.9540
G01 Y213.1737
G03 X251.6164 Y197.6471 I1180.5806 J13.6297
G02 X251.4243 Y184.7713 I-162.8348 J-4.0100
G02 X250.5628 Y178.5414 I-36.1131 J1.8195
G02 X249.4869 Y175.9043 I-7.9227 J1.6946
G02 X248.9205 Y175.2863 I-2.2670 J1.5089
G02 X247.7553 Y175.4243 I-0.5297 J0.5154
G02 X247.3725 Y176.1318 I2.5771 J1.8517
G02 X246.6517 Y179.2713 I14.3768 J4.9532
G02 X245.9789 Y187.8494 I95.0339 J11.7690
G01 X245.9673 Y188.1182
G02 X245.4484 Y207.2683 I1573.1196 J52.2134
G03 X244.6288 Y222.8469 I-245.3588 J-5.0974
G03 X243.4985 Y230.2165 I-51.7799 J-4.1699
G03 X242.4418 Y233.0702 I-10.9128 J-2.4184
G03 X241.5514 Y234.0535 I-2.3964 J-1.2753
G03 X240.6875 Y233.8853 I-0.3425 J-0.5437
G01 X240.5050 Y233.6190
G01 X240.3638 Y233.3285
G03 X239.7826 Y230.8154 I10.2933 J-3.7042
G01 X239.7410 Y230.4949
G03 X239.3402 Y222.7506 I77.6295 J-7.9004
G03 X239.3240 Y220.1647 I211.0636 J-2.6197
G01 Y219.8414
G03 X239.3318 Y217.9019 I310.7099 J0.2841
G03 X239.7764 Y195.1255 I2398.7702 J35.4317
G02 X239.7393 Y176.9321 I-343.2981 J-8.3955
G02 X238.9981 Y168.2668 I-72.0477 J1.7979
G02 X238.0824 Y164.8361 I-14.3343 J1.9885
G02 X237.4425 Y163.8441 I-2.9576 J1.2056
G01 X237.1442 Y163.6176
G01 X236.7807 Y163.5555
G01 X236.4583 Y163.7383
G02 X235.7946 Y165.0726 I2.6898 J2.1699
G01 X235.6911 Y165.4340
G02 X234.9218 Y170.2559 I34.3652 J7.9553
G02 X234.1703 Y183.0140 I210.9273 J18.8260
G02 X233.4869 Y209.7814 I4355.4014 J124.5918
G03 X232.5275 Y230.3701 I-421.8243 J-9.3387
G03 X231.3733 Y239.7044 I-85.8201 J-5.8735
G03 X230.3770 Y243.1404 I-16.6006 J-2.9511
G03 X229.6283 Y244.2450 I-2.8104 J-1.0989
G01 X229.2527 Y244.4465
G01 X228.8493 Y244.3411
G01 X228.5767 Y244.0107
G01 X228.3910 Y243.6224
G01 X228.2506 Y243.2152
G03 X227.6838 Y239.8204 I19.0793 J-4.9299
G03 X227.3021 Y230.3525 I121.1110 J-9.6244
G03 X227.2910 Y227.7675 I306.5338 J-2.6142
G01 X227.2911 Y227.3367
G03 X227.3374 Y221.3052 I509.6773 J0.8910
G03 X227.9678 Y190.7542 I8218.4685 J154.3068
G02 X227.9941 Y168.0587 I-531.3757 J-11.9631
G02 X227.2974 Y157.4939 I-110.0497 J1.9510
G02 X226.4700 Y153.5513 I-21.0852 J2.3671
G02 X225.7461 Y152.2357 I-3.2121 J0.9105
G01 X225.3316 Y152.0035
G01 X224.9061 Y152.1960
G01 X224.6367 Y152.5965
G02 X224.0550 Y154.4394 I7.6260 J3.4206
G02 X223.2341 Y160.6782 I55.1785 J10.4332
G01 X223.1934 Y161.1608
G02 X222.3814 Y177.6065 I360.2590 J26.0312
G02 X221.5580 Y211.0975 I9647.5056 J253.9554
G03 X220.5038 Y236.7161 I-693.0424 J-15.6860
G03 X219.2783 Y248.9142 I-139.3654 J-7.8409
G03 X218.2661 Y253.2508 I-25.1255 J-3.5780
G01 X218.0531 Y253.7657
G01 X217.7876 Y254.2554
G01 X217.4283 Y254.6788
G01 X216.9328 Y254.8215
G01 X216.5500 Y254.4572
G01 X216.3265 Y253.9672
G01 X216.1686 Y253.4516
G03 X215.6706 Y250.2568 I23.6012 J-5.3151
G03 X215.2522 Y240.0192 I134.0498 J-10.6060
G03 X215.2339 Y236.7828 I355.3757 J-3.6272
G01 X215.2336 Y236.2434
G03 X215.3081 Y227.0737 I655.2389 J0.7388
G03 X216.0776 Y190.6869 I8549.0557 J162.5999
G02 X216.2811 Y161.2426 I-899.0326 J-20.9356
G02 X215.6825 Y147.7628 I-183.2270 J1.3836
G02 X214.8171 Y142.3169 I-32.3888 J2.3548
G01 X214.6280 Y141.7334
G01 X214.3833 Y141.1713
G01 X214.0324 Y140.6711
G01 X213.5019 Y140.5124
G01 X213.1101 Y140.9439
G02 X212.4306 Y143.2050 I8.2159 J3.7014
G02 X211.5889 Y150.2583 I69.2492 J11.8415
G02 X210.6782 Y169.1859 I434.5172 J30.3917
G02 X209.7372 Y208.1305 I7109.4929 J191.2659
G03 X208.5439 Y241.4822 I-1164.9818 J-24.9834
G03 X207.3177 Y256.7827 I-245.8676 J-12.0048
G03 X206.2976 Y262.6987 I-47.2780 J-5.1065
G03 X205.6169 Y264.5769 I-7.8459 J-1.7811
G01 X205.2150 Y265.1055
G01 X204.6332 Y265.1398
G01 X204.2959 Y264.5932
G01 X204.0975 Y263.9772
G03 X203.6067 Y260.7797 I23.0021 J-5.1674
G01 X203.5492 Y260.1347
G03 X203.1654 Y249.1343 I166.1115 J-11.3017
G03 X203.1514 Y245.8962 I421.4045 J-3.4499
G01 Y245.2486
G03 X203.2572 Y233.5922 I823.2304 J1.6424
G03 X204.1729 Y191.1058 I9967.7730 J193.5809
G02 X204.5409 Y154.9807 I-1345.6041 J-31.7730
G02 X204.0293 Y138.3721 I-288.8504 J0.5858
G02 X203.2869 Y131.9153 I-55.7450 J3.1381
G02 X202.6911 Y129.8358 I-9.1174 J1.4869
G01 X202.3003 Y129.2328
G01 X201.6890 Y129.2251
G01 X201.3415 Y129.8293
G02 X200.8134 Y131.8615 I12.1970 J4.2541
G02 X200.0021 Y138.8209 I78.6022 J12.6908
G01 X199.9477 Y139.5197
G02 X198.9939 Y159.8228 I512.3443 J34.2447
G01 X198.9720 Y160.5233
G02 X197.9445 Y203.7143 I6889.1033 J185.5050
G03 X196.6121 Y244.9873 I-1790.8851 J-37.1547
G03 X195.3116 Y264.0591 I-375.9634 J-16.0575
G03 X194.2041 Y271.6214 I-65.3417 J-5.7072
G03 X193.4989 Y273.7990 I-9.0519 J-1.7285
G01 X193.0248 Y274.3873
G01 X192.4266 Y274.1694
G01 X192.1387 Y273.5127
G01 X191.9571 Y272.8171
G03 X191.4897 Y269.2542 I30.8869 J-5.8637
G03 X191.0897 Y257.7569 I173.3962 J-11.7894
G03 X191.0734 Y254.1612 I451.8499 J-3.8418
G01 Y253.4420
G03 X191.1093 Y246.9697 I719.5279 J0.7644
G03 X191.9087 Y207.4243 I3218.9133 J45.2884
G02 X192.6561 Y163.4160 I-2387.0243 J-62.5451
G02 X192.3900 Y143.5693 I-456.1186 J-3.8115
G02 X191.7580 Y135.8001 I-78.3067 J2.4605
G02 X191.2893 Y133.7286 I-10.9125 J1.3802
G01 X190.9630 Y133.1033
G01 X190.3468 Y133.0610
G01 X189.9389 Y133.6409
G02 X189.1428 Y136.3740 I11.4059 J4.8053
G02 X188.2246 Y143.4462 I77.8061 J13.6971
G02 X187.1825 Y161.2500 I376.9764 J30.9974
G01 X187.1547 Y161.9629
G02 X186.1364 Y199.7614 I2619.9674 J89.4940
G01 X186.1202 Y200.4746
G03 X184.9447 Y240.2207 I-2030.1308 J-40.1481
G03 X183.8117 Y257.9633 I-349.9142 J-13.4370
G03 X182.9132 Y264.2463 I-54.8298 J-4.6355
G03 X182.3336 Y266.0563 I-7.4238 J-1.3796
G01 X181.9344 Y266.5387
G01 X181.3775 Y266.3632
G01 X181.0322 Y265.8036
G01 X180.8000 Y265.1861
G01 X180.6238 Y264.5500
G03 X179.9080 Y259.3229 I36.1143 J-7.6079
G03 X179.4543 Y246.1309 I199.2612 J-13.4564
G03 X179.4403 Y242.8304 I471.5834 J-3.6574
G01 X179.4401 Y242.1703
G03 X179.4469 Y239.5298 I614.4834 J0.2535
G03 X180.0768 Y204.5499 I2069.7244 J19.7801
G01 X180.0921 Y203.8899
G01 X180.1074 Y203.2300
G02 X180.6792 Y166.9195 I-1690.9405 J-44.7902
G02 X180.3354 Y151.2490 I-280.2725 J-1.6893
G02 X179.7087 Y145.4808 I-44.8511 J1.9547
G02 X179.1986 Y143.8210 I-5.9786 J0.9291
G01 X178.8202 Y143.3928
G01 X178.2902 Y143.5210
G01 X177.9240 Y143.9917
G02 X177.1370 Y146.2464 I8.2496 J4.1440
G02 X176.2121 Y152.1600 I53.3767 J11.3774
G02 X175.1859 Y167.0950 I255.1529 J25.0349
G01 X175.1593 Y167.6933
G02 X174.2448 Y199.4213 I1636.8093 J63.0524
G01 X174.2312 Y200.0201
G01 X174.2176 Y200.6188
G03 X173.2274 Y233.2705 I-1445.7616 J-27.5045
G03 X172.2252 Y247.3244 I-228.6420 J-9.2422
G03 X171.3492 Y252.4648 I-34.5431 J-3.2417
G03 X170.7320 Y253.8938 I-3.8618 J-0.8201
G01 X170.2955 Y254.1443
G01 X169.8541 Y253.8916
G03 X169.1412 Y252.4336 I3.5816 J-2.6545
G01 X168.9944 Y251.9087
G03 X168.2701 Y247.0619 I33.7884 J-7.5274
G03 X167.7822 Y234.5386 I169.4977 J-12.8738
G03 X167.7666 Y231.2684 I402.3749 J-3.5543
G01 X167.7665 Y230.7233
G03 X167.8417 Y221.4580 I677.3615 J0.8686
G03 X168.5070 Y189.3780 I9639.8477 J183.8679
G02 X168.6185 Y167.4065 I-604.8045 J-14.0539
G02 X168.1084 Y158.0734 I-107.9249 J1.2180
G02 X167.4844 Y154.8668 I-15.9134 J1.4327
G01 X167.3039 Y154.4359
G01 X167.0434 Y154.0498
G01 X166.6302 Y153.8670
G01 X166.2184 Y154.0713
G01 X165.9028 Y154.4370
G01 X165.6581 Y154.8547
G02 X164.7785 Y157.6174 I12.5625 J5.5211
G02 X163.7245 Y165.2909 I65.7602 J12.9417
G02 X162.7827 Y182.7012 I327.4262 J26.4409
G01 X162.7668 Y183.1853
G02 X162.0440 Y211.8440 I7507.5703 J203.7099
G03 X161.2044 Y230.9699 I-437.8667 J-9.6399
G03 X160.2922 Y238.6514 I-68.7630 J-4.2706
G03 X159.7475 Y240.6111 I-10.9245 J-1.9808
G01 X159.5747 Y240.9798
G01 X159.3470 Y241.3165
G01 X159.0165 Y241.5448
G01 X158.6252 Y241.4813
G01 X158.3170 Y241.2177
G03 X157.5370 Y239.6961 I3.6402 J-2.8269
G01 X157.4088 Y239.2855
G03 X156.5633 Y234.2003 I29.2453 J-7.4755
G03 X156.0828 Y222.5998 I142.4746 J-11.7115
G03 X156.0721 Y220.0190 I326.1700 J-2.6471
G01 X156.0722 Y219.5888
G03 X156.1121 Y213.9971 I489.1280 J0.6935
G03 X156.6035 Y189.3512 I8232.5338 J151.8135
G02 X156.5551 Y173.1372 I-303.6382 J-7.2011
G02 X155.9672 Y166.8242 I-46.2510 J1.1233
G02 X155.4781 Y165.1350 I-7.3161 J1.2029
G01 X155.3085 Y164.8263
G01 X155.0792 Y164.5601
G01 X154.7632 Y164.4159
G01 X154.4218 Y164.4825
G02 X153.6623 Y165.2444 I1.1961 J1.9518
G02 X152.7033 Y167.6239 I8.1733 J4.6769
G02 X151.6456 Y173.7805 I42.1106 J10.4043
G02 X150.7759 Y187.3587 I195.1060 J19.3132
G01 X150.7627 Y187.7263
G02 X150.2194 Y208.6313 I4352.7889 J123.5934
G03 X149.5410 Y221.8884 I-223.4487 J-4.7888
G03 X148.7286 Y227.1306 I-33.2282 J-2.4652
G03 X148.1880 Y228.4981 I-5.0729 J-1.2147
G01 X148.0126 Y228.7348
G03 X146.9734 Y228.7885 I-0.5416 J-0.3988
G01 X146.7589 Y228.5863
G03 X145.7369 Y226.6617 I4.4076 J-3.5743
G03 X144.8647 Y222.3676 I22.5469 J-6.8155
G03 X144.3516 Y212.6674 I93.7906 J-9.8251
G03 X144.3396 Y210.4729 I214.0640 J-2.2611
G01 X144.3397 Y210.1594
G03 X144.3436 Y208.9055 I272.4684 J0.2246
G03 X144.6582 Y191.5908 I2018.6098 J28.0168
G02 X144.5437 Y180.7366 I-152.3819 J-3.8199
G02 X143.9543 Y176.4413 I-21.9176 J0.8193
G02 X143.4730 Y175.3414 I-3.3947 J0.8303
G02 X142.4249 Y175.0501 I-0.6643 J0.3589
G02 X141.1260 Y176.5260 I1.9473 J3.0232
G01 X141.0106 Y176.7496
G01 X140.9026 Y176.9770
G02 X139.7424 Y181.0854 I17.0709 J7.0388
G02 X138.8458 Y190.0975 I74.3352 J11.9461
G01 X138.8332 Y190.3489
G02 X138.4352 Y203.9683 I745.4826 J28.6048
G03 X137.9204 Y212.4382 I-95.6083 J-1.5599
G03 X137.2450 Y215.4935 I-13.0911 J-1.2916
G03 X136.8870 Y216.1363 I-2.5143 J-0.9794
G03 X135.7477 Y216.3534 I-0.6719 J-0.4282
G03 X134.4812 Y214.9303 I2.5284 J-3.5250
G03 X133.2139 Y211.2084 I10.7329 J-5.7313
G01 X133.1770 Y211.0144
G03 X132.5888 Y203.7393 I45.1690 J-7.3133
G03 X132.5775 Y202.3570 I103.0937 J-1.5340
G01 X132.5773 Y202.1595
G01 X132.5775 Y201.9620
G03 X132.7272 Y192.6402 I5957.3342 J91.0415
G02 X132.4917 Y187.5952 I-35.3182 J-0.8793
G02 X131.9447 Y185.8279 I-4.6508 J0.4714
G02 X130.6781 Y185.4796 I-0.7975 J0.4226
G01 X130.5593 Y185.5393
G02 X128.4431 Y187.9205 I3.2617 J5.0296
G02 X127.1047 Y192.3341 I12.8686 J6.3119
G01 X127.0716 Y192.5522
G02 X126.6535 Y199.1531 I54.4915 J6.7647
G03 X126.4056 Y203.1131 I-29.1331 J0.1639
G03 X126.0635 Y204.1554 I-2.9558 J-0.3929
G03 X125.1126 Y204.4525 I-0.6244 J-0.3279
G03 X124.3743 Y203.9757 I1.1807 J-2.6379
G03 X120.7282 Y199.1534 I11.4212 J-12.4251
G03 X120.0253 Y196.2568 I5.8983 J-2.9648
G01 X120.0288 Y196.1532
G03 X120.8172 Y194.0624 I3.2639 J0.0367
G00 Z5.0000


(No. 12: Engraving 35)
G00 X146.7577 Y315.0724 Z5.0000
G00 Z0.5000
G01 Z-0.0100 F1200
G03 X124.1265 Y332.5780 I-306.3883 J-372.7171
G03 X113.9205 Y339.3551 I-81.0591 J-110.9963
G03 X109.5322 Y341.5255 I-14.9238 J-24.6536
G03 X107.8617 Y341.8787 I-1.8560 J-4.6508
G03 X107.0039 Y341.4953 I-0.0768 J-0.9796
G01 X107.0023 Y340.9835
G01 X107.2400 Y340.5112
G03 X108.5861 Y338.8790 I9.4174 J6.3952
G03 X113.6854 Y334.2546 I50.7874 J50.8806
G03 X128.2596 Y322.7950 I265.9868 J323.2814
G03 X157.4315 Y301.0213 I3372.5089 J4487.9758
G02 X177.3739 Y285.7614 I-483.2282 J-652.1685
G02 X185.3341 Y278.9750 I-82.7056 J-105.0718
G02 X187.4677 Y276.6769 I-12.7346 J-13.9626
G01 X187.7611 Y276.2441
G01 X187.9831 Y275.7717
G01 X187.9279 Y275.2754
G01 X187.4422 Y275.1293
G01 X186.9270 Y275.2154
G02 X184.9952 Y276.0130 I3.2256 J10.5512
G02 X179.1597 Y279.5047 I32.6874 J61.2509
G02 X164.1585 Y290.0129 I224.6711 J336.6950
G01 X163.7354 Y290.3208
G02 X134.7229 Y311.7784 I3638.8999 J4950.4288
G03 X114.3757 Y326.4210 I-456.7720 J-613.2694
G03 X106.0208 Y331.7702 I-71.8328 J-102.9952
G03 X103.2082 Y333.1447 I-9.7530 J-16.3933
G01 X102.7103 Y333.3017
G01 X102.1956 Y333.3842
G01 X101.7180 Y333.2234
G01 X101.6814 Y332.7262
G01 X101.9054 Y332.2586
G03 X103.2168 Y330.6501 I8.9351 J5.9462
G03 X108.2125 Y326.1061 I49.1197 J48.9848
G03 X122.9178 Y314.5415 I262.0760 J318.1168
G01 X123.3320 Y314.2275
G01 X123.7463 Y313.9138
G03 X152.8350 Y292.1971 I5323.7295 J7100.5763
G02 X171.6759 Y277.7026 I-413.1913 J-556.5884
G02 X179.0961 Y271.2771 I-69.1120 J-87.3074
G02 X180.8264 Y269.3613 I-11.7446 J-12.3472
G01 X181.1140 Y268.9322
G01 X181.3294 Y268.4639
G01 X181.2701 Y267.9738
G01 X180.7882 Y267.8267
G01 X180.2762 Y267.9104
G02 X178.3560 Y268.6995 I3.1535 J10.4046
G02 X172.5580 Y272.1652 I32.1711 J60.4045
G02 X157.6582 Y282.6046 I221.3960 J331.8430
G01 X157.2380 Y282.9105
G02 X128.4920 Y304.1854 I3554.6952 J4833.0634
G03 X108.4180 Y318.6416 I-450.2080 J-603.9978
G03 X100.1739 Y323.9210 I-70.4367 J-100.9148
G03 X97.3964 Y325.2730 I-9.4160 J-15.8140
G01 X96.9041 Y325.4249
G01 X96.3952 Y325.4983
G01 X95.9381 Y325.3112
G01 X95.9252 Y324.8125
G01 X96.1490 Y324.3488
G03 X97.4461 Y322.7480 I8.9207 J5.9026
G03 X102.3957 Y318.2260 I48.1921 J47.7800
G03 X116.5728 Y307.0433 I252.2911 J305.2694
G03 X144.9705 Y285.8129 I3173.5784 J4215.3631
G02 X164.3826 Y270.9256 I-458.4455 J-617.8800
G02 X172.1200 Y264.2939 I-78.3430 J-99.2352
G02 X174.1840 Y262.0420 I-12.0331 J-13.1006
G01 X174.4648 Y261.6169
G01 X174.6728 Y261.1531
G01 X174.6085 Y260.6700
G01 X174.1372 Y260.5195
G01 X173.6341 Y260.5960
G02 X171.7464 Y261.3595 I2.9373 J9.9782
G02 X166.0525 Y264.7482 I30.6539 J57.9835
G02 X151.4341 Y274.9849 I212.2929 J318.7184
G01 X151.0219 Y275.2851
G02 X122.7723 Y296.2062 I3415.7670 J4641.8129
G03 X103.3834 Y310.1829 I-441.2284 J-591.6501
G03 X94.8218 Y315.6686 I-71.6800 J-102.4484
G03 X92.0765 Y316.9930 I-9.1402 J-15.4393
G01 X91.5901 Y317.1408
G01 X91.0878 Y317.2130
G01 X90.6259 Y317.0460
G01 X90.5823 Y316.5612
G01 X90.7928 Y316.1022
G03 X92.4066 Y314.1589 I10.5117 J7.0875
G03 X97.6809 Y309.4284 I56.4027 J57.5806
G03 X112.4220 Y297.8735 I281.4374 J343.8632
G03 X140.7340 Y276.7054 I5946.0904 J7923.2844
G02 X159.0484 Y262.5575 I-374.8270 J-504.1390
G02 X165.8637 Y256.5985 I-61.8099 J-77.5696
G02 X167.5350 Y254.7217 I-11.0871 J-11.5556
G01 X167.8097 Y254.3005
G01 X168.0110 Y253.8408
G01 X167.9425 Y253.3642
G01 X167.4755 Y253.2126
G01 X166.9761 Y253.2865
G02 X165.1018 Y254.0399 I2.8548 J9.8095
G02 X159.4507 Y257.3984 I30.0703 J57.0302
G02 X144.9482 Y267.5552 I208.6392 J313.3418
G01 X144.5393 Y267.8531
G02 X116.5800 Y288.5731 I3328.8117 J4521.0843
G03 X97.0551 Y302.6423 I-425.9466 J-570.5355
G03 X89.0277 Y307.7670 I-66.3801 J-95.1282
G03 X86.3188 Y309.0676 I-8.8025 J-14.8629
G01 X85.8382 Y309.2099
G01 X85.3421 Y309.2727
G01 X84.9007 Y309.0810
G01 X84.8787 Y308.5954
G01 X85.0885 Y308.1406
G03 X86.6822 Y306.2084 I10.4434 J6.9901
G03 X91.9017 Y301.5064 I55.1663 J55.9910
G03 X106.5079 Y290.0355 I273.7059 J333.4804
G03 X134.5021 Y269.0873 I5660.6462 J7535.4618
G02 X152.5392 Y255.1362 I-363.8998 J-489.1117
G02 X159.2448 Y249.2539 I-59.9015 J-75.0493
G02 X160.8841 Y247.3980 I-10.7291 J-11.1292
G01 X161.1518 Y246.9810
G01 X161.3452 Y246.5261
G01 X161.2718 Y246.0569
G01 X160.8154 Y245.9022
G01 X160.3249 Y245.9689
G02 X158.4828 Y246.6967 I2.6478 J9.3957
G02 X152.9350 Y249.9786 I28.6129 J54.6979
G02 X138.7114 Y259.9340 I199.8745 J300.7073
G01 X138.3105 Y260.2262
G02 X110.8439 Y280.5942 I3196.9828 J4339.8793
G03 X91.9913 Y294.1924 I-417.0951 J-558.3974
G03 X83.6573 Y299.5153 I-67.4985 J-96.4952
G03 X80.9804 Y300.7882 I-8.5386 J-14.5051
G01 X80.5058 Y300.9265
G01 X80.0162 Y300.9884
G01 X79.5698 Y300.8167
G01 X79.5176 Y300.3454
G01 X79.7139 Y299.8952
G03 X81.2660 Y297.9915 I9.9315 J6.5124
G03 X86.3783 Y293.3718 I53.3343 J53.8832
G03 X100.6977 Y282.1121 I265.9150 J323.4385
G03 X128.2143 Y261.5053 I5527.3670 J7352.0895
G02 X146.0053 Y247.7270 I-354.1138 J-475.6204
G02 X152.6137 Y241.9122 I-58.2867 J-72.9033
G02 X154.2247 Y240.0751 I-10.4308 J-10.7723
G01 X154.4863 Y239.6619
G01 X154.6729 Y239.2112
G01 X154.5955 Y238.7485
G01 X154.1440 Y238.5928
G01 X153.6578 Y238.6562
G02 X151.8311 Y239.3724 I2.5575 J9.2105
G02 X146.3327 Y242.6189 I27.9612 J53.6365
G02 X132.2423 Y252.4809 I195.7800 J294.7174
G01 X131.8452 Y252.7705
G02 X104.7017 Y272.9123 I3104.7896 J4212.4393
G03 X85.7451 Y286.5789 I-401.3734 J-536.7516
G03 X77.9421 Y291.5425 I-62.2814 J-89.2942
G03 X75.3042 Y292.7893 I-8.1822 J-13.8981
G01 X74.8358 Y292.9216
G01 X74.3531 Y292.9733
G01 X73.9277 Y292.7775
G01 X73.8964 Y292.3058
G01 X74.0916 Y291.8604
G03 X75.2870 Y290.3249 I7.9589 J4.9629
G03 X79.9272 Y286.0141 I43.0154 J41.6497
G03 X93.2858 Y275.4042 I224.7624 J269.2760
G03 X120.0785 Y255.3071 I2778.3763 J3676.1205
G02 X138.3766 Y241.2077 I-408.3639 J-548.8943
G02 X145.3008 Y235.2389 I-72.8348 J-91.4946
G02 X147.5629 Y232.7488 I-12.4686 J-13.5998
G01 X147.8169 Y232.3403
G01 X147.9950 Y231.8948
G01 X147.9124 Y231.4401
G01 X147.4693 Y231.2823
G01 X146.9901 Y231.3401
G02 X145.1889 Y232.0361 I2.4032 J8.8980
G02 X139.7718 Y235.2224 I26.8549 J51.8537
G01 X139.3663 Y235.4862
G02 X125.5106 Y245.2116 I200.1674 J299.9123
G02 X98.7707 Y265.0668 I3000.1051 J4068.2966
G03 X80.4499 Y278.2909 I-395.8890 J-529.1660
G03 X72.7625 Y283.2203 I-66.5621 J-95.3445
G03 X69.7343 Y284.6776 I-9.5463 J-15.9618
G01 X69.2712 Y284.8061
G01 X68.7943 Y284.8557
G01 X68.3686 Y284.6702
G01 X68.3197 Y284.2086
G01 X68.5049 Y283.7673
G03 X70.0006 Y281.8990 I9.4764 J6.0538
G03 X74.9643 Y277.3772 I50.5328 J50.4863
G03 X88.9005 Y266.3817 I251.0952 J303.9173
G03 X115.6672 Y246.3034 I5109.3901 J6783.5265
G02 X132.9350 Y232.8959 I-334.0378 J-448.0393
G02 X139.3364 Y227.2255 I-54.8571 J-68.3779
G02 X140.8870 Y225.4282 I-9.7900 J-10.0131
G01 X141.1351 Y225.0232
G01 X141.3069 Y224.5816
G01 X141.2206 Y224.1331
G01 X140.7837 Y223.9740
G01 X140.3100 Y224.0276
G02 X138.5283 Y224.7085 I2.2918 J8.6688
G02 X133.1731 Y227.8495 I26.0390 J50.5299
G01 X132.7724 Y228.1098
G02 X119.0843 Y237.7159 I194.8440 J292.1979
G02 X92.7074 Y257.3144 I2903.8082 J3935.6657
G03 X74.6752 Y270.3358 I-385.8939 J-515.3962
G03 X67.1055 Y275.1846 I-64.6317 J-92.5658
G03 X64.1208 Y276.6109 I-9.1715 J-15.3567
G01 X63.6640 Y276.7337
G01 X63.1939 Y276.7751
G01 X62.7835 Y276.5761
G01 X62.7434 Y276.1178
G01 X62.9246 Y275.6813
G03 X64.3930 Y273.8299 I9.2964 J5.8652
G03 X69.2836 Y269.3539 I49.1381 J48.7793
G03 X83.0337 Y258.4841 I243.3061 J293.6483
G01 X83.4107 Y258.1971
G03 X109.7908 Y238.3947 I5984.3264 J7944.6416
G02 X126.3982 Y225.4738 I-320.0966 J-428.5578
G02 X132.6860 Y219.8833 I-53.0064 J-65.9494
G02 X134.2032 Y218.1080 I-9.4484 J-9.6106
G01 X134.4440 Y217.7074
G01 X134.6075 Y217.2709
G01 X134.5162 Y216.8304
G01 X134.0884 Y216.6693
G01 X133.6228 Y216.7167
G02 X131.8695 Y217.3748 I2.1268 J8.3308
G02 X126.6049 Y220.4482 I24.8435 J48.6012
G01 X126.2112 Y220.7034
G02 X112.7679 Y230.1324 I187.1685 J281.1523
G02 X86.8350 Y249.4134 I2793.4682 J3784.2808
G03 X69.0524 Y262.2541 I-371.8737 J-496.2617
G03 X61.5814 Y267.0259 I-62.3046 J-89.3117
G03 X58.6330 Y268.4217 I-8.8810 J-14.9478
G01 X58.1819 Y268.5406
G01 X57.7182 Y268.5805
G01 X57.3057 Y268.3955
G01 X57.2435 Y267.9495
G01 X57.4128 Y267.5176
G03 X58.8435 Y265.6913 I8.8793 J5.4822
G03 X63.6379 Y261.2875 I47.5359 J46.9419
G03 X77.1327 Y250.6048 I236.2667 J284.5945
G03 X103.0769 Y231.1115 I4744.6302 J6287.7513
G02 X119.8144 Y218.0811 I-314.2817 J-420.9598
G02 X126.0060 Y212.5578 I-51.4993 J-63.9630
G02 X127.4951 Y210.8011 I-9.1643 J-9.2773
G01 X127.7296 Y210.4044
G01 X127.8860 Y209.9722
G01 X127.7902 Y209.5386
G01 X127.3679 Y209.3772
G01 X126.9072 Y209.4209
G02 X125.1716 Y210.0654 I2.0338 J8.1369
G02 X119.9633 Y213.0974 I24.1320 J47.4430
G01 X119.5739 Y213.3495
G02 X106.2826 Y222.6700 I182.4210 J274.2729
G02 X80.7076 Y241.6973 I2699.4339 J3655.0789
G03 X63.2432 Y254.3149 I-362.7498 J-483.6990
G03 X55.9030 Y258.9996 I-60.4258 J-86.5841
G03 X53.0030 Y260.3618 I-8.4688 J-14.2612
G01 X52.5587 Y260.4738
G01 X52.1027 Y260.5024
G01 X51.7121 Y260.2950
G01 X51.6689 Y259.8497
G01 X51.8367 Y259.4232
G03 X53.2413 Y257.6128 I8.7705 J5.3548
G03 X57.9645 Y253.2501 I46.1627 J45.2395
G03 X71.2815 Y242.6841 I228.0321 J273.7263
G01 X71.6468 Y242.4053
G03 X97.1867 Y223.2016 I5471.9454 J7250.8008
G02 X113.2307 Y210.6844 I-299.6279 J-400.5928
G02 X119.2911 Y205.2553 I-49.4408 J-61.2860
G02 X120.7414 Y203.5244 I-8.7642 J-8.8166
G01 X120.9671 Y203.1328
G01 X121.1130 Y202.7065
G01 X121.0087 Y202.2834
G02 X120.2985 Y202.0026 I-0.7353 J0.8213
G02 X118.2740 Y202.4458 I0.1466 J5.5150
G02 X113.6356 Y204.8174 I12.5072 J30.1829
G02 X103.0406 Y211.9533 I79.5957 J129.6125
G02 X79.2138 Y230.5216 I315.5605 J429.4985
G00 Z5.0000


(No. 13: Engraving 36)
G00 X3.1937 Y187.7474 Z5.0000
G00 Z0.5000
G01 Z-0.0100 F1200
G03 X2.5623 Y187.7827 I-0.3535 J-0.6573
G01 X2.5053 Y187.7020
G01 X2.4879 Y187.6041
G01 X2.4962 Y187.5046
G03 X2.9966 Y186.5327 I3.0765 J0.9689
G03 X6.6657 Y182.4364 I26.3709 J19.9295
G03 X7.6127 Y181.8255 I2.0605 J2.1545
G03 X8.5056 Y182.2849 I0.2420 J0.6271
G03 X8.8009 Y184.0665 I-5.7665 J1.8711
G03 X8.8622 Y189.0535 I-278.4803 J5.9168
G02 X9.6219 Y196.2549 I34.5224 J-0.0011
G02 X11.9802 Y201.6991 I14.5730 J-3.0798
G02 X12.9227 Y202.6202 I2.4907 J-1.6058
G02 X13.7193 Y202.3756 I0.2829 J-0.4981
G02 X13.9863 Y201.7696 I-2.1228 J-1.2974
G02 X14.4066 Y198.6149 I-14.7989 J-3.5767
G01 X14.4136 Y198.4822
G02 X14.5068 Y189.1703 I-229.6203 J-6.9563
G03 X14.5255 Y186.9691 I209.4367 J0.6767
G03 X15.0655 Y178.3869 I69.2750 J0.0506
G03 X16.1610 Y174.1366 I16.3335 J1.9436
G03 X17.4328 Y172.3695 I4.2088 J1.6878
G01 X17.5950 Y172.2570
G01 X17.7692 Y172.1644
G03 X18.7974 Y172.4905 I0.3304 J0.7422
G01 X18.9057 Y172.6555
G03 X19.5085 Y174.5269 I-6.0913 J2.9950
G03 X20.0230 Y180.0271 I-40.3887 J6.5522
G03 X20.1617 Y193.6706 I-395.7751 J10.8465
G02 X20.1790 Y196.7662 I495.6775 J-1.2216
G02 X20.6697 Y208.8540 I149.3576 J-0.0096
G02 X21.7283 Y215.2312 I37.2513 J-2.9067
G02 X23.0845 Y218.2734 I9.2044 J-2.2799
G02 X23.6342 Y218.7905 I1.4224 J-0.9612
G02 X24.3173 Y218.6542 I0.2627 J-0.4630
G01 X24.4676 Y218.4506
G01 X24.5868 Y218.2271
G02 X25.1499 Y216.0234 I-8.8359 J-3.4319
G01 X25.1875 Y215.7728
G02 X25.6910 Y208.4433 I-73.0209 J-8.6985
G01 X25.6983 Y208.1900
G02 X25.8148 Y189.6313 I-776.4186 J-14.1518
G03 X25.8305 Y185.9861 I707.5104 J1.2179
G03 X26.2524 Y172.4083 I219.3625 J0.0218
G03 X27.0995 Y165.8406 I48.0670 J2.8609
G03 X28.1090 Y163.0490 I8.8758 J1.6314
G03 X28.7993 Y162.3584 I1.5872 J0.8961
G01 X29.1126 Y162.2887
G01 X29.4120 Y162.4025
G03 X30.0606 Y163.5072 I-1.6848 J1.7319
G03 X30.7768 Y167.3302 I-19.5124 J5.6341
G03 X31.3395 Y177.7019 I-129.9873 J12.2539
G03 X31.4697 Y201.0333 I-1180.1618 J18.2506
G02 X31.4869 Y205.5692 I1050.7065 J-1.7243
G02 X31.9382 Y222.4680 I317.5464 J-0.0247
G02 X32.8459 Y230.6600 I69.6358 J-3.5697
G02 X33.9311 Y234.1957 I12.9299 J-2.0340
G01 X34.1441 Y234.5485
G01 X34.3791 Y234.8458
G01 X34.6812 Y235.0708
G01 X35.0464 Y235.0545
G01 X35.3138 Y234.7901
G02 X35.7464 Y233.7425 I-3.6430 J-2.1173
G02 X36.3996 Y229.6263 I-26.7454 J-6.3542
G02 X36.9756 Y217.5045 I-177.1799 J-14.4947
G01 X36.9834 Y217.1253
G02 X37.1228 Y189.3017 I-1603.7227 J-21.9452
G03 X37.1380 Y184.2209 I1493.3618 J1.9441
G03 X37.5291 Y165.7506 I437.0242 J0.0129
G03 X38.3167 Y157.0139 I87.1058 J3.4486
G03 X39.0639 Y153.8734 I16.4962 J2.2660
G03 X39.7662 Y152.6934 I2.6894 J0.8017
G01 X40.1700 Y152.5093
G01 X40.5613 Y152.7104
G03 X41.1320 Y153.9336 I-3.0954 J2.1891
G01 X41.2498 Y154.3713
G03 X42.0011 Y159.7544 I-38.6015 J8.1315
G03 X42.6222 Y174.2455 I-241.6257 J17.6149
G01 X42.6308 Y174.6987
G03 X42.7654 Y207.2241 I-1840.6921 J23.8816
G01 Y207.7669
G01 Y208.3097
G01 X42.7656 Y208.8524
G02 X42.7857 Y216.9939 I1668.1417 J-0.0483
G02 X43.2428 Y237.6124 I465.2967 J-0.0013
G02 X44.0867 Y246.7968 I92.2603 J-3.8463
G02 X44.8292 Y249.9631 I16.9454 J-2.3035
G01 X45.0354 Y250.4649
G01 X45.2997 Y250.9384
G01 X45.6459 Y251.3036
G01 X46.1121 Y251.2624
G01 X46.4001 Y250.8494
G02 X46.8493 Y249.4001 I-7.0573 J-2.9817
G02 X47.5906 Y243.3677 I-49.3868 J-9.1306
G01 X47.6279 Y242.8622
G02 X48.2454 Y226.1500 I-342.7767 J-21.0343
G01 X48.2542 Y225.6433
G02 X48.4303 Y188.2139 I-2489.2290 J-30.4303
G03 X48.4497 Y180.5218 I2448.4533 J2.3195
G03 X48.8400 Y158.0417 I649.6863 J0.0372
G03 X49.6455 Y147.4254 I116.6641 J3.5134
G03 X50.2126 Y144.5240 I21.5711 J2.7096
G01 X50.3941 Y143.9610
G01 X50.6311 Y143.4193
G01 X50.9818 Y142.9467
G01 X51.4761 Y142.8338
G01 X51.8381 Y143.2233
G03 X52.4745 Y145.2772 I-7.0893 J3.3223
G01 X52.5735 Y145.8076
G03 X53.3051 Y152.7802 I-73.8653 J11.2754
G03 X53.9494 Y172.1906 I-407.0987 J23.2296
G01 X53.9570 Y172.7301
G03 X54.0705 Y211.5419 I-2977.9676 J28.1112
G02 X54.0907 Y219.6173 I1777.7633 J-0.4146
G02 X54.4927 Y238.9928 I469.3741 J-0.0461
G02 X55.1903 Y246.4932 I65.7135 J-2.3296
G02 X55.7820 Y248.5557 I7.8058 J-1.1231
G01 X56.1362 Y248.9501
G01 X56.6284 Y248.8336
G01 X56.9874 Y248.3646
G01 X57.2380 Y247.8271
G02 X57.9658 Y244.9548 I-16.1334 J-5.6164
G01 X58.0645 Y244.3696
G02 X58.9392 Y235.5132 I-101.1490 J-14.4623
G02 X59.6193 Y214.1597 I-464.0334 J-25.4654
G01 X59.6270 Y213.5662
G02 X59.7055 Y175.1343 I-2939.7598 J-25.2238
G03 X59.7049 Y173.5602 I2685.5112 J-1.7866
G01 X59.7050 Y173.0355
G01 X59.7051 Y172.5107
G03 X59.7192 Y166.2142 I1530.3573 J0.2742
G03 X60.0449 Y148.9028 I464.6683 J0.0833
G03 X60.6988 Y141.0629 I77.2177 J2.4939
G03 X61.1735 Y139.0215 I11.7906 J1.6654
G01 X61.3922 Y138.5454
G01 X61.7623 Y138.1884
G01 X62.2388 Y138.3382
G01 X62.5751 Y138.7634
G01 X62.8196 Y139.2490
G01 X63.0135 Y139.7572
G03 X63.7390 Y142.9365 I-21.6349 J6.6098
G03 X64.6437 Y152.1381 I-101.0417 J14.5796
G03 X65.2870 Y173.3457 I-466.9830 J24.7797
G03 X65.3953 Y208.1140 I-3853.0532 J29.3787
G02 X65.4042 Y210.4967 I1441.2370 J-4.1946
G02 X65.7298 Y228.1243 I480.4407 J-0.0580
G02 X66.4056 Y236.1932 I77.9967 J-2.4695
G02 X66.9835 Y238.4991 I10.0170 J-1.2852
G01 X67.2153 Y238.9143
G01 X67.5947 Y239.1822
G01 X68.0274 Y239.0200
G01 X68.3449 Y238.6495
G01 X68.5829 Y238.2223
G01 X68.7738 Y237.7717
G02 X69.5747 Y234.4454 I-18.4653 J-6.2055
G02 X70.4385 Y225.6805 I-93.7536 J-13.6644
G02 X70.9931 Y205.6207 I-424.5323 J-21.7748
G02 X71.0332 Y175.0208 I-5921.0384 J-23.0536
G03 X71.0408 Y173.3531 I919.4584 J3.3807
G03 X71.3847 Y158.3497 I329.8290 J0.0530
G03 X72.0148 Y152.1319 I52.0561 J2.1345
G03 X72.6465 Y150.1567 I5.8823 J0.7927
G01 X72.9361 Y149.8625
G01 X73.3367 Y149.8553
G01 X73.6632 Y150.1103
G01 X73.9288 Y150.4598
G01 X74.1439 Y150.8429
G03 X74.9511 Y153.3475 I-11.6499 J5.1366
G03 X75.8988 Y160.3113 I-54.7815 J11.0019
G01 X75.9351 Y160.7494
G03 X76.5893 Y176.9973 I-270.2719 J19.0202
G03 X76.6986 Y203.5566 I-2153.7269 J22.1423
G02 X76.7131 Y206.8421 I957.3907 J-2.5702
G02 X77.0698 Y221.0733 I284.0901 J-0.0003
G02 X77.7109 Y226.8746 I46.2135 J-2.1712
G02 X78.2562 Y228.6106 I6.5412 J-1.1012
G01 X78.4576 Y228.9143
G02 X79.4094 Y228.9385 I0.4858 J-0.3777
G01 X79.6670 Y228.6622
G01 X79.8794 Y228.3495
G02 X80.6821 Y226.2339 I-8.1932 J-4.3188
G02 X81.6128 Y220.2592 I-40.0000 J-9.2905
G01 X81.6479 Y219.8825
G02 X82.2660 Y205.9022 I-202.4229 J-15.9524
G02 X82.3428 Y183.2303 I-1779.6354 J-17.3662
G03 X82.3648 Y179.2354 I610.2943 J1.3683
G03 X82.7742 Y167.5678 I166.6168 J0.0056
G03 X83.4474 Y163.3258 I21.8934 J1.2999
G03 X84.0092 Y162.2465 I2.5579 J0.6457
G03 X84.8409 Y162.2755 I0.4002 J0.4660
G01 X85.0645 Y162.4858
G03 X86.1213 Y164.5156 I-4.7965 J3.7873
G01 X86.2219 Y164.8290
G03 X87.2340 Y170.3246 I-31.6889 J8.6770
G01 X87.2700 Y170.6518
G01 X87.3044 Y170.9792
G03 X87.9242 Y183.4679 I-158.9917 J14.1502
G03 X88.0100 Y202.4305 I-1732.0227 J17.3259
G02 X88.0216 Y203.9704 I429.0727 J-2.4515
G02 X88.4059 Y214.2265 I137.0903 J-0.0012
G02 X89.0427 Y218.0166 I19.7609 J-1.3717
G02 X89.6347 Y219.1411 I2.5542 J-0.6266
G02 X90.5698 Y219.1656 I0.4805 J-0.4846
G01 X90.7709 Y219.0064
G01 X90.9600 Y218.8169
G02 X92.0596 Y216.6900 I-4.9523 J-3.9082
G02 X93.0021 Y211.9691 I-25.5447 J-7.5544
G02 X93.6013 Y201.2763 I-109.8088 J-11.5161
G01 X93.6058 Y201.0085
G01 X93.6100 Y200.7406
G02 X93.6688 Y185.8870 I-4068.5333 J-23.5325
G03 X93.6761 Y185.2854 I220.6593 J2.3676
G03 X94.0626 Y177.6784 I75.0906 J0.0017
G03 X94.7147 Y174.9593 I9.1410 J0.7548
G01 X94.8124 Y174.7843
G01 X94.9279 Y174.6205
G03 X95.9892 Y174.5004 I0.5861 J0.4303
G03 X97.1787 Y175.9738 I-2.8185 J3.4921
G01 X97.2792 Y176.1672
G03 X98.5155 Y180.3325 I-14.3822 J6.5346
G01 X98.5525 Y180.5473
G03 X99.2315 Y188.7959 I-62.9873 J9.3369
G03 X99.3143 Y200.1543 I-632.1344 J10.2860
G02 X99.3206 Y200.7616 I172.3838 J-1.4918
G02 X99.5961 Y206.3708 I57.3336 J-0.0044
G02 X100.1777 Y208.8759 I8.8688 J-0.7392
G01 X100.2460 Y209.0115
G01 X100.3227 Y209.1424
G02 X101.3380 Y209.6170 I0.7897 J-0.3662
G01 X101.4814 Y209.5674
G02 X102.7516 Y208.4612 I-1.6875 J-3.2201
G02 X104.1305 Y205.3168 I-7.5174 J-5.1709
G01 X104.1687 Y205.1644
G02 X104.8958 Y198.9344 I-31.5983 J-6.8453
G02 X104.9117 Y198.4635 I-68.2736 J-2.5526
G02 X104.9737 Y191.1222 I-848.6276 J-10.8372
G03 X105.2092 Y187.8853 I22.7658 J0.0290
G03 X105.6965 Y186.5656 I2.8893 J0.3171
G03 X106.7063 Y186.4561 I0.5641 J0.4912
G03 X107.2776 Y186.8759 I-1.5709 J2.7364
G03 X111.3045 Y196.2286 I-9.5561 J9.6576
G03 X110.6072 Y201.6286 I-16.2568 J0.6457
G00 Z5.0000


(No. 14: Engraving 37)
G00 X140.6019 Y67.8640 Z5.0000
G00 Z0.5000
G01 Z-0.0100 F1200
G02 X101.5235 Y99.0264 I581.3273 J769.0813
G02 X82.7107 Y115.8574 I255.3943 J304.3949
G02 X73.2701 Y125.8061 I90.9349 J95.7445
G02 X69.9416 Y130.3360 I27.4886 J23.6865
G01 X69.7337 Y130.7308
G01 X69.5647 Y131.1435
G01 X69.5180 Y131.5818
G01 X69.8761 Y131.7759
G02 X71.1246 Y131.3143 I-0.8952 J-4.3407
G02 X74.8810 Y128.9098 I-19.7038 J-34.9185
G02 X85.8720 Y120.5094 I-161.7689 J-223.0470
G02 X112.0319 Y99.2593 I-2207.7225 J-2744.5368
G03 X132.1493 Y83.3020 I497.6681 J606.7508
G03 X141.7099 Y76.5237 I89.7826 J116.5044
G03 X145.1273 Y74.6359 I14.5776 J22.3530
G01 X145.6461 Y74.4301
G01 X146.1802 Y74.2687
G01 X146.7325 Y74.1975
G01 X147.2479 Y74.3735
G01 X147.4135 Y74.8555
G01 X147.2935 Y75.3650
G01 X147.0693 Y75.8400
G03 X145.1703 Y78.3509 I-14.6228 J-9.0856
G03 X139.1878 Y84.2576 I-65.6446 J-60.5033
G03 X124.0547 Y97.2929 I-307.7304 J-341.9539
G03 X96.7488 Y119.6964 I-5362.9363 J-6508.6214
G02 X79.8098 Y134.0744 I364.9768 J447.1538
G02 X72.9420 Y140.6664 I70.3906 J80.2087
G02 X70.6551 Y143.5701 I12.5000 J12.1975
G01 X70.4220 Y144.0447
G01 X70.2875 Y144.5543
G01 X70.4284 Y145.0482
G01 X70.9067 Y145.2531
G01 X71.4365 Y145.2138
G01 X71.9516 Y145.0781
G02 X74.8259 Y143.6893 I-6.4492 J-17.0164
G02 X81.9062 Y138.9436 I-47.2946 J-78.2142
G02 X97.9258 Y126.5571 I-276.5478 J-374.2174
G01 X98.3416 Y126.2237
G02 X125.6527 Y104.0308 I-6013.5707 J-7428.3049
G03 X143.2806 Y90.1997 I361.5945 J442.7091
G03 X151.1865 Y84.7540 I64.1432 J84.6592
G03 X154.5193 Y83.0841 I9.6377 J15.0737
G01 X155.0343 Y82.9460
G01 X155.5645 Y82.9017
G01 X156.0506 Y83.0919
G01 X156.2133 Y83.5780
G01 X156.0891 Y84.0898
G01 X155.8612 Y84.5666
G03 X153.9444 Y87.0881 I-14.8230 J-9.2795
G03 X147.9181 Y93.0233 I-66.4557 J-61.4480
G03 X132.6832 Y106.1263 I-311.3315 J-346.5786
G03 X105.2203 Y128.6306 I-5388.1360 J-6547.3369
G02 X88.1988 Y143.0562 I369.3793 J453.1062
G02 X81.2937 Y149.6674 I71.1559 J81.2302
G02 X78.9908 Y152.5786 I12.5900 J12.3254
G01 X78.7556 Y153.0546
G01 X78.6201 Y153.5662
G01 X78.7666 Y154.0599
G01 X79.2511 Y154.2582
G01 X79.7837 Y154.2150
G01 X80.3012 Y154.0768
G02 X82.7247 Y152.9430 I-5.4267 J-14.7568
G02 X89.8767 Y148.2206 I-41.9739 J-71.3465
G01 X90.3110 Y147.9067
G02 X106.4263 Y135.4593 I-278.9863 J-377.8515
G01 X106.8447 Y135.1243
G02 X134.2991 Y112.8414 I-6026.6306 J-7453.3910
G03 X152.0010 Y98.9660 I364.6870 J447.0292
G03 X159.9379 Y93.5007 I64.6989 J85.4616
G03 X163.2824 Y91.8223 I9.7263 J15.2107
G01 X163.7992 Y91.6829
G01 X164.3313 Y91.6373
G01 X164.8194 Y91.8277
G01 X164.9807 Y92.3150
G01 X164.8550 Y92.8274
G01 X164.6260 Y93.3045
G03 X162.7032 Y95.8278 I-14.8682 J-9.3358
G03 X156.6628 Y101.7674 I-66.6421 J-61.7320
G03 X141.3954 Y114.8808 I-312.3248 J-348.1816
G03 X113.8083 Y137.4597 I-5451.4493 J-6632.4983
G02 X96.6586 Y151.9783 I370.9424 J455.5540
G02 X89.7010 Y158.6325 I71.7954 J82.0325
G02 X87.3763 Y161.5602 I12.8950 J12.6257
G01 X87.1358 Y162.0378
G01 X86.9896 Y162.5506
G01 X87.1092 Y163.0571
G01 X87.5831 Y163.2771
G01 X88.1169 Y163.2391
G01 X88.6356 Y163.1017
G02 X91.0626 Y161.9637 I-5.4185 J-14.7139
G02 X98.2253 Y157.2288 I-42.4855 J-72.0538
G02 X113.9696 Y145.1180 I-262.6862 J-357.7849
G01 X114.3892 Y144.7830
G02 X141.9760 Y122.4254 I-4322.9724 J-5362.2762
G03 X160.2221 Y108.0981 I397.2229 J487.0905
G03 X168.6505 Y102.2692 I69.5196 J91.5147
G03 X172.0174 Y100.5730 I9.9125 J15.4863
G01 X172.5375 Y100.4306
G01 X173.0733 Y100.3819
G01 X173.5656 Y100.5715
G01 X173.7241 Y101.0645
G01 X173.5924 Y101.5807
G01 X173.3579 Y102.0610
G03 X171.4072 Y104.6022 I-15.1880 J-9.6401
G03 X165.2977 Y110.5900 I-67.9979 J-63.2680
G03 X149.8695 Y123.8187 I-318.3848 J-355.7101
G03 X122.0586 Y146.5518 I-5475.3269 J-6669.9903
G02 X104.8110 Y161.1260 I378.2685 J465.1454
G02 X97.8075 Y167.8009 I72.9360 J83.5390
G02 X95.4633 Y170.7366 I12.9503 J12.7444
G01 X95.2210 Y171.2162
G01 X95.0769 Y171.7322
G01 X95.2159 Y172.2343
G01 X95.7052 Y172.4346
G01 X96.2435 Y172.3877
G01 X96.7660 Y172.2454
G02 X99.2139 Y171.0927 I-5.6268 J-15.1247
G02 X106.4444 Y166.3155 I-43.1814 J-73.2161
G01 X106.8837 Y165.9981
G02 X123.1893 Y153.4251 I-286.1367 J-387.9420
G02 X150.9879 Y130.9195 I-5073.4807 J-6295.1003
G03 X169.3359 Y116.5540 I383.7460 J471.2335
G03 X177.3677 Y111.0229 I66.4396 J87.8812
G03 X180.7486 Y109.3167 I10.0194 J15.6513
G01 X181.2708 Y109.1727
G01 X181.8089 Y109.1223
G01 X182.3038 Y109.3114
G01 X182.4610 Y109.8069
G01 X182.3264 Y110.3246
G01 X182.0893 Y110.8062
G03 X180.1254 Y113.3541 I-15.3280 J-9.7836
G03 X173.9840 Y119.3604 I-68.5929 J-63.9936
G03 X158.4821 Y132.6332 I-321.0685 J-359.3017
G03 X130.5604 Y155.4287 I-5493.2514 J-6700.0484
G02 X113.2565 Y170.0292 I381.5225 J469.7196
G02 X106.2270 Y176.7142 I73.4825 J84.3076
G02 X103.8717 Y179.6538 I13.0003 J12.8295
G01 X103.6280 Y180.1343
G01 X103.4835 Y180.6516
G01 X103.6284 Y181.1528
G01 X104.1231 Y181.3466
G01 X104.6634 Y181.2965
G01 X105.1877 Y181.1523
G02 X107.6449 Y179.9935 I-5.7160 J-15.3050
G02 X114.9063 Y175.1990 I-43.5222 J-73.8114
G01 X115.3475 Y174.8806
G02 X131.7262 Y162.2652 I-287.7677 J-390.5530
G02 X159.6322 Y139.6995 I-5081.5452 J-6312.6581
G03 X178.0342 Y125.3071 I385.8392 J474.3687
G03 X186.0879 Y119.7644 I66.8078 J88.4515
G03 X189.4771 Y118.0532 I10.0808 J15.7535
G01 X190.0004 Y117.9083
G01 X190.5398 Y117.8568
G01 X191.0362 Y118.0455
G01 X191.1927 Y118.5426
G01 X191.0561 Y119.0613
G01 X190.8175 Y119.5436
G03 X188.8447 Y122.0954 I-15.4106 J-9.8754
G03 X182.6816 Y128.1117 I-68.9484 J-64.4662
G03 X167.1299 Y141.4086 I-322.8359 J-361.8379
G03 X139.0616 Y164.2960 I-5558.4792 J-6788.0476
G02 X121.6213 Y178.9945 I384.0574 J473.3955
G02 X114.5352 Y185.7240 I74.2595 J85.2895
G02 X112.1564 Y188.6808 I13.3019 J13.1367
G01 X111.9074 Y189.1631
G01 X111.7532 Y189.6819
G01 X111.8745 Y190.1949
G01 X112.3619 Y190.4111
G01 X112.9063 Y190.3754
G01 X113.4370 Y190.2433
G01 X113.9539 Y190.0640
G02 X117.8387 Y188.0564 I-10.8715 J-25.7999
G01 X118.3071 Y187.7735
G02 X128.2506 Y180.9923 I-87.0123 J-138.2678
G02 X150.3459 Y163.9475 I-383.7835 J-520.3467
G02 X197.5815 Y124.5925 I-1174.0798 J-1457.2090
G00 Z5.0000


(No. 15: Engraving 38)
G00 X203.9440 Y120.8081 Z5.0000
G00 Z0.5000
G01 Z-0.0100 F1200
G03 X241.8783 Y89.2601 I794.1474 J916.3276
G03 X259.6259 Y75.8934 I238.4112 J298.0839
G03 X267.8704 Y70.6459 I54.6949 J76.8321
G03 X271.5151 Y69.0148 I9.9063 J17.2487
G03 X272.8260 Y68.8021 I1.3063 J3.9044
G01 X273.2636 Y68.8708
G01 X273.6439 Y69.0926
G01 X273.8540 Y69.4997
G01 X273.8386 Y69.9626
G01 X273.7018 Y70.4072
G03 X272.4654 Y72.3724 I-8.5701 J-4.0203
G01 X272.1739 Y72.7357
G03 X267.3117 Y77.7466 I-44.8035 J-38.6095
G03 X254.6280 Y88.7105 I-197.0495 J-215.1408
G03 X231.4424 Y107.4719 I-2174.0973 J-2663.0731
G02 X215.6999 Y120.6372 I311.3942 J388.3481
G02 X208.9681 Y127.0898 I62.8442 J72.2995
G02 X206.7047 Y130.0461 I12.2787 J11.7454
G01 X206.5040 Y130.4670
G01 X206.3630 Y130.9109
G01 X206.3429 Y131.3742
G01 X206.5514 Y131.7826
G01 X206.9637 Y132.0030
G01 X207.4336 Y132.0431
G01 X207.9028 Y131.9846
G02 X210.1170 Y131.1679 I-2.4903 J-10.1612
G01 X210.5409 Y130.9577
G02 X216.9683 Y126.9657 I-29.4640 J-54.6090
G01 X217.3572 Y126.6961
G02 X231.3502 Y116.1764 I-190.2029 J-267.5674
G02 X254.9757 Y97.2954 I-3131.5607 J-3942.7063
G03 X270.6802 Y85.2234 I279.1416 J346.8861
G03 X278.1449 Y80.2717 I53.8031 J73.0050
G03 X281.5591 Y78.6837 I9.1287 J15.1624
G03 X282.9529 Y78.5579 I0.9222 J2.4337
G01 X283.3614 Y78.7820
G01 X283.5679 Y79.1908
G01 X283.5504 Y79.6534
G01 X283.4129 Y80.0975
G03 X282.1757 Y82.0610 I-8.5837 J-4.0369
G01 X281.8842 Y82.4240
G03 X277.0222 Y87.4303 I-44.7465 J-38.5928
G03 X264.3390 Y98.3824 I-196.6097 J-214.8669
G03 X241.1594 Y117.1176 I-2168.3613 J-2659.0316
G02 X225.4269 Y130.2600 I310.5562 J387.7478
G02 X218.6994 Y136.7024 I62.6877 J72.1952
G02 X216.4373 Y139.6546 I12.2554 J11.7332
G01 X216.2367 Y140.0749
G01 X216.0955 Y140.5183
G01 X216.0749 Y140.9811
G01 X216.2821 Y141.3897
G01 X216.6931 Y141.6110
G01 X217.1622 Y141.6519
G01 X217.6308 Y141.5942
G02 X219.8425 Y140.7804 I-2.4722 J-10.1321
G01 X220.2660 Y140.5709
G02 X226.6867 Y136.5885 I-29.3678 J-54.5152
G01 X227.0752 Y136.3194
G02 X241.0542 Y125.8225 I-189.7264 J-267.2216
G02 X264.6569 Y106.9815 I-3126.7309 J-3941.1453
G03 X280.3462 Y94.9354 I278.4495 J346.4239
G03 X287.8034 Y89.9951 I53.6587 J72.8968
G03 X291.2140 Y88.4118 I9.0956 J15.1279
G03 X292.6059 Y88.2882 I0.9168 J2.4243
G01 X293.0132 Y88.5132
G01 X293.2183 Y88.9221
G01 X293.2004 Y89.3842
G01 X293.0626 Y89.8277
G03 X291.8262 Y91.7885 I-8.5694 J-4.0335
G01 X291.5349 Y92.1509
G03 X286.6761 Y97.1492 I-44.6394 J-38.5319
G03 X274.0018 Y108.0820 I-196.0940 J-214.5195
G03 X250.8401 Y126.7814 I-2163.0644 J-2655.5460
G02 X235.1216 Y139.8977 I309.6340 J387.0410
G02 X228.4000 Y146.3282 I62.5132 J72.0705
G02 X226.1400 Y149.2757 I12.2250 J11.7141
G01 X225.9395 Y149.6953
G01 X225.7985 Y150.1381
G01 X225.7778 Y150.6003
G01 X225.9843 Y151.0085
G01 X226.3944 Y151.2301
G01 X226.8628 Y151.2716
G01 X227.3308 Y151.2145
G02 X229.5399 Y150.4039 I-2.4560 J-10.1088
G01 X229.9630 Y150.1949
G02 X236.3768 Y146.2225 I-29.2614 J-54.4092
G01 X236.7649 Y145.9541
G02 X250.7296 Y135.4807 I-189.1568 J-266.7575
G02 X274.3076 Y116.6810 I-3119.8267 J-3936.9830
G03 X289.9796 Y104.6625 I277.6397 J345.8141
G03 X297.4284 Y99.7345 I53.4850 J72.7503
G03 X300.8350 Y98.1564 I9.0590 J15.0887
G03 X302.2249 Y98.0348 I0.9116 J2.4168
G01 X302.6310 Y98.2603
G01 X302.8353 Y98.6690
G01 X302.8171 Y99.1305
G01 X302.6795 Y99.5733
G03 X301.4442 Y101.5310 I-8.5553 J-4.0299
G01 X301.1532 Y101.8928
G03 X296.2990 Y106.8821 I-44.5254 J-38.4641
G03 X283.6366 Y117.7929 I-195.5187 J-214.1043
G03 X260.4978 Y136.4525 I-2157.4476 J-2651.6561
G02 X244.7960 Y149.5405 I308.6447 J386.2468
G02 X238.0816 Y155.9582 I62.3162 J71.9189
G02 X235.8241 Y158.9005 I12.1890 J11.6892
G01 X235.6239 Y159.3195
G01 X235.4832 Y159.7616
G01 X235.4626 Y160.2231
G01 X235.6686 Y160.6308
G01 X236.0778 Y160.8526
G01 X236.5454 Y160.8947
G01 X237.0127 Y160.8382
G02 X239.2191 Y160.0308 I-2.4389 J-10.0836
G01 X239.6416 Y159.8225
G02 X246.0479 Y155.8607 I-29.1457 J-54.2897
G01 X246.4355 Y155.5930
G02 X260.3842 Y145.1443 I-188.5222 J-266.2066
G02 X283.9345 Y126.3884 I-3112.0652 J-3931.7282
G03 X299.5873 Y114.3991 I276.7198 J345.0644
G03 X307.0269 Y109.4841 I53.2942 J72.5811
G03 X310.4291 Y107.9115 I9.0207 J15.0482
G03 X311.8168 Y107.7921 I0.9063 J2.4094
G01 X312.2218 Y108.0180
G01 X312.4252 Y108.4264
G01 X312.4069 Y108.8871
G01 X312.2695 Y109.3292
G03 X311.0358 Y111.2836 I-8.5308 J-4.0186
G01 X310.7450 Y111.6448
G03 X305.8963 Y116.6243 I-44.3901 J-38.3741
G03 X293.2478 Y127.5115 I-194.8915 J-213.6276
G03 X270.1358 Y146.1284 I-2151.2334 J-2647.0130
G02 X254.4537 Y159.1857 I307.5537 J385.3234
G02 X247.7477 Y165.5895 I62.0921 J71.7355
G02 X245.4933 Y168.5262 I12.1458 J11.6575
G01 X245.2934 Y168.9445
G01 X245.1531 Y169.3859
G01 X245.1328 Y169.8466
G01 X245.3385 Y170.2536
G01 X245.7468 Y170.4755
G01 X246.2135 Y170.5181
G01 X246.6801 Y170.4623
G02 X248.8834 Y169.6584 I-2.4203 J-10.0557
G01 X249.3054 Y169.4508
G02 X255.7034 Y165.5003 I-29.0162 J-54.1495
G01 X256.0906 Y165.2333
G02 X270.0214 Y154.8109 I-187.8133 J-265.5569
G02 X293.5402 Y136.1016 I-3103.4561 J-3925.3899
G03 X309.1707 Y124.1440 I275.7133 J344.2046
G03 X316.5996 Y119.2432 I53.0881 J72.3929
G03 X319.9967 Y117.6765 I8.9785 J15.0023
G03 X321.3819 Y117.5595 I0.9003 J2.4010
G01 X321.7857 Y117.7860
G01 X321.9883 Y118.1939
G01 X321.9699 Y118.6538
G01 X321.8328 Y119.0952
G03 X320.6010 Y121.0459 I-8.5077 J-4.0078
G01 X320.3108 Y121.4064
G03 X315.4688 Y126.3751 I-44.2358 J-38.2643
G03 X302.8372 Y137.2365 I-194.1692 J-213.0370
G03 X279.7578 Y155.8059 I-2143.9596 J-2641.0369
G02 X264.0999 Y168.8291 I306.3041 J384.1984
G02 X257.4046 Y175.2172 I61.8422 J71.5195
G02 X255.1541 Y178.1477 I12.0940 J11.6167
G01 X254.9548 Y178.5652
G01 X254.8149 Y179.0058
G01 X254.7951 Y179.4656
G01 X255.0008 Y179.8717
G01 X255.4081 Y180.0934
G01 X255.8738 Y180.1366
G01 X256.3395 Y180.0815
G02 X258.5393 Y179.2816 I-2.3996 J-10.0240
G01 X258.9606 Y179.0747
G02 X265.3489 Y175.1369 I-28.8671 J-53.9805
G01 X265.7354 Y174.8706
G02 X279.6449 Y164.4773 I-186.9904 J-264.7555
G02 X303.1247 Y145.8207 I-3092.4817 J-3916.0505
G03 X318.7267 Y133.8994 I274.5019 J343.0849
G03 X326.1421 Y129.0149 I52.8365 J72.1425
G03 X329.5330 Y127.4552 I8.9268 J14.9416
G03 X330.9152 Y127.3412 I0.8928 J2.3891
G01 X331.3173 Y127.5685
G01 X331.5187 Y127.9760
G01 X331.5003 Y128.4349
G01 X331.3636 Y128.8754
G03 X330.1344 Y130.8220 I-8.4807 J-3.9935
G01 X329.8447 Y131.1817
G03 X325.0113 Y136.1384 I-44.0523 J-38.1218
G03 X312.4010 Y146.9708 I-193.3056 J-212.2769
G03 X289.3624 Y165.4864 I-2134.9077 J-2632.8290
G02 X273.7352 Y178.4702 I304.8045 J382.7560
G02 X267.0534 Y184.8404 I61.5353 J71.2351
